lut/kodak-am.cube
# kodak-am — LUT tự sinh của Xưởng Video
LUT_3D_SIZE 9
0.017545 0.003671 0.000000
0.150977 0.003671 0.000000
0.284813 0.003671 0.000000
0.418928 0.003671 0.000000
0.553155 0.003671 0.000000
0.687308 0.003671 0.000000
0.821214 0.003671 0.000000
0.954737 0.003671 0.000000
1.000000 0.003671 0.000000
0.017545 0.131942 0.000000
0.150977 0.131942 0.000000
0.284813 0.131942 0.000000
0.418928 0.131942 0.000000
0.553155 0.131942 0.000000
0.687308 0.131942 0.000000
0.821214 0.131942 0.000000
0.954737 0.131942 0.000000
1.000000 0.131942 0.000000
0.017545 0.260599 0.000000
0.150977 0.260599 0.000000
0.284813 0.260599 0.000000
0.418928 0.260599 0.000000
0.553155 0.260599 0.000000
0.687308 0.260599 0.000000
0.821214 0.260599 0.000000
0.954737 0.260599 0.000000
1.000000 0.260599 0.000000
0.017545 0.389539 0.000000
0.150977 0.389539 0.000000
0.284813 0.389539 0.000000
0.418928 0.389539 0.000000
0.553155 0.389539 0.000000
0.687308 0.389539 0.000000
0.821214 0.389539 0.000000
0.954737 0.389539 0.000000
1.000000 0.389539 0.000000
0.017545 0.518619 0.000000
0.150977 0.518619 0.000000
0.284813 0.518619 0.000000
0.418928 0.518619 0.000000
0.553155 0.518619 0.000000
0.687308 0.518619 0.000000
0.821214 0.518619 0.000000
0.954737 0.518619 0.000000
1.000000 0.518619 0.000000
0.017545 0.647675 0.000000
0.150977 0.647675 0.000000
0.284813 0.647675 0.000000
0.418928 0.647675 0.000000
0.553155 0.647675 0.000000
0.687308 0.647675 0.000000
0.821214 0.647675 0.000000
0.954737 0.647675 0.000000
1.000000 0.647675 0.000000
0.017545 0.776547 0.000000
0.150977 0.776547 0.000000
0.284813 0.776547 0.000000
0.418928 0.776547 0.000000
0.553155 0.776547 0.000000
0.687308 0.776547 0.000000
0.821214 0.776547 0.000000
0.954737 0.776547 0.000000
1.000000 0.776547 0.000000
0.017545 0.905101 0.000000
0.150977 0.905101 0.000000
0.284813 0.905101 0.000000
0.418928 0.905101 0.000000
0.553155 0.905101 0.000000
0.687308 0.905101 0.000000
0.821214 0.905101 0.000000
0.954737 0.905101 0.000000
1.000000 0.905101 0.000000
0.017545 1.000000 0.000000
0.150977 1.000000 0.000000
0.284813 1.000000 0.000000
0.418928 1.000000 0.000000
0.553155 1.000000 0.000000
0.687308 1.000000 0.000000
0.821214 1.000000 0.000000
0.954737 1.000000 0.000000
1.000000 1.000000 0.000000
0.017545 0.003671 0.117131
0.150977 0.003671 0.117131
0.284813 0.003671 0.117131
0.418928 0.003671 0.117131
0.553155 0.003671 0.117131
0.687308 0.003671 0.117131
0.821214 0.003671 0.117131
0.954737 0.003671 0.117131
1.000000 0.003671 0.117131
0.017545 0.131942 0.117131
0.150977 0.131942 0.117131
0.284813 0.131942 0.117131
0.418928 0.131942 0.117131
0.553155 0.131942 0.117131
0.687308 0.131942 0.117131
0.821214 0.131942 0.117131
0.954737 0.131942 0.117131
1.000000 0.131942 0.117131
0.017545 0.260599 0.117131
0.150977 0.260599 0.117131
0.284813 0.260599 0.117131
0.418928 0.260599 0.117131
0.553155 0.260599 0.117131
0.687308 0.260599 0.117131
0.821214 0.260599 0.117131
0.954737 0.260599 0.117131
1.000000 0.260599 0.117131
0.017545 0.389539 0.117131
0.150977 0.389539 0.117131
0.284813 0.389539 0.117131
0.418928 0.389539 0.117131
0.553155 0.389539 0.117131
0.687308 0.389539 0.117131
0.821214 0.389539 0.117131
0.954737 0.389539 0.117131
1.000000 0.389539 0.117131
0.017545 0.518619 0.117131
0.150977 0.518619 0.117131
0.284813 0.518619 0.117131
0.418928 0.518619 0.117131
0.553155 0.518619 0.117131
0.687308 0.518619 0.117131
0.821214 0.518619 0.117131
0.954737 0.518619 0.117131
1.000000 0.518619 0.117131
0.017545 0.647675 0.117131
0.150977 0.647675 0.117131
0.284813 0.647675 0.117131
0.418928 0.647675 0.117131
0.553155 0.647675 0.117131
0.687308 0.647675 0.117131
0.821214 0.647675 0.117131
0.954737 0.647675 0.117131
1.000000 0.647675 0.117131
0.017545 0.776547 0.117131
0.150977 0.776547 0.117131
0.284813 0.776547 0.117131
0.418928 0.776547 0.117131
0.553155 0.776547 0.117131
0.687308 0.776547 0.117131
0.821214 0.776547 0.117131
0.954737 0.776547 0.117131
1.000000 0.776547 0.117131
0.017545 0.905101 0.117131
0.150977 0.905101 0.117131
0.284813 0.905101 0.117131
0.418928 0.905101 0.117131
0.553155 0.905101 0.117131
0.687308 0.905101 0.117131
0.821214 0.905101 0.117131
0.954737 0.905101 0.117131
1.000000 0.905101 0.117131
0.017545 1.000000 0.117131
0.150977 1.000000 0.117131
0.284813 1.000000 0.117131
0.418928 1.000000 0.117131
0.553155 1.000000 0.117131
0.687308 1.000000 0.117131
0.821214 1.000000 0.117131
0.954737 1.000000 0.117131
1.000000 1.000000 0.117131
0.017545 0.003671 0.240623
0.150977 0.003671 0.240623
0.284813 0.003671 0.240623
0.418928 0.003671 0.240623
0.553155 0.003671 0.240623
0.687308 0.003671 0.240623
0.821214 0.003671 0.240623
0.954737 0.003671 0.240623
1.000000 0.003671 0.240623
0.017545 0.131942 0.240623
0.150977 0.131942 0.240623
0.284813 0.131942 0.240623
0.418928 0.131942 0.240623
0.553155 0.131942 0.240623
0.687308 0.131942 0.240623
0.821214 0.131942 0.240623
0.954737 0.131942 0.240623
1.000000 0.131942 0.240623
0.017545 0.260599 0.240623
0.150977 0.260599 0.240623
0.284813 0.260599 0.240623
0.418928 0.260599 0.240623
0.553155 0.260599 0.240623
0.687308 0.260599 0.240623
0.821214 0.260599 0.240623
0.954737 0.260599 0.240623
1.000000 0.260599 0.240623
0.017545 0.389539 0.240623
0.150977 0.389539 0.240623
0.284813 0.389539 0.240623
0.418928 0.389539 0.240623
0.553155 0.389539 0.240623
0.687308 0.389539 0.240623
0.821214 0.389539 0.240623
0.954737 0.389539 0.240623
1.000000 0.389539 0.240623
0.017545 0.518619 0.240623
0.150977 0.518619 0.240623
0.284813 0.518619 0.240623
0.418928 0.518619 0.240623
0.553155 0.518619 0.240623
0.687308 0.518619 0.240623
0.821214 0.518619 0.240623
0.954737 0.518619 0.240623
1.000000 0.518619 0.240623
0.017545 0.647675 0.240623
0.150977 0.647675 0.240623
0.284813 0.647675 0.240623
0.418928 0.647675 0.240623
0.553155 0.647675 0.240623
0.687308 0.647675 0.240623
0.821214 0.647675 0.240623
0.954737 0.647675 0.240623
1.000000 0.647675 0.240623
0.017545 0.776547 0.240623
0.150977 0.776547 0.240623
0.284813 0.776547 0.240623
0.418928 0.776547 0.240623
0.553155 0.776547 0.240623
0.687308 0.776547 0.240623
0.821214 0.776547 0.240623
0.954737 0.776547 0.240623
1.000000 0.776547 0.240623
0.017545 0.905101 0.240623
0.150977 0.905101 0.240623
0.284813 0.905101 0.240623
0.418928 0.905101 0.240623
0.553155 0.905101 0.240623
0.687308 0.905101 0.240623
0.821214 0.905101 0.240623
0.954737 0.905101 0.240623
1.000000 0.905101 0.240623
0.017545 1.000000 0.240623
0.150977 1.000000 0.240623
0.284813 1.000000 0.240623
0.418928 1.000000 0.240623
0.553155 1.000000 0.240623
0.687308 1.000000 0.240623
0.821214 1.000000 0.240623
0.954737 1.000000 0.240623
1.000000 1.000000 0.240623
0.017545 0.003671 0.364393
0.150977 0.003671 0.364393
0.284813 0.003671 0.364393
0.418928 0.003671 0.364393
0.553155 0.003671 0.364393
0.687308 0.003671 0.364393
0.821214 0.003671 0.364393
0.954737 0.003671 0.364393
1.000000 0.003671 0.364393
0.017545 0.131942 0.364393
0.150977 0.131942 0.364393
0.284813 0.131942 0.364393
0.418928 0.131942 0.364393
0.553155 0.131942 0.364393
0.687308 0.131942 0.364393
0.821214 0.131942 0.364393
0.954737 0.131942 0.364393
1.000000 0.131942 0.364393
0.017545 0.260599 0.364393
0.150977 0.260599 0.364393
0.284813 0.260599 0.364393
0.418928 0.260599 0.364393
0.553155 0.260599 0.364393
0.687308 0.260599 0.364393
0.821214 0.260599 0.364393
0.954737 0.260599 0.364393
1.000000 0.260599 0.364393
0.017545 0.389539 0.364393
0.150977 0.389539 0.364393
0.284813 0.389539 0.364393
0.418928 0.389539 0.364393
0.553155 0.389539 0.364393
0.687308 0.389539 0.364393
0.821214 0.389539 0.364393
0.954737 0.389539 0.364393
1.000000 0.389539 0.364393
0.017545 0.518619 0.364393
0.150977 0.518619 0.364393
0.284813 0.518619 0.364393
0.418928 0.518619 0.364393
0.553155 0.518619 0.364393
0.687308 0.518619 0.364393
0.821214 0.518619 0.364393
0.954737 0.518619 0.364393
1.000000 0.518619 0.364393
0.017545 0.647675 0.364393
0.150977 0.647675 0.364393
0.284813 0.647675 0.364393
0.418928 0.647675 0.364393
0.553155 0.647675 0.364393
0.687308 0.647675 0.364393
0.821214 0.647675 0.364393
0.954737 0.647675 0.364393
1.000000 0.647675 0.364393
0.017545 0.776547 0.364393
0.150977 0.776547 0.364393
0.284813 0.776547 0.364393
0.418928 0.776547 0.364393
0.553155 0.776547 0.364393
0.687308 0.776547 0.364393
0.821214 0.776547 0.364393
0.954737 0.776547 0.364393
1.000000 0.776547 0.364393
0.017545 0.905101 0.364393
0.150977 0.905101 0.364393
0.284813 0.905101 0.364393
0.418928 0.905101 0.364393
0.553155 0.905101 0.364393
0.687308 0.905101 0.364393
0.821214 0.905101 0.364393
0.954737 0.905101 0.364393
1.000000 0.905101 0.364393
0.017545 1.000000 0.364393
0.150977 1.000000 0.364393
0.284813 1.000000 0.364393
0.418928 1.000000 0.364393
0.553155 1.000000 0.364393
0.687308 1.000000 0.364393
0.821214 1.000000 0.364393
0.954737 1.000000 0.364393
1.000000 1.000000 0.364393
0.017545 0.003671 0.488320
0.150977 0.003671 0.488320
0.284813 0.003671 0.488320
0.418928 0.003671 0.488320
0.553155 0.003671 0.488320
0.687308 0.003671 0.488320
0.821214 0.003671 0.488320
0.954737 0.003671 0.488320
1.000000 0.003671 0.488320
0.017545 0.131942 0.488320
0.150977 0.131942 0.488320
0.284813 0.131942 0.488320
0.418928 0.131942 0.488320
0.553155 0.131942 0.488320
0.687308 0.131942 0.488320
0.821214 0.131942 0.488320
0.954737 0.131942 0.488320
1.000000 0.131942 0.488320
0.017545 0.260599 0.488320
0.150977 0.260599 0.488320
0.284813 0.260599 0.488320
0.418928 0.260599 0.488320
0.553155 0.260599 0.488320
0.687308 0.260599 0.488320
0.821214 0.260599 0.488320
0.954737 0.260599 0.488320
1.000000 0.260599 0.488320
0.017545 0.389539 0.488320
0.150977 0.389539 0.488320
0.284813 0.389539 0.488320
0.418928 0.389539 0.488320
0.553155 0.389539 0.488320
0.687308 0.389539 0.488320
0.821214 0.389539 0.488320
0.954737 0.389539 0.488320
1.000000 0.389539 0.488320
0.017545 0.518619 0.488320
0.150977 0.518619 0.488320
0.284813 0.518619 0.488320
0.418928 0.518619 0.488320
0.553155 0.518619 0.488320
0.687308 0.518619 0.488320
0.821214 0.518619 0.488320
0.954737 0.518619 0.488320
1.000000 0.518619 0.488320
0.017545 0.647675 0.488320
0.150977 0.647675 0.488320
0.284813 0.647675 0.488320
0.418928 0.647675 0.488320
0.553155 0.647675 0.488320
0.687308 0.647675 0.488320
0.821214 0.647675 0.488320
0.954737 0.647675 0.488320
1.000000 0.647675 0.488320
0.017545 0.776547 0.488320
0.150977 0.776547 0.488320
0.284813 0.776547 0.488320
0.418928 0.776547 0.488320
0.553155 0.776547 0.488320
0.687308 0.776547 0.488320
0.821214 0.776547 0.488320
0.954737 0.776547 0.488320
1.000000 0.776547 0.488320
0.017545 0.905101 0.488320
0.150977 0.905101 0.488320
0.284813 0.905101 0.488320
0.418928 0.905101 0.488320
0.553155 0.905101 0.488320
0.687308 0.905101 0.488320
0.821214 0.905101 0.488320
0.954737 0.905101 0.488320
1.000000 0.905101 0.488320
0.017545 1.000000 0.488320
0.150977 1.000000 0.488320
0.284813 1.000000 0.488320
0.418928 1.000000 0.488320
0.553155 1.000000 0.488320
0.687308 1.000000 0.488320
0.821214 1.000000 0.488320
0.954737 1.000000 0.488320
1.000000 1.000000 0.488320
0.017545 0.003671 0.612261
0.150977 0.003671 0.612261
0.284813 0.003671 0.612261
0.418928 0.003671 0.612261
0.553155 0.003671 0.612261
0.687308 0.003671 0.612261
0.821214 0.003671 0.612261
0.954737 0.003671 0.612261
1.000000 0.003671 0.612261
0.017545 0.131942 0.612261
0.150977 0.131942 0.612261
0.284813 0.131942 0.612261
0.418928 0.131942 0.612261
0.553155 0.131942 0.612261
0.687308 0.131942 0.612261
0.821214 0.131942 0.612261
0.954737 0.131942 0.612261
1.000000 0.131942 0.612261
0.017545 0.260599 0.612261
0.150977 0.260599 0.612261
0.284813 0.260599 0.612261
0.418928 0.260599 0.612261
0.553155 0.260599 0.612261
0.687308 0.260599 0.612261
0.821214 0.260599 0.612261
0.954737 0.260599 0.612261
1.000000 0.260599 0.612261
0.017545 0.389539 0.612261
0.150977 0.389539 0.612261
0.284813 0.389539 0.612261
0.418928 0.389539 0.612261
0.553155 0.389539 0.612261
0.687308 0.389539 0.612261
0.821214 0.389539 0.612261
0.954737 0.389539 0.612261
1.000000 0.389539 0.612261
0.017545 0.518619 0.612261
0.150977 0.518619 0.612261
0.284813 0.518619 0.612261
0.418928 0.518619 0.612261
0.553155 0.518619 0.612261
0.687308 0.518619 0.612261
0.821214 0.518619 0.612261
0.954737 0.518619 0.612261
1.000000 0.518619 0.612261
0.017545 0.647675 0.612261
0.150977 0.647675 0.612261
0.284813 0.647675 0.612261
0.418928 0.647675 0.612261
0.553155 0.647675 0.612261
0.687308 0.647675 0.612261
0.821214 0.647675 0.612261
0.954737 0.647675 0.612261
1.000000 0.647675 0.612261
0.017545 0.776547 0.612261
0.150977 0.776547 0.612261
0.284813 0.776547 0.612261
0.418928 0.776547 0.612261
0.553155 0.776547 0.612261
0.687308 0.776547 0.612261
0.821214 0.776547 0.612261
0.954737 0.776547 0.612261
1.000000 0.776547 0.612261
0.017545 0.905101 0.612261
0.150977 0.905101 0.612261
0.284813 0.905101 0.612261
0.418928 0.905101 0.612261
0.553155 0.905101 0.612261
0.687308 0.905101 0.612261
0.821214 0.905101 0.612261
0.954737 0.905101 0.612261
1.000000 0.905101 0.612261
0.017545 1.000000 0.612261
0.150977 1.000000 0.612261
0.284813 1.000000 0.612261
0.418928 1.000000 0.612261
0.553155 1.000000 0.612261
0.687308 1.000000 0.612261
0.821214 1.000000 0.612261
0.954737 1.000000 0.612261
1.000000 1.000000 0.612261
0.017545 0.003671 0.736071
0.150977 0.003671 0.736071
0.284813 0.003671 0.736071
0.418928 0.003671 0.736071
0.553155 0.003671 0.736071
0.687308 0.003671 0.736071
0.821214 0.003671 0.736071
0.954737 0.003671 0.736071
1.000000 0.003671 0.736071
0.017545 0.131942 0.736071
0.150977 0.131942 0.736071
0.284813 0.131942 0.736071
0.418928 0.131942 0.736071
0.553155 0.131942 0.736071
0.687308 0.131942 0.736071
0.821214 0.131942 0.736071
0.954737 0.131942 0.736071
1.000000 0.131942 0.736071
0.017545 0.260599 0.736071
0.150977 0.260599 0.736071
0.284813 0.260599 0.736071
0.418928 0.260599 0.736071
0.553155 0.260599 0.736071
0.687308 0.260599 0.736071
0.821214 0.260599 0.736071
0.954737 0.260599 0.736071
1.000000 0.260599 0.736071
0.017545 0.389539 0.736071
0.150977 0.389539 0.736071
0.284813 0.389539 0.736071
0.418928 0.389539 0.736071
0.553155 0.389539 0.736071
0.687308 0.389539 0.736071
0.821214 0.389539 0.736071
0.954737 0.389539 0.736071
1.000000 0.389539 0.736071
0.017545 0.518619 0.736071
0.150977 0.518619 0.736071
0.284813 0.518619 0.736071
0.418928 0.518619 0.736071
0.553155 0.518619 0.736071
0.687308 0.518619 0.736071
0.821214 0.518619 0.736071
0.954737 0.518619 0.736071
1.000000 0.518619 0.736071
0.017545 0.647675 0.736071
0.150977 0.647675 0.736071
0.284813 0.647675 0.736071
0.418928 0.647675 0.736071
0.553155 0.647675 0.736071
0.687308 0.647675 0.736071
0.821214 0.647675 0.736071
0.954737 0.647675 0.736071
1.000000 0.647675 0.736071
0.017545 0.776547 0.736071
0.150977 0.776547 0.736071
0.284813 0.776547 0.736071
0.418928 0.776547 0.736071
0.553155 0.776547 0.736071
0.687308 0.776547 0.736071
0.821214 0.776547 0.736071
0.954737 0.776547 0.736071
1.000000 0.776547 0.736071
0.017545 0.905101 0.736071
0.150977 0.905101 0.736071
0.284813 0.905101 0.736071
0.418928 0.905101 0.736071
0.553155 0.905101 0.736071
0.687308 0.905101 0.736071
0.821214 0.905101 0.736071
0.954737 0.905101 0.736071
1.000000 0.905101 0.736071
0.017545 1.000000 0.736071
0.150977 1.000000 0.736071
0.284813 1.000000 0.736071
0.418928 1.000000 0.736071
0.553155 1.000000 0.736071
0.687308 1.000000 0.736071
0.821214 1.000000 0.736071
0.954737 1.000000 0.736071
1.000000 1.000000 0.736071
0.017545 0.003671 0.859622
0.150977 0.003671 0.859622
0.284813 0.003671 0.859622
0.418928 0.003671 0.859622
0.553155 0.003671 0.859622
0.687308 0.003671 0.859622
0.821214 0.003671 0.859622
0.954737 0.003671 0.859622
1.000000 0.003671 0.859622
0.017545 0.131942 0.859622
0.150977 0.131942 0.859622
0.284813 0.131942 0.859622
0.418928 0.131942 0.859622
0.553155 0.131942 0.859622
0.687308 0.131942 0.859622
0.821214 0.131942 0.859622
0.954737 0.131942 0.859622
1.000000 0.131942 0.859622
0.017545 0.260599 0.859622
0.150977 0.260599 0.859622
0.284813 0.260599 0.859622
0.418928 0.260599 0.859622
0.553155 0.260599 0.859622
0.687308 0.260599 0.859622
0.821214 0.260599 0.859622
0.954737 0.260599 0.859622
1.000000 0.260599 0.859622
0.017545 0.389539 0.859622
0.150977 0.389539 0.859622
0.284813 0.389539 0.859622
0.418928 0.389539 0.859622
0.553155 0.389539 0.859622
0.687308 0.389539 0.859622
0.821214 0.389539 0.859622
0.954737 0.389539 0.859622
1.000000 0.389539 0.859622
0.017545 0.518619 0.859622
0.150977 0.518619 0.859622
0.284813 0.518619 0.859622
0.418928 0.518619 0.859622
0.553155 0.518619 0.859622
0.687308 0.518619 0.859622
0.821214 0.518619 0.859622
0.954737 0.518619 0.859622
1.000000 0.518619 0.859622
0.017545 0.647675 0.859622
0.150977 0.647675 0.859622
0.284813 0.647675 0.859622
0.418928 0.647675 0.859622
0.553155 0.647675 0.859622
0.687308 0.647675 0.859622
0.821214 0.647675 0.859622
0.954737 0.647675 0.859622
1.000000 0.647675 0.859622
0.017545 0.776547 0.859622
0.150977 0.776547 0.859622
0.284813 0.776547 0.859622
0.418928 0.776547 0.859622
0.553155 0.776547 0.859622
0.687308 0.776547 0.859622
0.821214 0.776547 0.859622
0.954737 0.776547 0.859622
1.000000 0.776547 0.859622
0.017545 0.905101 0.859622
0.150977 0.905101 0.859622
0.284813 0.905101 0.859622
0.418928 0.905101 0.859622
0.553155 0.905101 0.859622
0.687308 0.905101 0.859622
0.821214 0.905101 0.859622
0.954737 0.905101 0.859622
1.000000 0.905101 0.859622
0.017545 1.000000 0.859622
0.150977 1.000000 0.859622
0.284813 1.000000 0.859622
0.418928 1.000000 0.859622
0.553155 1.000000 0.859622
0.687308 1.000000 0.859622
0.821214 1.000000 0.859622
0.954737 1.000000 0.859622
1.000000 1.000000 0.859622
0.017545 0.003671 0.982823
0.150977 0.003671 0.982823
0.284813 0.003671 0.982823
0.418928 0.003671 0.982823
0.553155 0.003671 0.982823
0.687308 0.003671 0.982823
0.821214 0.003671 0.982823
0.954737 0.003671 0.982823
1.000000 0.003671 0.982823
0.017545 0.131942 0.982823
0.150977 0.131942 0.982823
0.284813 0.131942 0.982823
0.418928 0.131942 0.982823
0.553155 0.131942 0.982823
0.687308 0.131942 0.982823
0.821214 0.131942 0.982823
0.954737 0.131942 0.982823
1.000000 0.131942 0.982823
0.017545 0.260599 0.982823
0.150977 0.260599 0.982823
0.284813 0.260599 0.982823
0.418928 0.260599 0.982823
0.553155 0.260599 0.982823
0.687308 0.260599 0.982823
0.821214 0.260599 0.982823
0.954737 0.260599 0.982823
1.000000 0.260599 0.982823
0.017545 0.389539 0.982823
0.150977 0.389539 0.982823
0.284813 0.389539 0.982823
0.418928 0.389539 0.982823
0.553155 0.389539 0.982823
0.687308 0.389539 0.982823
0.821214 0.389539 0.982823
0.954737 0.389539 0.982823
1.000000 0.389539 0.982823
0.017545 0.518619 0.982823
0.150977 0.518619 0.982823
0.284813 0.518619 0.982823
0.418928 0.518619 0.982823
0.553155 0.518619 0.982823
0.687308 0.518619 0.982823
0.821214 0.518619 0.982823
0.954737 0.518619 0.982823
1.000000 0.518619 0.982823
0.017545 0.647675 0.982823
0.150977 0.647675 0.982823
0.284813 0.647675 0.982823
0.418928 0.647675 0.982823
0.553155 0.647675 0.982823
0.687308 0.647675 0.982823
0.821214 0.647675 0.982823
0.954737 0.647675 0.982823
1.000000 0.647675 0.982823
0.017545 0.776547 0.982823
0.150977 0.776547 0.982823
0.284813 0.776547 0.982823
0.418928 0.776547 0.982823
0.553155 0.776547 0.982823
0.687308 0.776547 0.982823
0.821214 0.776547 0.982823
0.954737 0.776547 0.982823
1.000000 0.776547 0.982823
0.017545 0.905101 0.982823
0.150977 0.905101 0.982823
0.284813 0.905101 0.982823
0.418928 0.905101 0.982823
0.553155 0.905101 0.982823
0.687308 0.905101 0.982823
0.821214 0.905101 0.982823
0.954737 0.905101 0.982823
1.000000 0.905101 0.982823
0.017545 1.000000 0.982823
0.150977 1.000000 0.982823
0.284813 1.000000 0.982823
0.418928 1.000000 0.982823
0.553155 1.000000 0.982823
0.687308 1.000000 0.982823
0.821214 1.000000 0.982823
0.954737 1.000000 0.982823
1.000000 1.000000 0.982823
