lut/kodak-am.cube
# kodak-am — LUT tự sinh của Xưởng Video
LUT_3D_SIZE 5
0.017545 0.003671 0.000000
0.284813 0.003671 0.000000
0.553155 0.003671 0.000000
0.821214 0.003671 0.000000
1.000000 0.003671 0.000000
0.017545 0.260599 0.000000
0.284813 0.260599 0.000000
0.553155 0.260599 0.000000
0.821214 0.260599 0.000000
1.000000 0.260599 0.000000
0.017545 0.518619 0.000000
0.284813 0.518619 0.000000
0.553155 0.518619 0.000000
0.821214 0.518619 0.000000
1.000000 0.518619 0.000000
0.017545 0.776547 0.000000
0.284813 0.776547 0.000000
0.553155 0.776547 0.000000
0.821214 0.776547 0.000000
1.000000 0.776547 0.000000
0.017545 1.000000 0.000000
0.284813 1.000000 0.000000
0.553155 1.000000 0.000000
0.821214 1.000000 0.000000
1.000000 1.000000 0.000000
0.017545 0.003671 0.240623
0.284813 0.003671 0.240623
0.553155 0.003671 0.240623
0.821214 0.003671 0.240623
1.000000 0.003671 0.240623
0.017545 0.260599 0.240623
0.284813 0.260599 0.240623
0.553155 0.260599 0.240623
0.821214 0.260599 0.240623
1.000000 0.260599 0.240623
0.017545 0.518619 0.240623
0.284813 0.518619 0.240623
0.553155 0.518619 0.240623
0.821214 0.518619 0.240623
1.000000 0.518619 0.240623
0.017545 0.776547 0.240623
0.284813 0.776547 0.240623
0.553155 0.776547 0.240623
0.821214 0.776547 0.240623
1.000000 0.776547 0.240623
0.017545 1.000000 0.240623
0.284813 1.000000 0.240623
0.553155 1.000000 0.240623
0.821214 1.000000 0.240623
1.000000 1.000000 0.240623
0.017545 0.003671 0.488320
0.284813 0.003671 0.488320
0.553155 0.003671 0.488320
0.821214 0.003671 0.488320
1.000000 0.003671 0.488320
0.017545 0.260599 0.488320
0.284813 0.260599 0.488320
0.553155 0.260599 0.488320
0.821214 0.260599 0.488320
1.000000 0.260599 0.488320
0.017545 0.518619 0.488320
0.284813 0.518619 0.488320
0.553155 0.518619 0.488320
0.821214 0.518619 0.488320
1.000000 0.518619 0.488320
0.017545 0.776547 0.488320
0.284813 0.776547 0.488320
0.553155 0.776547 0.488320
0.821214 0.776547 0.488320
1.000000 0.776547 0.488320
0.017545 1.000000 0.488320
0.284813 1.000000 0.488320
0.553155 1.000000 0.488320
0.821214 1.000000 0.488320
1.000000 1.000000 0.488320
0.017545 0.003671 0.736071
0.284813 0.003671 0.736071
0.553155 0.003671 0.736071
0.821214 0.003671 0.736071
1.000000 0.003671 0.736071
0.017545 0.260599 0.736071
0.284813 0.260599 0.736071
0.553155 0.260599 0.736071
0.821214 0.260599 0.736071
1.000000 0.260599 0.736071
0.017545 0.518619 0.736071
0.284813 0.518619 0.736071
0.553155 0.518619 0.736071
0.821214 0.518619 0.736071
1.000000 0.518619 0.736071
0.017545 0.776547 0.736071
0.284813 0.776547 0.736071
0.553155 0.776547 0.736071
0.821214 0.776547 0.736071
1.000000 0.776547 0.736071
0.017545 1.000000 0.736071
0.284813 1.000000 0.736071
0.553155 1.000000 0.736071
0.821214 1.000000 0.736071
1.000000 1.000000 0.736071
0.017545 0.003671 0.982823
0.284813 0.003671 0.982823
0.553155 0.003671 0.982823
0.821214 0.003671 0.982823
1.000000 0.003671 0.982823
0.017545 0.260599 0.982823
0.284813 0.260599 0.982823
0.553155 0.260599 0.982823
0.821214 0.260599 0.982823
1.000000 0.260599 0.982823
0.017545 0.518619 0.982823
0.284813 0.518619 0.982823
0.553155 0.518619 0.982823
0.821214 0.518619 0.982823
1.000000 0.518619 0.982823
0.017545 0.776547 0.982823
0.284813 0.776547 0.982823
0.553155 0.776547 0.982823
0.821214 0.776547 0.982823
1.000000 0.776547 0.982823
0.017545 1.000000 0.982823
0.284813 1.000000 0.982823
0.553155 1.000000 0.982823
0.821214 1.000000 0.982823
1.000000 1.000000 0.982823
