lut/kodak-am.cube
# kodak-am — LUT tự sinh của Xưởng Video
LUT_3D_SIZE 25
0.017545 0.003671 0.000000
0.061972 0.003671 0.000000
0.106451 0.003671 0.000000
0.150977 0.003671 0.000000
0.195549 0.003671 0.000000
0.240163 0.003671 0.000000
0.284813 0.003671 0.000000
0.329494 0.003671 0.000000
0.374201 0.003671 0.000000
0.418928 0.003671 0.000000
0.463667 0.003671 0.000000
0.508411 0.003671 0.000000
0.553155 0.003671 0.000000
0.597890 0.003671 0.000000
0.642610 0.003671 0.000000
0.687308 0.003671 0.000000
0.731978 0.003671 0.000000
0.776615 0.003671 0.000000
0.821214 0.003671 0.000000
0.865769 0.003671 0.000000
0.910278 0.003671 0.000000
0.954737 0.003671 0.000000
0.999144 0.003671 0.000000
1.000000 0.003671 0.000000
1.000000 0.003671 0.000000
0.017545 0.046381 0.000000
0.061972 0.046381 0.000000
0.106451 0.046381 0.000000
0.150977 0.046381 0.000000
0.195549 0.046381 0.000000
0.240163 0.046381 0.000000
0.284813 0.046381 0.000000
0.329494 0.046381 0.000000
0.374201 0.046381 0.000000
0.418928 0.046381 0.000000
0.463667 0.046381 0.000000
0.508411 0.046381 0.000000
0.553155 0.046381 0.000000
0.597890 0.046381 0.000000
0.642610 0.046381 0.000000
0.687308 0.046381 0.000000
0.731978 0.046381 0.000000
0.776615 0.046381 0.000000
0.821214 0.046381 0.000000
0.865769 0.046381 0.000000
0.910278 0.046381 0.000000
0.954737 0.046381 0.000000
0.999144 0.046381 0.000000
1.000000 0.046381 0.000000
1.000000 0.046381 0.000000
0.017545 0.089139 0.000000
0.061972 0.089139 0.000000
0.106451 0.089139 0.000000
0.150977 0.089139 0.000000
0.195549 0.089139 0.000000
0.240163 0.089139 0.000000
0.284813 0.089139 0.000000
0.329494 0.089139 0.000000
0.374201 0.089139 0.000000
0.418928 0.089139 0.000000
0.463667 0.089139 0.000000
0.508411 0.089139 0.000000
0.553155 0.089139 0.000000
0.597890 0.089139 0.000000
0.642610 0.089139 0.000000
0.687308 0.089139 0.000000
0.731978 0.089139 0.000000
0.776615 0.089139 0.000000
0.821214 0.089139 0.000000
0.865769 0.089139 0.000000
0.910278 0.089139 0.000000
0.954737 0.089139 0.000000
0.999144 0.089139 0.000000
1.000000 0.089139 0.000000
1.000000 0.089139 0.000000
0.017545 0.131942 0.000000
0.061972 0.131942 0.000000
0.106451 0.131942 0.000000
0.150977 0.131942 0.000000
0.195549 0.131942 0.000000
0.240163 0.131942 0.000000
0.284813 0.131942 0.000000
0.329494 0.131942 0.000000
0.374201 0.131942 0.000000
0.418928 0.131942 0.000000
0.463667 0.131942 0.000000
0.508411 0.131942 0.000000
0.553155 0.131942 0.000000
0.597890 0.131942 0.000000
0.642610 0.131942 0.000000
0.687308 0.131942 0.000000
0.731978 0.131942 0.000000
0.776615 0.131942 0.000000
0.821214 0.131942 0.000000
0.865769 0.131942 0.000000
0.910278 0.131942 0.000000
0.954737 0.131942 0.000000
0.999144 0.131942 0.000000
1.000000 0.131942 0.000000
1.000000 0.131942 0.000000
0.017545 0.174789 0.000000
0.061972 0.174789 0.000000
0.106451 0.174789 0.000000
0.150977 0.174789 0.000000
0.195549 0.174789 0.000000
0.240163 0.174789 0.000000
0.284813 0.174789 0.000000
0.329494 0.174789 0.000000
0.374201 0.174789 0.000000
0.418928 0.174789 0.000000
0.463667 0.174789 0.000000
0.508411 0.174789 0.000000
0.553155 0.174789 0.000000
0.597890 0.174789 0.000000
0.642610 0.174789 0.000000
0.687308 0.174789 0.000000
0.731978 0.174789 0.000000
0.776615 0.174789 0.000000
0.821214 0.174789 0.000000
0.865769 0.174789 0.000000
0.910278 0.174789 0.000000
0.954737 0.174789 0.000000
0.999144 0.174789 0.000000
1.000000 0.174789 0.000000
1.000000 0.174789 0.000000
0.017545 0.217676 0.000000
0.061972 0.217676 0.000000
0.106451 0.217676 0.000000
0.150977 0.217676 0.000000
0.195549 0.217676 0.000000
0.240163 0.217676 0.000000
0.284813 0.217676 0.000000
0.329494 0.217676 0.000000
0.374201 0.217676 0.000000
0.418928 0.217676 0.000000
0.463667 0.217676 0.000000
0.508411 0.217676 0.000000
0.553155 0.217676 0.000000
0.597890 0.217676 0.000000
0.642610 0.217676 0.000000
0.687308 0.217676 0.000000
0.731978 0.217676 0.000000
0.776615 0.217676 0.000000
0.821214 0.217676 0.000000
0.865769 0.217676 0.000000
0.910278 0.217676 0.000000
0.954737 0.217676 0.000000
0.999144 0.217676 0.000000
1.000000 0.217676 0.000000
1.000000 0.217676 0.000000
0.017545 0.260599 0.000000
0.061972 0.260599 0.000000
0.106451 0.260599 0.000000
0.150977 0.260599 0.000000
0.195549 0.260599 0.000000
0.240163 0.260599 0.000000
0.284813 0.260599 0.000000
0.329494 0.260599 0.000000
0.374201 0.260599 0.000000
0.418928 0.260599 0.000000
0.463667 0.260599 0.000000
0.508411 0.260599 0.000000
0.553155 0.260599 0.000000
0.597890 0.260599 0.000000
0.642610 0.260599 0.000000
0.687308 0.260599 0.000000
0.731978 0.260599 0.000000
0.776615 0.260599 0.000000
0.821214 0.260599 0.000000
0.865769 0.260599 0.000000
0.910278 0.260599 0.000000
0.954737 0.260599 0.000000
0.999144 0.260599 0.000000
1.000000 0.260599 0.000000
1.000000 0.260599 0.000000
0.017545 0.303554 0.000000
0.061972 0.303554 0.000000
0.106451 0.303554 0.000000
0.150977 0.303554 0.000000
0.195549 0.303554 0.000000
0.240163 0.303554 0.000000
0.284813 0.303554 0.000000
0.329494 0.303554 0.000000
0.374201 0.303554 0.000000
0.418928 0.303554 0.000000
0.463667 0.303554 0.000000
0.508411 0.303554 0.000000
0.553155 0.303554 0.000000
0.597890 0.303554 0.000000
0.642610 0.303554 0.000000
0.687308 0.303554 0.000000
0.731978 0.303554 0.000000
0.776615 0.303554 0.000000
0.821214 0.303554 0.000000
0.865769 0.303554 0.000000
0.910278 0.303554 0.000000
0.954737 0.303554 0.000000
0.999144 0.303554 0.000000
1.000000 0.303554 0.000000
1.000000 0.303554 0.000000
0.017545 0.346536 0.000000
0.061972 0.346536 0.000000
0.106451 0.346536 0.000000
0.150977 0.346536 0.000000
0.195549 0.346536 0.000000
0.240163 0.346536 0.000000
0.284813 0.346536 0.000000
0.329494 0.346536 0.000000
0.374201 0.346536 0.000000
0.418928 0.346536 0.000000
0.463667 0.346536 0.000000
0.508411 0.346536 0.000000
0.553155 0.346536 0.000000
0.597890 0.346536 0.000000
0.642610 0.346536 0.000000
0.687308 0.346536 0.000000
0.731978 0.346536 0.000000
0.776615 0.346536 0.000000
0.821214 0.346536 0.000000
0.865769 0.346536 0.000000
0.910278 0.346536 0.000000
0.954737 0.346536 0.000000
0.999144 0.346536 0.000000
1.000000 0.346536 0.000000
1.000000 0.346536 0.000000
0.017545 0.389539 0.000000
0.061972 0.389539 0.000000
0.106451 0.389539 0.000000
0.150977 0.389539 0.000000
0.195549 0.389539 0.000000
0.240163 0.389539 0.000000
0.284813 0.389539 0.000000
0.329494 0.389539 0.000000
0.374201 0.389539 0.000000
0.418928 0.389539 0.000000
0.463667 0.389539 0.000000
0.508411 0.389539 0.000000
0.553155 0.389539 0.000000
0.597890 0.389539 0.000000
0.642610 0.389539 0.000000
0.687308 0.389539 0.000000
0.731978 0.389539 0.000000
0.776615 0.389539 0.000000
0.821214 0.389539 0.000000
0.865769 0.389539 0.000000
0.910278 0.389539 0.000000
0.954737 0.389539 0.000000
0.999144 0.389539 0.000000
1.000000 0.389539 0.000000
1.000000 0.389539 0.000000
0.017545 0.432558 0.000000
0.061972 0.432558 0.000000
0.106451 0.432558 0.000000
0.150977 0.432558 0.000000
0.195549 0.432558 0.000000
0.240163 0.432558 0.000000
0.284813 0.432558 0.000000
0.329494 0.432558 0.000000
0.374201 0.432558 0.000000
0.418928 0.432558 0.000000
0.463667 0.432558 0.000000
0.508411 0.432558 0.000000
0.553155 0.432558 0.000000
0.597890 0.432558 0.000000
0.642610 0.432558 0.000000
0.687308 0.432558 0.000000
0.731978 0.432558 0.000000
0.776615 0.432558 0.000000
0.821214 0.432558 0.000000
0.865769 0.432558 0.000000
0.910278 0.432558 0.000000
0.954737 0.432558 0.000000
0.999144 0.432558 0.000000
1.000000 0.432558 0.000000
1.000000 0.432558 0.000000
0.017545 0.475587 0.000000
0.061972 0.475587 0.000000
0.106451 0.475587 0.000000
0.150977 0.475587 0.000000
0.195549 0.475587 0.000000
0.240163 0.475587 0.000000
0.284813 0.475587 0.000000
0.329494 0.475587 0.000000
0.374201 0.475587 0.000000
0.418928 0.475587 0.000000
0.463667 0.475587 0.000000
0.508411 0.475587 0.000000
0.553155 0.475587 0.000000
0.597890 0.475587 0.000000
0.642610 0.475587 0.000000
0.687308 0.475587 0.000000
0.731978 0.475587 0.000000
0.776615 0.475587 0.000000
0.821214 0.475587 0.000000
0.865769 0.475587 0.000000
0.910278 0.475587 0.000000
0.954737 0.475587 0.000000
0.999144 0.475587 0.000000
1.000000 0.475587 0.000000
1.000000 0.475587 0.000000
0.017545 0.518619 0.000000
0.061972 0.518619 0.000000
0.106451 0.518619 0.000000
0.150977 0.518619 0.000000
0.195549 0.518619 0.000000
0.240163 0.518619 0.000000
0.284813 0.518619 0.000000
0.329494 0.518619 0.000000
0.374201 0.518619 0.000000
0.418928 0.518619 0.000000
0.463667 0.518619 0.000000
0.508411 0.518619 0.000000
0.553155 0.518619 0.000000
0.597890 0.518619 0.000000
0.642610 0.518619 0.000000
0.687308 0.518619 0.000000
0.731978 0.518619 0.000000
0.776615 0.518619 0.000000
0.821214 0.518619 0.000000
0.865769 0.518619 0.000000
0.910278 0.518619 0.000000
0.954737 0.518619 0.000000
0.999144 0.518619 0.000000
1.000000 0.518619 0.000000
1.000000 0.518619 0.000000
0.017545 0.561649 0.000000
0.061972 0.561649 0.000000
0.106451 0.561649 0.000000
0.150977 0.561649 0.000000
0.195549 0.561649 0.000000
0.240163 0.561649 0.000000
0.284813 0.561649 0.000000
0.329494 0.561649 0.000000
0.374201 0.561649 0.000000
0.418928 0.561649 0.000000
0.463667 0.561649 0.000000
0.508411 0.561649 0.000000
0.553155 0.561649 0.000000
0.597890 0.561649 0.000000
0.642610 0.561649 0.000000
0.687308 0.561649 0.000000
0.731978 0.561649 0.000000
0.776615 0.561649 0.000000
0.821214 0.561649 0.000000
0.865769 0.561649 0.000000
0.910278 0.561649 0.000000
0.954737 0.561649 0.000000
0.999144 0.561649 0.000000
1.000000 0.561649 0.000000
1.000000 0.561649 0.000000
0.017545 0.604670 0.000000
0.061972 0.604670 0.000000
0.106451 0.604670 0.000000
0.150977 0.604670 0.000000
0.195549 0.604670 0.000000
0.240163 0.604670 0.000000
0.284813 0.604670 0.000000
0.329494 0.604670 0.000000
0.374201 0.604670 0.000000
0.418928 0.604670 0.000000
0.463667 0.604670 0.000000
0.508411 0.604670 0.000000
0.553155 0.604670 0.000000
0.597890 0.604670 0.000000
0.642610 0.604670 0.000000
0.687308 0.604670 0.000000
0.731978 0.604670 0.000000
0.776615 0.604670 0.000000
0.821214 0.604670 0.000000
0.865769 0.604670 0.000000
0.910278 0.604670 0.000000
0.954737 0.604670 0.000000
0.999144 0.604670 0.000000
1.000000 0.604670 0.000000
1.000000 0.604670 0.000000
0.017545 0.647675 0.000000
0.061972 0.647675 0.000000
0.106451 0.647675 0.000000
0.150977 0.647675 0.000000
0.195549 0.647675 0.000000
0.240163 0.647675 0.000000
0.284813 0.647675 0.000000
0.329494 0.647675 0.000000
0.374201 0.647675 0.000000
0.418928 0.647675 0.000000
0.463667 0.647675 0.000000
0.508411 0.647675 0.000000
0.553155 0.647675 0.000000
0.597890 0.647675 0.000000
0.642610 0.647675 0.000000
0.687308 0.647675 0.000000
0.731978 0.647675 0.000000
0.776615 0.647675 0.000000
0.821214 0.647675 0.000000
0.865769 0.647675 0.000000
0.910278 0.647675 0.000000
0.954737 0.647675 0.000000
0.999144 0.647675 0.000000
1.000000 0.647675 0.000000
1.000000 0.647675 0.000000
0.017545 0.690660 0.000000
0.061972 0.690660 0.000000
0.106451 0.690660 0.000000
0.150977 0.690660 0.000000
0.195549 0.690660 0.000000
0.240163 0.690660 0.000000
0.284813 0.690660 0.000000
0.329494 0.690660 0.000000
0.374201 0.690660 0.000000
0.418928 0.690660 0.000000
0.463667 0.690660 0.000000
0.508411 0.690660 0.000000
0.553155 0.690660 0.000000
0.597890 0.690660 0.000000
0.642610 0.690660 0.000000
0.687308 0.690660 0.000000
0.731978 0.690660 0.000000
0.776615 0.690660 0.000000
0.821214 0.690660 0.000000
0.865769 0.690660 0.000000
0.910278 0.690660 0.000000
0.954737 0.690660 0.000000
0.999144 0.690660 0.000000
1.000000 0.690660 0.000000
1.000000 0.690660 0.000000
0.017545 0.733619 0.000000
0.061972 0.733619 0.000000
0.106451 0.733619 0.000000
0.150977 0.733619 0.000000
0.195549 0.733619 0.000000
0.240163 0.733619 0.000000
0.284813 0.733619 0.000000
0.329494 0.733619 0.000000
0.374201 0.733619 0.000000
0.418928 0.733619 0.000000
0.463667 0.733619 0.000000
0.508411 0.733619 0.000000
0.553155 0.733619 0.000000
0.597890 0.733619 0.000000
0.642610 0.733619 0.000000
0.687308 0.733619 0.000000
0.731978 0.733619 0.000000
0.776615 0.733619 0.000000
0.821214 0.733619 0.000000
0.865769 0.733619 0.000000
0.910278 0.733619 0.000000
0.954737 0.733619 0.000000
0.999144 0.733619 0.000000
1.000000 0.733619 0.000000
1.000000 0.733619 0.000000
0.017545 0.776547 0.000000
0.061972 0.776547 0.000000
0.106451 0.776547 0.000000
0.150977 0.776547 0.000000
0.195549 0.776547 0.000000
0.240163 0.776547 0.000000
0.284813 0.776547 0.000000
0.329494 0.776547 0.000000
0.374201 0.776547 0.000000
0.418928 0.776547 0.000000
0.463667 0.776547 0.000000
0.508411 0.776547 0.000000
0.553155 0.776547 0.000000
0.597890 0.776547 0.000000
0.642610 0.776547 0.000000
0.687308 0.776547 0.000000
0.731978 0.776547 0.000000
0.776615 0.776547 0.000000
0.821214 0.776547 0.000000
0.865769 0.776547 0.000000
0.910278 0.776547 0.000000
0.954737 0.776547 0.000000
0.999144 0.776547 0.000000
1.000000 0.776547 0.000000
1.000000 0.776547 0.000000
0.017545 0.819439 0.000000
0.061972 0.819439 0.000000
0.106451 0.819439 0.000000
0.150977 0.819439 0.000000
0.195549 0.819439 0.000000
0.240163 0.819439 0.000000
0.284813 0.819439 0.000000
0.329494 0.819439 0.000000
0.374201 0.819439 0.000000
0.418928 0.819439 0.000000
0.463667 0.819439 0.000000
0.508411 0.819439 0.000000
0.553155 0.819439 0.000000
0.597890 0.819439 0.000000
0.642610 0.819439 0.000000
0.687308 0.819439 0.000000
0.731978 0.819439 0.000000
0.776615 0.819439 0.000000
0.821214 0.819439 0.000000
0.865769 0.819439 0.000000
0.910278 0.819439 0.000000
0.954737 0.819439 0.000000
0.999144 0.819439 0.000000
1.000000 0.819439 0.000000
1.000000 0.819439 0.000000
0.017545 0.862292 0.000000
0.061972 0.862292 0.000000
0.106451 0.862292 0.000000
0.150977 0.862292 0.000000
0.195549 0.862292 0.000000
0.240163 0.862292 0.000000
0.284813 0.862292 0.000000
0.329494 0.862292 0.000000
0.374201 0.862292 0.000000
0.418928 0.862292 0.000000
0.463667 0.862292 0.000000
0.508411 0.862292 0.000000
0.553155 0.862292 0.000000
0.597890 0.862292 0.000000
0.642610 0.862292 0.000000
0.687308 0.862292 0.000000
0.731978 0.862292 0.000000
0.776615 0.862292 0.000000
0.821214 0.862292 0.000000
0.865769 0.862292 0.000000
0.910278 0.862292 0.000000
0.954737 0.862292 0.000000
0.999144 0.862292 0.000000
1.000000 0.862292 0.000000
1.000000 0.862292 0.000000
0.017545 0.905101 0.000000
0.061972 0.905101 0.000000
0.106451 0.905101 0.000000
0.150977 0.905101 0.000000
0.195549 0.905101 0.000000
0.240163 0.905101 0.000000
0.284813 0.905101 0.000000
0.329494 0.905101 0.000000
0.374201 0.905101 0.000000
0.418928 0.905101 0.000000
0.463667 0.905101 0.000000
0.508411 0.905101 0.000000
0.553155 0.905101 0.000000
0.597890 0.905101 0.000000
0.642610 0.905101 0.000000
0.687308 0.905101 0.000000
0.731978 0.905101 0.000000
0.776615 0.905101 0.000000
0.821214 0.905101 0.000000
0.865769 0.905101 0.000000
0.910278 0.905101 0.000000
0.954737 0.905101 0.000000
0.999144 0.905101 0.000000
1.000000 0.905101 0.000000
1.000000 0.905101 0.000000
0.017545 0.947865 0.000000
0.061972 0.947865 0.000000
0.106451 0.947865 0.000000
0.150977 0.947865 0.000000
0.195549 0.947865 0.000000
0.240163 0.947865 0.000000
0.284813 0.947865 0.000000
0.329494 0.947865 0.000000
0.374201 0.947865 0.000000
0.418928 0.947865 0.000000
0.463667 0.947865 0.000000
0.508411 0.947865 0.000000
0.553155 0.947865 0.000000
0.597890 0.947865 0.000000
0.642610 0.947865 0.000000
0.687308 0.947865 0.000000
0.731978 0.947865 0.000000
0.776615 0.947865 0.000000
0.821214 0.947865 0.000000
0.865769 0.947865 0.000000
0.910278 0.947865 0.000000
0.954737 0.947865 0.000000
0.999144 0.947865 0.000000
1.000000 0.947865 0.000000
1.000000 0.947865 0.000000
0.017545 0.990582 0.000000
0.061972 0.990582 0.000000
0.106451 0.990582 0.000000
0.150977 0.990582 0.000000
0.195549 0.990582 0.000000
0.240163 0.990582 0.000000
0.284813 0.990582 0.000000
0.329494 0.990582 0.000000
0.374201 0.990582 0.000000
0.418928 0.990582 0.000000
0.463667 0.990582 0.000000
0.508411 0.990582 0.000000
0.553155 0.990582 0.000000
0.597890 0.990582 0.000000
0.642610 0.990582 0.000000
0.687308 0.990582 0.000000
0.731978 0.990582 0.000000
0.776615 0.990582 0.000000
0.821214 0.990582 0.000000
0.865769 0.990582 0.000000
0.910278 0.990582 0.000000
0.954737 0.990582 0.000000
0.999144 0.990582 0.000000
1.000000 0.990582 0.000000
1.000000 0.990582 0.000000
0.017545 1.000000 0.000000
0.061972 1.000000 0.000000
0.106451 1.000000 0.000000
0.150977 1.000000 0.000000
0.195549 1.000000 0.000000
0.240163 1.000000 0.000000
0.284813 1.000000 0.000000
0.329494 1.000000 0.000000
0.374201 1.000000 0.000000
0.418928 1.000000 0.000000
0.463667 1.000000 0.000000
0.508411 1.000000 0.000000
0.553155 1.000000 0.000000
0.597890 1.000000 0.000000
0.642610 1.000000 0.000000
0.687308 1.000000 0.000000
0.731978 1.000000 0.000000
0.776615 1.000000 0.000000
0.821214 1.000000 0.000000
0.865769 1.000000 0.000000
0.910278 1.000000 0.000000
0.954737 1.000000 0.000000
0.999144 1.000000 0.000000
1.000000 1.000000 0.000000
1.000000 1.000000 0.000000
0.017545 0.003671 0.035003
0.061972 0.003671 0.035003
0.106451 0.003671 0.035003
0.150977 0.003671 0.035003
0.195549 0.003671 0.035003
0.240163 0.003671 0.035003
0.284813 0.003671 0.035003
0.329494 0.003671 0.035003
0.374201 0.003671 0.035003
0.418928 0.003671 0.035003
0.463667 0.003671 0.035003
0.508411 0.003671 0.035003
0.553155 0.003671 0.035003
0.597890 0.003671 0.035003
0.642610 0.003671 0.035003
0.687308 0.003671 0.035003
0.731978 0.003671 0.035003
0.776615 0.003671 0.035003
0.821214 0.003671 0.035003
0.865769 0.003671 0.035003
0.910278 0.003671 0.035003
0.954737 0.003671 0.035003
0.999144 0.003671 0.035003
1.000000 0.003671 0.035003
1.000000 0.003671 0.035003
0.017545 0.046381 0.035003
0.061972 0.046381 0.035003
0.106451 0.046381 0.035003
0.150977 0.046381 0.035003
0.195549 0.046381 0.035003
0.240163 0.046381 0.035003
0.284813 0.046381 0.035003
0.329494 0.046381 0.035003
0.374201 0.046381 0.035003
0.418928 0.046381 0.035003
0.463667 0.046381 0.035003
0.508411 0.046381 0.035003
0.553155 0.046381 0.035003
0.597890 0.046381 0.035003
0.642610 0.046381 0.035003
0.687308 0.046381 0.035003
0.731978 0.046381 0.035003
0.776615 0.046381 0.035003
0.821214 0.046381 0.035003
0.865769 0.046381 0.035003
0.910278 0.046381 0.035003
0.954737 0.046381 0.035003
0.999144 0.046381 0.035003
1.000000 0.046381 0.035003
1.000000 0.046381 0.035003
0.017545 0.089139 0.035003
0.061972 0.089139 0.035003
0.106451 0.089139 0.035003
0.150977 0.089139 0.035003
0.195549 0.089139 0.035003
0.240163 0.089139 0.035003
0.284813 0.089139 0.035003
0.329494 0.089139 0.035003
0.374201 0.089139 0.035003
0.418928 0.089139 0.035003
0.463667 0.089139 0.035003
0.508411 0.089139 0.035003
0.553155 0.089139 0.035003
0.597890 0.089139 0.035003
0.642610 0.089139 0.035003
0.687308 0.089139 0.035003
0.731978 0.089139 0.035003
0.776615 0.089139 0.035003
0.821214 0.089139 0.035003
0.865769 0.089139 0.035003
0.910278 0.089139 0.035003
0.954737 0.089139 0.035003
0.999144 0.089139 0.035003
1.000000 0.089139 0.035003
1.000000 0.089139 0.035003
0.017545 0.131942 0.035003
0.061972 0.131942 0.035003
0.106451 0.131942 0.035003
0.150977 0.131942 0.035003
0.195549 0.131942 0.035003
0.240163 0.131942 0.035003
0.284813 0.131942 0.035003
0.329494 0.131942 0.035003
0.374201 0.131942 0.035003
0.418928 0.131942 0.035003
0.463667 0.131942 0.035003
0.508411 0.131942 0.035003
0.553155 0.131942 0.035003
0.597890 0.131942 0.035003
0.642610 0.131942 0.035003
0.687308 0.131942 0.035003
0.731978 0.131942 0.035003
0.776615 0.131942 0.035003
0.821214 0.131942 0.035003
0.865769 0.131942 0.035003
0.910278 0.131942 0.035003
0.954737 0.131942 0.035003
0.999144 0.131942 0.035003
1.000000 0.131942 0.035003
1.000000 0.131942 0.035003
0.017545 0.174789 0.035003
0.061972 0.174789 0.035003
0.106451 0.174789 0.035003
0.150977 0.174789 0.035003
0.195549 0.174789 0.035003
0.240163 0.174789 0.035003
0.284813 0.174789 0.035003
0.329494 0.174789 0.035003
0.374201 0.174789 0.035003
0.418928 0.174789 0.035003
0.463667 0.174789 0.035003
0.508411 0.174789 0.035003
0.553155 0.174789 0.035003
0.597890 0.174789 0.035003
0.642610 0.174789 0.035003
0.687308 0.174789 0.035003
0.731978 0.174789 0.035003
0.776615 0.174789 0.035003
0.821214 0.174789 0.035003
0.865769 0.174789 0.035003
0.910278 0.174789 0.035003
0.954737 0.174789 0.035003
0.999144 0.174789 0.035003
1.000000 0.174789 0.035003
1.000000 0.174789 0.035003
0.017545 0.217676 0.035003
0.061972 0.217676 0.035003
0.106451 0.217676 0.035003
0.150977 0.217676 0.035003
0.195549 0.217676 0.035003
0.240163 0.217676 0.035003
0.284813 0.217676 0.035003
0.329494 0.217676 0.035003
0.374201 0.217676 0.035003
0.418928 0.217676 0.035003
0.463667 0.217676 0.035003
0.508411 0.217676 0.035003
0.553155 0.217676 0.035003
0.597890 0.217676 0.035003
0.642610 0.217676 0.035003
0.687308 0.217676 0.035003
0.731978 0.217676 0.035003
0.776615 0.217676 0.035003
0.821214 0.217676 0.035003
0.865769 0.217676 0.035003
0.910278 0.217676 0.035003
0.954737 0.217676 0.035003
0.999144 0.217676 0.035003
1.000000 0.217676 0.035003
1.000000 0.217676 0.035003
0.017545 0.260599 0.035003
0.061972 0.260599 0.035003
0.106451 0.260599 0.035003
0.150977 0.260599 0.035003
0.195549 0.260599 0.035003
0.240163 0.260599 0.035003
0.284813 0.260599 0.035003
0.329494 0.260599 0.035003
0.374201 0.260599 0.035003
0.418928 0.260599 0.035003
0.463667 0.260599 0.035003
0.508411 0.260599 0.035003
0.553155 0.260599 0.035003
0.597890 0.260599 0.035003
0.642610 0.260599 0.035003
0.687308 0.260599 0.035003
0.731978 0.260599 0.035003
0.776615 0.260599 0.035003
0.821214 0.260599 0.035003
0.865769 0.260599 0.035003
0.910278 0.260599 0.035003
0.954737 0.260599 0.035003
0.999144 0.260599 0.035003
1.000000 0.260599 0.035003
1.000000 0.260599 0.035003
0.017545 0.303554 0.035003
0.061972 0.303554 0.035003
0.106451 0.303554 0.035003
0.150977 0.303554 0.035003
0.195549 0.303554 0.035003
0.240163 0.303554 0.035003
0.284813 0.303554 0.035003
0.329494 0.303554 0.035003
0.374201 0.303554 0.035003
0.418928 0.303554 0.035003
0.463667 0.303554 0.035003
0.508411 0.303554 0.035003
0.553155 0.303554 0.035003
0.597890 0.303554 0.035003
0.642610 0.303554 0.035003
0.687308 0.303554 0.035003
0.731978 0.303554 0.035003
0.776615 0.303554 0.035003
0.821214 0.303554 0.035003
0.865769 0.303554 0.035003
0.910278 0.303554 0.035003
0.954737 0.303554 0.035003
0.999144 0.303554 0.035003
1.000000 0.303554 0.035003
1.000000 0.303554 0.035003
0.017545 0.346536 0.035003
0.061972 0.346536 0.035003
0.106451 0.346536 0.035003
0.150977 0.346536 0.035003
0.195549 0.346536 0.035003
0.240163 0.346536 0.035003
0.284813 0.346536 0.035003
0.329494 0.346536 0.035003
0.374201 0.346536 0.035003
0.418928 0.346536 0.035003
0.463667 0.346536 0.035003
0.508411 0.346536 0.035003
0.553155 0.346536 0.035003
0.597890 0.346536 0.035003
0.642610 0.346536 0.035003
0.687308 0.346536 0.035003
0.731978 0.346536 0.035003
0.776615 0.346536 0.035003
0.821214 0.346536 0.035003
0.865769 0.346536 0.035003
0.910278 0.346536 0.035003
0.954737 0.346536 0.035003
0.999144 0.346536 0.035003
1.000000 0.346536 0.035003
1.000000 0.346536 0.035003
0.017545 0.389539 0.035003
0.061972 0.389539 0.035003
0.106451 0.389539 0.035003
0.150977 0.389539 0.035003
0.195549 0.389539 0.035003
0.240163 0.389539 0.035003
0.284813 0.389539 0.035003
0.329494 0.389539 0.035003
0.374201 0.389539 0.035003
0.418928 0.389539 0.035003
0.463667 0.389539 0.035003
0.508411 0.389539 0.035003
0.553155 0.389539 0.035003
0.597890 0.389539 0.035003
0.642610 0.389539 0.035003
0.687308 0.389539 0.035003
0.731978 0.389539 0.035003
0.776615 0.389539 0.035003
0.821214 0.389539 0.035003
0.865769 0.389539 0.035003
0.910278 0.389539 0.035003
0.954737 0.389539 0.035003
0.999144 0.389539 0.035003
1.000000 0.389539 0.035003
1.000000 0.389539 0.035003
0.017545 0.432558 0.035003
0.061972 0.432558 0.035003
0.106451 0.432558 0.035003
0.150977 0.432558 0.035003
0.195549 0.432558 0.035003
0.240163 0.432558 0.035003
0.284813 0.432558 0.035003
0.329494 0.432558 0.035003
0.374201 0.432558 0.035003
0.418928 0.432558 0.035003
0.463667 0.432558 0.035003
