lut/mint-sang.cube
# mint-sang — LUT tự sinh của Xưởng Video
LUT_3D_SIZE 9
0.030000 0.035000 0.032000
0.141042 0.040233 0.037259
0.252083 0.045465 0.042517
0.363125 0.050698 0.047776
0.474166 0.055930 0.053035
0.585208 0.061163 0.058293
0.696249 0.066395 0.063552
0.807291 0.071628 0.068811
0.918332 0.076860 0.074069
0.040118 0.152773 0.042324
0.151160 0.158005 0.047583
0.262201 0.163238 0.052841
0.373243 0.168470 0.058100
0.484284 0.173703 0.063359
0.595326 0.178935 0.068617
0.706367 0.184168 0.073876
0.817409 0.189400 0.079134
0.928451 0.194633 0.084393
0.050237 0.270545 0.052648
0.161278 0.275778 0.057906
0.272320 0.281010 0.063165
0.383361 0.286242 0.068424
0.494403 0.291475 0.073682
0.605444 0.296708 0.078941
0.716486 0.301940 0.084200
0.827527 0.307173 0.089458
0.938569 0.312405 0.094717
0.060355 0.388317 0.062972
0.171397 0.393550 0.068230
0.282438 0.398783 0.073489
0.393480 0.404015 0.078748
0.504521 0.409247 0.084006
0.615563 0.414480 0.089265
0.726604 0.419713 0.094524
0.837646 0.424945 0.099782
0.948687 0.430177 0.105041
0.070474 0.506090 0.073295
0.181515 0.511323 0.078554
0.292557 0.516555 0.083813
0.403598 0.521787 0.089071
0.514640 0.527020 0.094330
0.625681 0.532253 0.099589
0.736723 0.537485 0.104847
0.847764 0.542718 0.110106
0.958806 0.547950 0.115365
0.080592 0.623862 0.083619
0.191634 0.629095 0.088878
0.302675 0.634328 0.094137
0.413717 0.639560 0.099395
0.524758 0.644792 0.104654
0.635800 0.650025 0.109913
0.746841 0.655258 0.115171
0.857883 0.660490 0.120430
0.968924 0.665722 0.125689
0.090710 0.741635 0.093943
0.201752 0.746868 0.099202
0.312794 0.752100 0.104460
0.423835 0.757333 0.109719
0.534877 0.762565 0.114978
0.645918 0.767798 0.120236
0.756960 0.773030 0.125495
0.868001 0.778263 0.130754
0.979043 0.783495 0.136012
0.100829 0.859407 0.104267
0.211870 0.864640 0.109526
0.322912 0.869873 0.114784
0.433953 0.875105 0.120043
0.544995 0.880337 0.125302
0.656036 0.885570 0.130560
0.767078 0.890803 0.135819
0.878119 0.896035 0.141078
0.989161 0.901267 0.146336
0.110947 0.977180 0.114591
0.221989 0.982413 0.119850
0.333030 0.987645 0.125108
0.444072 0.992877 0.130367
0.555113 0.998110 0.135626
0.666155 1.000000 0.140884
0.777196 1.000000 0.146143
0.888238 1.000000 0.151402
0.999279 1.000000 0.156660
0.031965 0.036995 0.142042
0.143007 0.042228 0.147301
0.254048 0.047460 0.152560
0.365090 0.052693 0.157818
0.476131 0.057925 0.163077
0.587173 0.063158 0.168336
0.698214 0.068390 0.173594
0.809256 0.073623 0.178853
0.920297 0.078855 0.184112
0.042083 0.154768 0.152366
0.153125 0.160000 0.157625
0.264167 0.165233 0.162884
0.375208 0.170465 0.168142
0.486250 0.175698 0.173401
0.597291 0.180930 0.178660
0.708333 0.186163 0.183918
0.819374 0.191395 0.189177
0.930416 0.196628 0.194436
0.052202 0.272540 0.162690
0.163243 0.277772 0.167949
0.274285 0.283005 0.173208
0.385326 0.288238 0.178466
0.496368 0.293470 0.183725
0.607409 0.298702 0.188984
0.718451 0.303935 0.194242
0.829492 0.309168 0.199501
0.940534 0.314400 0.204759
0.062320 0.390313 0.173014
0.173362 0.395545 0.178273
0.284403 0.400778 0.183531
0.395445 0.406010 0.188790
0.506486 0.411242 0.194049
0.617528 0.416475 0.199307
0.728569 0.421708 0.204566
0.839611 0.426940 0.209825
0.950652 0.432172 0.215083
0.072439 0.508085 0.183338
0.183480 0.513317 0.188597
0.294522 0.518550 0.193855
0.405563 0.523783 0.199114
0.516605 0.529015 0.204373
0.627646 0.534247 0.209631
0.738688 0.539480 0.214890
0.849729 0.544713 0.220149
0.960771 0.549945 0.225407
0.082557 0.625858 0.193662
0.193599 0.631090 0.198920
0.304640 0.636323 0.204179
0.415682 0.641555 0.209438
0.526723 0.646787 0.214696
0.637765 0.652020 0.219955
0.748806 0.657253 0.225214
0.859848 0.662485 0.230472
0.970889 0.667718 0.235731
0.092676 0.743630 0.203986
0.203717 0.748862 0.209244
0.314759 0.754095 0.214503
0.425800 0.759328 0.219762
0.536842 0.764560 0.225020
0.647883 0.769792 0.230279
0.758925 0.775025 0.235538
0.869966 0.780258 0.240796
0.981008 0.785490 0.246055
0.102794 0.861402 0.214310
0.213835 0.866635 0.219568
0.324877 0.871868 0.224827
0.435918 0.877100 0.230085
0.546960 0.882333 0.235344
0.658002 0.887565 0.240603
0.769043 0.892798 0.245861
0.880085 0.898030 0.251120
0.991126 0.903262 0.256379
0.112912 0.979175 0.224633
0.223954 0.984407 0.229892
0.334995 0.989640 0.235151
0.446037 0.994873 0.240409
0.557078 1.000000 0.245668
0.668120 1.000000 0.250927
0.779161 1.000000 0.256185
0.890203 1.000000 0.261444
1.000000 1.000000 0.266703
0.033930 0.038990 0.252085
0.144972 0.044223 0.257344
0.256013 0.049455 0.262602
0.367055 0.054688 0.267861
0.478096 0.059920 0.273120
0.589138 0.065153 0.278378
0.700179 0.070385 0.283637
0.811221 0.075618 0.288896
0.922262 0.080850 0.294154
0.044049 0.156762 0.262409
0.155090 0.161995 0.267667
0.266132 0.167228 0.272926
0.377173 0.172460 0.278185
0.488215 0.177693 0.283443
0.599256 0.182925 0.288702
0.710298 0.188158 0.293961
0.821339 0.193390 0.299219
0.932381 0.198623 0.304478
0.054167 0.274535 0.272733
0.165208 0.279768 0.277991
0.276250 0.285000 0.283250
0.387292 0.290233 0.288509
0.498333 0.295465 0.293767
0.609375 0.300698 0.299026
0.720416 0.305930 0.304285
0.831458 0.311163 0.309543
0.942499 0.316395 0.314802
0.064285 0.392308 0.283057
0.175327 0.397540 0.288315
0.286368 0.402772 0.293574
0.397410 0.408005 0.298833
0.508451 0.413238 0.304091
0.619493 0.418470 0.309350
0.730534 0.423702 0.314609
0.841576 0.428935 0.319867
0.952617 0.434168 0.325126
0.074404 0.510080 0.293380
0.185445 0.515313 0.298639
0.296487 0.520545 0.303898
0.407528 0.525778 0.309156
0.518570 0.531010 0.314415
0.629611 0.536243 0.319674
0.740653 0.541475 0.324932
0.851694 0.546708 0.330191
0.962736 0.551940 0.335450
0.084522 0.627853 0.303704
0.195564 0.633085 0.308963
0.306605 0.638317 0.314222
0.417647 0.643550 0.319480
0.528688 0.648783 0.324739
0.639730 0.654015 0.329998
0.750771 0.659247 0.335256
0.861813 0.664480 0.340515
0.972854 0.669713 0.345774
0.094641 0.745625 0.314028
0.205682 0.750858 0.319287
0.316724 0.756090 0.324545
0.427765 0.761323 0.329804
0.538807 0.766555 0.335063
0.649848 0.771787 0.340321
0.760890 0.777020 0.345580
0.871931 0.782253 0.350839
0.982973 0.787485 0.356097
0.104759 0.863398 0.324352
0.215801 0.868630 0.329611
0.326842 0.873862 0.334869
0.437884 0.879095 0.340128
0.548925 0.884328 0.345387
0.659967 0.889560 0.350645
0.771008 0.894792 0.355904
0.882050 0.900025 0.361163
0.993091 0.905258 0.366421
0.114877 0.981170 0.334676
0.225919 0.986402 0.339935
0.336960 0.991635 0.345193
0.448002 0.996868 0.350452
0.559044 1.000000 0.355710
0.670085 1.000000 0.360969
0.781127 1.000000 0.366228
0.892168 1.000000 0.371486
1.000000 1.000000 0.376745
0.035895 0.040985 0.362127
0.146937 0.046218 0.367386
0.257978 0.051450 0.372645
0.369020 0.056682 0.377903
0.480061 0.061915 0.383162
0.591103 0.067147 0.388421
0.702144 0.072380 0.393679
0.813186 0.077613 0.398938
0.924227 0.082845 0.404197
0.046014 0.158757 0.372451
0.157055 0.163990 0.377710
0.268097 0.169222 0.382969
0.379138 0.174455 0.388227
0.490180 0.179688 0.393486
0.601221 0.184920 0.398745
0.712263 0.190153 0.404003
0.823304 0.195385 0.409262
0.934346 0.200618 0.414521
0.056132 0.276530 0.382775
0.167174 0.281763 0.388034
0.278215 0.286995 0.393292
0.389257 0.292227 0.398551
0.500298 0.297460 0.403810
0.611340 0.302693 0.409068
0.722381 0.307925 0.414327
0.833423 0.313157 0.419586
0.944464 0.318390 0.424844
0.066250 0.394303 0.393099
0.177292 0.399535 0.398358
0.288333 0.404768 0.403616
0.399375 0.410000 0.408875
0.510417 0.415233 0.414134
0.621458 0.420465 0.419392
0.732500 0.425698 0.424651
0.843541 0.430930 0.429910
0.954583 0.436163 0.435168
0.076369 0.512075 0.403423
0.187410 0.517308 0.408682
0.298452 0.522540 0.413940
0.409493 0.527772 0.419199
0.520535 0.533005 0.424458
0.631576 0.538238 0.429716
0.742618 0.543470 0.434975
0.853659 0.548702 0.440234
0.964701 0.553935 0.445492
0.086487 0.629848 0.413747
0.197529 0.635080 0.419005
0.308570 0.640313 0.424264
0.419612 0.645545 0.429523
0.530653 0.650778 0.434781
0.641695 0.656010 0.440040
0.752736 0.661243 0.445299
0.863778 0.666475 0.450557
0.974819 0.671708 0.455816
0.096606 0.747620 0.424071
0.207647 0.752853 0.429329
0.318689 0.758085 0.434588
0.429730 0.763317 0.439847
0.540772 0.768550 0.445105
0.651813 0.773783 0.450364
0.762855 0.779015 0.455623
0.873896 0.784247 0.460881
0.984938 0.789480 0.466140
0.106724 0.865393 0.434394
0.217766 0.870625 0.439653
0.328807 0.875858 0.444912
0.439849 0.881090 0.450170
0.550890 0.886323 0.455429
0.661932 0.891555 0.460688
0.772973 0.896788 0.465946
0.884015 0.902020 0.471205
0.995056 0.907253 0.476464
0.116843 0.983165 0.444718
0.227884 0.988398 0.449977
0.338926 0.993630 0.455236
0.449967 0.998862 0.460494
0.561009 1.000000 0.465753
0.672050 1.000000 0.471012
0.783092 1.000000 0.476270
0.894133 1.000000 0.481529
1.000000 1.000000 0.486788
0.037860 0.042980 0.472170
0.148902 0.048213 0.477429
0.259943 0.053445 0.482687
0.370985 0.058677 0.487946
0.482026 0.063910 0.493205
0.593068 0.069142 0.498463
0.704109 0.074375 0.503722
0.815151 0.079608 0.508981
0.926192 0.084840 0.514239
0.047979 0.160752 0.482494
0.159020 0.165985 0.487752
0.270062 0.171217 0.493011
0.381103 0.176450 0.498270
0.492145 0.181682 0.503528
0.603186 0.186915 0.508787
0.714228 0.192147 0.514046
0.825269 0.197380 0.519304
0.936311 0.202613 0.524563
0.058097 0.278525 0.492818
0.169139 0.283757 0.498076
0.280180 0.288990 0.503335
0.391222 0.294223 0.508594
0.502263 0.299455 0.513852
0.613305 0.304688 0.519111
0.724346 0.309920 0.524370
0.835388 0.315153 0.529628
0.946429 0.320385 0.534887
0.068216 0.396297 0.503141
0.179257 0.401530 0.508400
0.290299 0.406763 0.513659
0.401340 0.411995 0.518917
0.512382 0.417227 0.524176
0.623423 0.422460 0.529435
0.734465 0.427693 0.534693
0.845506 0.432925 0.539952
0.956548 0.438157 0.545211
0.078334 0.514070 0.513465
0.189375 0.519303 0.518724
0.300417 0.524535 0.523983
0.411458 0.529768 0.529241
0.522500 0.535000 0.534500
0.633542 0.540233 0.539759
0.744583 0.545465 0.545017
0.855625 0.550698 0.550276
0.966666 0.555930 0.555535
0.088452 0.631842 0.523789
0.199494 0.637075 0.529048
0.310535 0.642308 0.534307
0.421577 0.647540 0.539565
0.532618 0.652772 0.544824
0.643660 0.658005 0.550083
0.754701 0.663238 0.555341
0.865743 0.668470 0.560600
0.976784 0.673702 0.565859
0.098571 0.749615 0.534113
0.209612 0.754848 0.539372
0.320654 0.760080 0.544630
0.431695 0.765313 0.549889
0.542737 0.770545 0.555148
0.653778 0.775778 0.560406
0.764820 0.781010 0.565665
0.875861 0.786243 0.570924
0.986903 0.791475 0.576182
0.108689 0.867388 0.544437
0.219731 0.872620 0.549696
0.330772 0.877853 0.554954
0.441814 0.883085 0.560213
0.552855 0.888317 0.565472
0.663897 0.893550 0.570730
0.774938 0.898783 0.575989
0.885980 0.904015 0.581248
0.997021 0.909247 0.586506
0.118808 0.985160 0.554761
0.229849 0.990393 0.560019
0.340891 0.995625 0.565278
0.451932 1.000000 0.570537
0.562974 1.000000 0.575795
0.674015 1.000000 0.581054
0.785057 1.000000 0.586313
0.896098 1.000000 0.591571
1.000000 1.000000 0.596830
0.039825 0.044975 0.582212
0.150867 0.050208 0.587471
0.261908 0.055440 0.592730
0.372950 0.060673 0.597988
0.483991 0.065905 0.603247
0.595033 0.071137 0.608506
0.706074 0.076370 0.613764
0.817116 0.081602 0.619023
0.928157 0.086835 0.624282
0.049944 0.162748 0.592536
0.160985 0.167980 0.597795
0.272027 0.173213 0.603054
0.383068 0.178445 0.608312
0.494110 0.183677 0.613571
0.605151 0.188910 0.618830
0.716193 0.194143 0.624088
0.827234 0.199375 0.629347
0.938276 0.204608 0.634606
0.060062 0.280520 0.602860
0.171104 0.285752 0.608119
0.282145 0.290985 0.613377
0.393187 0.296218 0.618636
0.504228 0.301450 0.623895
0.615270 0.306682 0.629153
0.726311 0.311915 0.634412
0.837353 0.317148 0.639671
0.948394 0.322380 0.644929
0.070181 0.398293 0.613184
0.181222 0.403525 0.618443
0.292264 0.408757 0.623701
0.403305 0.413990 0.628960
0.514347 0.419223 0.634219
0.625388 0.424455 0.639477
0.736430 0.429688 0.644736
0.847471 0.434920 0.649995
0.958513 0.440153 0.655253
0.080299 0.516065 0.623508
0.191341 0.521297 0.628766
0.302382 0.526530 0.634025
0.413424 0.531763 0.639284
0.524465 0.536995 0.644542
0.635507 0.542228 0.649801
0.746548 0.547460 0.655060
0.857590 0.552693 0.660318
0.968631 0.557925 0.665577
0.090417 0.633838 0.633832
0.201459 0.639070 0.639090
0.312500 0.644303 0.644349
0.423542 0.649535 0.649608
0.534583 0.654768 0.654866
0.645625 0.660000 0.660125
0.756667 0.665233 0.665384
0.867708 0.670465 0.670642
0.978750 0.675698 0.675901
0.100536 0.751610 0.644156
0.211577 0.756842 0.649414
0.322619 0.762075 0.654673
0.433660 0.767308 0.659932
0.544702 0.772540 0.665190
0.655743 0.777772 0.670449
0.766785 0.783005 0.675708
0.877826 0.788238 0.680966
0.988868 0.793470 0.686225
0.110654 0.869383 0.654479
0.221696 0.874615 0.659738
0.332737 0.879848 0.664997
0.443779 0.885080 0.670255
0.554820 0.890313 0.675514
0.665862 0.895545 0.680773
0.776903 0.900778 0.686031
0.887945 0.906010 0.691290
0.998986 0.911243 0.696549
0.120773 0.987155 0.664803
0.231814 0.992388 0.670062
0.342856 0.997620 0.675321
0.453897 1.000000 0.680579
0.564939 1.000000 0.685838
0.675980 1.000000 0.691097
0.787022 1.000000 0.696355
0.898063 1.000000 0.701614
1.000000 1.000000 0.706873
0.041790 0.046970 0.692255
0.152832 0.052203 0.697514
0.263873 0.057435 0.702772
0.374915 0.062668 0.708031
0.485957 0.067900 0.713289
0.596998 0.073133 0.718548
0.708040 0.078365 0.723807
0.819081 0.083598 0.729065
0.930123 0.088830 0.734324
0.051909 0.164743 0.702579
0.162950 0.169975 0.707837
0.273992 0.175207 0.713096
0.385033 0.180440 0.718355
0.496075 0.185673 0.723613
0.607116 0.190905 0.728872
0.718158 0.196138 0.734131
0.829199 0.201370 0.739389
0.940241 0.206602 0.744648
0.062027 0.282515 0.712903
0.173069 0.287748 0.718161
0.284110 0.292980 0.723420
0.395152 0.298212 0.728679
0.506193 0.303445 0.733937
0.617235 0.308678 0.739196
0.728276 0.313910 0.744455
0.839318 0.319142 0.749713
0.950359 0.324375 0.754972
0.072146 0.400288 0.723226
0.183187 0.405520 0.728485
0.294229 0.410752 0.733744
0.405270 0.415985 0.739002
0.516312 0.421218 0.744261
0.627353 0.426450 0.749520
0.738395 0.431682 0.754778
0.849436 0.436915 0.760037
0.960478 0.442148 0.765296
0.082264 0.518060 0.733550
0.193306 0.523293 0.738809
0.304347 0.528525 0.744068
0.415389 0.533757 0.749326
0.526430 0.538990 0.754585
0.637472 0.544223 0.759844
0.748513 0.549455 0.765102
0.859555 0.554688 0.770361
0.970596 0.559920 0.775620
0.092383 0.635833 0.743874
0.203424 0.641065 0.749133
0.314466 0.646298 0.754391
0.425507 0.651530 0.759650
0.536549 0.656763 0.764909
0.647590 0.661995 0.770167
0.758632 0.667227 0.775426
0.869673 0.672460 0.780685
0.980715 0.677693 0.785943
0.102501 0.753605 0.754198
0.213542 0.758838 0.759457
0.324584 0.764070 0.764715
0.435625 0.769303 0.769974
0.546667 0.774535 0.775233
0.657708 0.779768 0.780491
0.768750 0.785000 0.785750
0.879792 0.790233 0.791009
0.990833 0.795465 0.796267
0.112619 0.871378 0.764522
0.223661 0.876610 0.769781
0.334702 0.881842 0.775039
0.445744 0.887075 0.780298
0.556785 0.892308 0.785557
0.667827 0.897540 0.790815
0.778868 0.902773 0.796074
0.889910 0.908005 0.801333
1.000000 0.913238 0.806591
0.122738 0.989150 0.774846
0.233779 0.994383 0.780104
0.344821 0.999615 0.785363
0.455862 1.000000 0.790622
0.566904 1.000000 0.795880
0.677945 1.000000 0.801139
0.788987 1.000000 0.806398
0.900028 1.000000 0.811656
1.000000 1.000000 0.816915
0.043756 0.048965 0.802297
0.154797 0.054198 0.807556
0.265839 0.059430 0.812815
0.376880 0.064663 0.818073
0.487922 0.069895 0.823332
0.598963 0.075128 0.828591
0.710005 0.080360 0.833849
0.821046 0.085592 0.839108
0.932088 0.090825 0.844367
0.053874 0.166738 0.812621
0.164915 0.171970 0.817880
0.275957 0.177203 0.823139
0.386998 0.182435 0.828397
0.498040 0.187668 0.833656
0.609081 0.192900 0.838914
0.720123 0.198133 0.844173
0.831165 0.203365 0.849432
0.942206 0.208598 0.854690
0.063992 0.284510 0.822945
0.175034 0.289743 0.828204
0.286075 0.294975 0.833462
0.397117 0.300207 0.838721
0.508158 0.305440 0.843980
0.619200 0.310673 0.849238
0.730241 0.315905 0.854497
0.841283 0.321137 0.859756
0.952324 0.326370 0.865014
0.074111 0.402282 0.833269
0.185152 0.407515 0.838528
0.296194 0.412748 0.843786
0.407235 0.417980 0.849045
0.518277 0.423212 0.854304
0.629318 0.428445 0.859562
0.740360 0.433678 0.864821
0.851401 0.438910 0.870080
0.962443 0.444142 0.875338
0.084229 0.520055 0.843593
0.195271 0.525288 0.848851
0.306312 0.530520 0.854110
0.417354 0.535753 0.859369
0.528395 0.540985 0.864627
0.639437 0.546218 0.869886
0.750478 0.551450 0.875145
0.861520 0.556683 0.880403
0.972561 0.561915 0.885662
0.094348 0.637827 0.853917
0.205389 0.643060 0.859175
0.316431 0.648293 0.864434
0.427472 0.653525 0.869693
0.538514 0.658757 0.874951
0.649555 0.663990 0.880210
0.760597 0.669223 0.885469
0.871638 0.674455 0.890727
0.982680 0.679688 0.895986
0.104466 0.755600 0.864240
0.215508 0.760833 0.869499
0.326549 0.766065 0.874758
0.437591 0.771298 0.880016
0.548632 0.776530 0.885275
0.659674 0.781763 0.890534
0.770715 0.786995 0.895792
0.881757 0.792228 0.901051
0.992798 0.797460 0.906310
0.114584 0.873372 0.874564
0.225626 0.878605 0.879823
0.336667 0.883838 0.885082
0.447709 0.889070 0.890340
0.558750 0.894303 0.895599
0.669792 0.899535 0.900858
0.780833 0.904768 0.906116
0.891875 0.910000 0.911375
1.000000 0.915233 0.916634
0.124703 0.991145 0.884888
0.235744 0.996378 0.890147
0.346786 1.000000 0.895406
0.457827 1.000000 0.900664
0.568869 1.000000 0.905923
0.679910 1.000000 0.911182
0.790952 1.000000 0.916440
0.901993 1.000000 0.921699
1.000000 1.000000 0.926958
0.045721 0.050960 0.912340
0.156762 0.056193 0.917598
0.267804 0.061425 0.922857
0.378845 0.066658 0.928116
0.489887 0.071890 0.933374
0.600928 0.077123 0.938633
0.711970 0.082355 0.943892
0.823011 0.087588 0.949150
0.934053 0.092820 0.954409
0.055839 0.168733 0.922664
0.166881 0.173965 0.927922
0.277922 0.179198 0.933181
0.388964 0.184430 0.938440
0.500005 0.189663 0.943698
0.611047 0.194895 0.948957
0.722088 0.200128 0.954216
0.833130 0.205360 0.959474
0.944171 0.210592 0.964733
0.065957 0.286505 0.932988
0.176999 0.291737 0.938246
0.288040 0.296970 0.943505
0.399082 0.302203 0.948764
0.510123 0.307435 0.954022
0.621165 0.312667 0.959281
0.732206 0.317900 0.964539
0.843248 0.323133 0.969798
0.954290 0.328365 0.975057
0.076076 0.404277 0.943311
0.187117 0.409510 0.948570
0.298159 0.414743 0.953829
0.409200 0.419975 0.959087
0.520242 0.425207 0.964346
0.631283 0.430440 0.969605
0.742325 0.435673 0.974863
0.853366 0.440905 0.980122
0.964408 0.446137 0.985381
0.086194 0.522050 0.953635
0.197236 0.527282 0.958894
0.308277 0.532515 0.964153
0.419319 0.537748 0.969411
0.530360 0.542980 0.974670
0.641402 0.548212 0.979929
0.752443 0.553445 0.985187
0.863485 0.558678 0.990446
0.974526 0.563910 0.995705
0.096313 0.639823 0.963959
0.207354 0.645055 0.969218
0.318396 0.650288 0.974476
0.429437 0.655520 0.979735
0.540479 0.660752 0.984994
0.651520 0.665985 0.990252
0.762562 0.671218 0.995511
0.873603 0.676450 1.000000
0.984645 0.681683 1.000000
0.106431 0.757595 0.974283
0.217473 0.762827 0.979542
0.328514 0.768060 0.984800
0.439556 0.773293 0.990059
0.550597 0.778525 0.995318
0.661639 0.783757 1.000000
0.772680 0.788990 1.000000
0.883722 0.794223 1.000000
0.994763 0.799455 1.000000
0.116549 0.875367 0.984607
0.227591 0.880600 0.989865
0.338633 0.885833 0.995124
0.449674 0.891065 1.000000
0.560716 0.896298 1.000000
0.671757 0.901530 1.000000
0.782799 0.906763 1.000000
0.893840 0.911995 1.000000
1.000000 0.917227 1.000000
0.126668 0.993140 0.994931
0.237709 0.998372 1.000000
0.348751 1.000000 1.000000
0.459792 1.000000 1.000000
0.570834 1.000000 1.000000
0.681875 1.000000 1.000000
0.792917 1.000000 1.000000
0.903958 1.000000 1.000000
1.000000 1.000000 1.000000
