lut/mint-sang.cube
# mint-sang — LUT tự sinh của Xưởng Video
LUT_3D_SIZE 5
0.030000 0.035000 0.032000
0.252083 0.045465 0.042517
0.474166 0.055930 0.053035
0.696249 0.066395 0.063552
0.918332 0.076860 0.074069
0.050237 0.270545 0.052648
0.272320 0.281010 0.063165
0.494403 0.291475 0.073682
0.716486 0.301940 0.084200
0.938569 0.312405 0.094717
0.070474 0.506090 0.073295
0.292557 0.516555 0.083813
0.514640 0.527020 0.094330
0.736723 0.537485 0.104847
0.958806 0.547950 0.115365
0.090710 0.741635 0.093943
0.312794 0.752100 0.104460
0.534877 0.762565 0.114978
0.756960 0.773030 0.125495
0.979043 0.783495 0.136012
0.110947 0.977180 0.114591
0.333030 0.987645 0.125108
0.555113 0.998110 0.135626
0.777196 1.000000 0.146143
0.999279 1.000000 0.156660
0.033930 0.038990 0.252085
0.256013 0.049455 0.262602
0.478096 0.059920 0.273120
0.700179 0.070385 0.283637
0.922262 0.080850 0.294154
0.054167 0.274535 0.272733
0.276250 0.285000 0.283250
0.498333 0.295465 0.293767
0.720416 0.305930 0.304285
0.942499 0.316395 0.314802
0.074404 0.510080 0.293380
0.296487 0.520545 0.303898
0.518570 0.531010 0.314415
0.740653 0.541475 0.324932
0.962736 0.551940 0.335450
0.094641 0.745625 0.314028
0.316724 0.756090 0.324545
0.538807 0.766555 0.335063
0.760890 0.777020 0.345580
0.982973 0.787485 0.356097
0.114877 0.981170 0.334676
0.336960 0.991635 0.345193
0.559044 1.000000 0.355710
0.781127 1.000000 0.366228
1.000000 1.000000 0.376745
0.037860 0.042980 0.472170
0.259943 0.053445 0.482687
0.482026 0.063910 0.493205
0.704109 0.074375 0.503722
0.926192 0.084840 0.514239
0.058097 0.278525 0.492818
0.280180 0.288990 0.503335
0.502263 0.299455 0.513852
0.724346 0.309920 0.524370
0.946429 0.320385 0.534887
0.078334 0.514070 0.513465
0.300417 0.524535 0.523983
0.522500 0.535000 0.534500
0.744583 0.545465 0.545017
0.966666 0.555930 0.555535
0.098571 0.749615 0.534113
0.320654 0.760080 0.544630
0.542737 0.770545 0.555148
0.764820 0.781010 0.565665
0.986903 0.791475 0.576182
0.118808 0.985160 0.554761
0.340891 0.995625 0.565278
0.562974 1.000000 0.575795
0.785057 1.000000 0.586313
1.000000 1.000000 0.596830
0.041790 0.046970 0.692255
0.263873 0.057435 0.702772
0.485957 0.067900 0.713289
0.708040 0.078365 0.723807
0.930123 0.088830 0.734324
0.062027 0.282515 0.712903
0.284110 0.292980 0.723420
0.506193 0.303445 0.733937
0.728276 0.313910 0.744455
0.950359 0.324375 0.754972
0.082264 0.518060 0.733550
0.304347 0.528525 0.744068
0.526430 0.538990 0.754585
0.748513 0.549455 0.765102
0.970596 0.559920 0.775620
0.102501 0.753605 0.754198
0.324584 0.764070 0.764715
0.546667 0.774535 0.775233
0.768750 0.785000 0.785750
0.990833 0.795465 0.796267
0.122738 0.989150 0.774846
0.344821 0.999615 0.785363
0.566904 1.000000 0.795880
0.788987 1.000000 0.806398
1.000000 1.000000 0.816915
0.045721 0.050960 0.912340
0.267804 0.061425 0.922857
0.489887 0.071890 0.933374
0.711970 0.082355 0.943892
0.934053 0.092820 0.954409
0.065957 0.286505 0.932988
0.288040 0.296970 0.943505
0.510123 0.307435 0.954022
0.732206 0.317900 0.964539
0.954290 0.328365 0.975057
0.086194 0.522050 0.953635
0.308277 0.532515 0.964153
0.530360 0.542980 0.974670
0.752443 0.553445 0.985187
0.974526 0.563910 0.995705
0.106431 0.757595 0.974283
0.328514 0.768060 0.984800
0.550597 0.778525 0.995318
0.772680 0.788990 1.000000
0.994763 0.799455 1.000000
0.126668 0.993140 0.994931
0.348751 1.000000 1.000000
0.570834 1.000000 1.000000
0.792917 1.000000 1.000000
1.000000 1.000000 1.000000
