lut/mint-sang.cube
# mint-sang — LUT tự sinh của Xưởng Video
LUT_3D_SIZE 25
0.030000 0.035000 0.032000
0.067014 0.036744 0.033753
0.104028 0.038488 0.035506
0.141042 0.040233 0.037259
0.178055 0.041977 0.039012
0.215069 0.043721 0.040764
0.252083 0.045465 0.042517
0.289097 0.047209 0.044270
0.326111 0.048953 0.046023
0.363125 0.050698 0.047776
0.400138 0.052442 0.049529
0.437152 0.054186 0.051282
0.474166 0.055930 0.053035
0.511180 0.057674 0.054788
0.548194 0.059418 0.056540
0.585208 0.061163 0.058293
0.622221 0.062907 0.060046
0.659235 0.064651 0.061799
0.696249 0.066395 0.063552
0.733263 0.068139 0.065305
0.770277 0.069883 0.067058
0.807291 0.071628 0.068811
0.844304 0.073372 0.070564
0.881318 0.075116 0.072316
0.918332 0.076860 0.074069
0.033373 0.074258 0.035441
0.070387 0.076002 0.037194
0.107400 0.077746 0.038947
0.144414 0.079490 0.040700
0.181428 0.081234 0.042453
0.218442 0.082978 0.044206
0.255456 0.084723 0.045959
0.292470 0.086467 0.047711
0.329484 0.088211 0.049464
0.366497 0.089955 0.051217
0.403511 0.091699 0.052970
0.440525 0.093443 0.054723
0.477539 0.095187 0.056476
0.514553 0.096932 0.058229
0.551567 0.098676 0.059982
0.588580 0.100420 0.061735
0.625594 0.102164 0.063487
0.662608 0.103908 0.065240
0.699622 0.105653 0.066993
0.736636 0.107397 0.068746
0.773650 0.109141 0.070499
0.810663 0.110885 0.072252
0.847677 0.112629 0.074005
0.884691 0.114373 0.075758
0.921705 0.116118 0.077511
0.036746 0.113515 0.038883
0.073759 0.115259 0.040635
0.110773 0.117003 0.042388
0.147787 0.118747 0.044141
0.184801 0.120492 0.045894
0.221815 0.122236 0.047647
0.258829 0.123980 0.049400
0.295842 0.125724 0.051153
0.332856 0.127468 0.052906
0.369870 0.129213 0.054659
0.406884 0.130957 0.056411
0.443898 0.132701 0.058164
0.480912 0.134445 0.059917
0.517925 0.136189 0.061670
0.554939 0.137933 0.063423
0.591953 0.139678 0.065176
0.628967 0.141422 0.066929
0.665981 0.143166 0.068682
0.702995 0.144910 0.070435
0.740009 0.146654 0.072187
0.777022 0.148398 0.073940
0.814036 0.150142 0.075693
0.851050 0.151887 0.077446
0.888064 0.153631 0.079199
0.925078 0.155375 0.080952
0.040118 0.152773 0.042324
0.077132 0.154517 0.044077
0.114146 0.156261 0.045830
0.151160 0.158005 0.047583
0.188174 0.159749 0.049335
0.225188 0.161493 0.051088
0.262201 0.163238 0.052841
0.299215 0.164982 0.054594
0.336229 0.166726 0.056347
0.373243 0.168470 0.058100
0.410257 0.170214 0.059853
0.447271 0.171958 0.061606
0.484284 0.173703 0.063359
0.521298 0.175447 0.065111
0.558312 0.177191 0.066864
0.595326 0.178935 0.068617
0.632340 0.180679 0.070370
0.669354 0.182423 0.072123
0.706367 0.184168 0.073876
0.743381 0.185912 0.075629
0.780395 0.187656 0.077382
0.817409 0.189400 0.079134
0.854423 0.191144 0.080887
0.891437 0.192888 0.082640
0.928451 0.194633 0.084393
0.043491 0.192030 0.045765
0.080505 0.193774 0.047518
0.117519 0.195518 0.049271
0.154533 0.197262 0.051024
0.191547 0.199007 0.052777
0.228560 0.200751 0.054530
0.265574 0.202495 0.056282
0.302588 0.204239 0.058035
0.339602 0.205983 0.059788
0.376616 0.207727 0.061541
0.413630 0.209472 0.063294
0.450643 0.211216 0.065047
0.487657 0.212960 0.066800
0.524671 0.214704 0.068553
0.561685 0.216448 0.070306
0.598699 0.218192 0.072058
0.635713 0.219937 0.073811
0.672726 0.221681 0.075564
0.709740 0.223425 0.077317
0.746754 0.225169 0.079070
0.783768 0.226913 0.080823
0.820782 0.228657 0.082576
0.857796 0.230402 0.084329
0.894809 0.232146 0.086082
0.931823 0.233890 0.087834
0.046864 0.231288 0.049206
0.083878 0.233032 0.050959
0.120892 0.234776 0.052712
0.157906 0.236520 0.054465
0.194919 0.238264 0.056218
0.231933 0.240008 0.057971
0.268947 0.241753 0.059724
0.305961 0.243497 0.061477
0.342975 0.245241 0.063230
0.379989 0.246985 0.064982
0.417002 0.248729 0.066735
0.454016 0.250473 0.068488
0.491030 0.252217 0.070241
0.528044 0.253962 0.071994
0.565058 0.255706 0.073747
0.602072 0.257450 0.075500
0.639085 0.259194 0.077253
0.676099 0.260938 0.079006
0.713113 0.262683 0.080758
0.750127 0.264427 0.082511
0.787141 0.266171 0.084264
0.824155 0.267915 0.086017
0.861168 0.269659 0.087770
0.898182 0.271403 0.089523
0.935196 0.273147 0.091276
0.050237 0.270545 0.052648
0.087251 0.272289 0.054401
0.124264 0.274033 0.056153
0.161278 0.275778 0.057906
0.198292 0.277522 0.059659
0.235306 0.279266 0.061412
0.272320 0.281010 0.063165
0.309334 0.282754 0.064918
0.346348 0.284498 0.066671
0.383361 0.286242 0.068424
0.420375 0.287987 0.070177
0.457389 0.289731 0.071929
0.494403 0.291475 0.073682
0.531417 0.293219 0.075435
0.568431 0.294963 0.077188
0.605444 0.296708 0.078941
0.642458 0.298452 0.080694
0.679472 0.300196 0.082447
0.716486 0.301940 0.084200
0.753500 0.303684 0.085953
0.790514 0.305428 0.087705
0.827527 0.307173 0.089458
0.864541 0.308917 0.091211
0.901555 0.310661 0.092964
0.938569 0.312405 0.094717
0.053610 0.309802 0.056089
0.090623 0.311547 0.057842
0.127637 0.313291 0.059595
0.164651 0.315035 0.061348
0.201665 0.316779 0.063101
0.238679 0.318523 0.064853
0.275693 0.320268 0.066606
0.312706 0.322012 0.068359
0.349720 0.323756 0.070112
0.386734 0.325500 0.071865
0.423748 0.327244 0.073618
0.460762 0.328988 0.075371
0.497776 0.330732 0.077124
0.534790 0.332477 0.078877
0.571803 0.334221 0.080629
0.608817 0.335965 0.082382
0.645831 0.337709 0.084135
0.682845 0.339453 0.085888
0.719859 0.341198 0.087641
0.756873 0.342942 0.089394
0.793886 0.344686 0.091147
0.830900 0.346430 0.092900
0.867914 0.348174 0.094653
0.904928 0.349918 0.096405
0.941942 0.351662 0.098158
0.056982 0.349060 0.059530
0.093996 0.350804 0.061283
0.131010 0.352548 0.063036
0.168024 0.354293 0.064789
0.205038 0.356037 0.066542
0.242052 0.357781 0.068295
0.279065 0.359525 0.070048
0.316079 0.361269 0.071801
0.353093 0.363013 0.073553
0.390107 0.364757 0.075306
0.427121 0.366502 0.077059
0.464135 0.368246 0.078812
0.501148 0.369990 0.080565
0.538162 0.371734 0.082318
0.575176 0.373478 0.084071
0.612190 0.375223 0.085824
0.649204 0.376967 0.087577
0.686218 0.378711 0.089329
0.723232 0.380455 0.091082
0.760245 0.382199 0.092835
0.797259 0.383943 0.094588
0.834273 0.385687 0.096341
0.871287 0.387432 0.098094
0.908301 0.389176 0.099847
0.945315 0.390920 0.101600
0.060355 0.388317 0.062972
0.097369 0.390062 0.064724
0.134383 0.391806 0.066477
0.171397 0.393550 0.068230
0.208411 0.395294 0.069983
0.245424 0.397038 0.071736
0.282438 0.398783 0.073489
0.319452 0.400527 0.075242
0.356466 0.402271 0.076995
0.393480 0.404015 0.078748
0.430494 0.405759 0.080500
0.467507 0.407503 0.082253
0.504521 0.409247 0.084006
0.541535 0.410992 0.085759
0.578549 0.412736 0.087512
0.615563 0.414480 0.089265
0.652577 0.416224 0.091018
0.689590 0.417968 0.092771
0.726604 0.419713 0.094524
0.763618 0.421457 0.096276
0.800632 0.423201 0.098029
0.837646 0.424945 0.099782
0.874660 0.426689 0.101535
0.911674 0.428433 0.103288
0.948687 0.430177 0.105041
0.063728 0.427575 0.066413
0.100742 0.429319 0.068166
0.137756 0.431063 0.069919
0.174770 0.432808 0.071672
0.211783 0.434552 0.073424
0.248797 0.436296 0.075177
0.285811 0.438040 0.076930
0.322825 0.439784 0.078683
0.359839 0.441528 0.080436
0.396853 0.443273 0.082189
0.433866 0.445017 0.083942
0.470880 0.446761 0.085695
0.507894 0.448505 0.087448
0.544908 0.450249 0.089200
0.581922 0.451993 0.090953
0.618936 0.453738 0.092706
0.655949 0.455482 0.094459
0.692963 0.457226 0.096212
0.729977 0.458970 0.097965
0.766991 0.460714 0.099718
0.804005 0.462458 0.101471
0.841019 0.464203 0.103224
0.878032 0.465947 0.104976
0.915046 0.467691 0.106729
0.952060 0.469435 0.108482
0.067101 0.466832 0.069854
0.104115 0.468577 0.071607
0.141129 0.470321 0.073360
0.178142 0.472065 0.075113
0.215156 0.473809 0.076866
0.252170 0.475553 0.078619
0.289184 0.477297 0.080371
0.326198 0.479042 0.082124
0.363212 0.480786 0.083877
0.400225 0.482530 0.085630
0.437239 0.484274 0.087383
0.474253 0.486018 0.089136
0.511267 0.487762 0.090889
0.548281 0.489507 0.092642
0.585295 0.491251 0.094395
0.622308 0.492995 0.096147
0.659322 0.494739 0.097900
0.696336 0.496483 0.099653
0.733350 0.498227 0.101406
0.770364 0.499972 0.103159
0.807378 0.501716 0.104912
0.844391 0.503460 0.106665
0.881405 0.505204 0.108418
0.918419 0.506948 0.110171
0.955433 0.508692 0.111923
0.070474 0.506090 0.073295
0.107487 0.507834 0.075048
0.144501 0.509578 0.076801
0.181515 0.511323 0.078554
0.218529 0.513067 0.080307
0.255543 0.514811 0.082060
0.292557 0.516555 0.083813
0.329571 0.518299 0.085566
0.366584 0.520043 0.087319
0.403598 0.521787 0.089071
0.440612 0.523532 0.090824
0.477626 0.525276 0.092577
0.514640 0.527020 0.094330
0.551654 0.528764 0.096083
0.588667 0.530508 0.097836
0.625681 0.532253 0.099589
0.662695 0.533997 0.101342
0.699709 0.535741 0.103095
0.736723 0.537485 0.104847
0.773737 0.539229 0.106600
0.810750 0.540973 0.108353
0.847764 0.542718 0.110106
0.884778 0.544462 0.111859
0.921792 0.546206 0.113612
0.958806 0.547950 0.115365
0.073846 0.545347 0.076737
0.110860 0.547092 0.078490
0.147874 0.548836 0.080243
0.184888 0.550580 0.081995
0.221902 0.552324 0.083748
0.258916 0.554068 0.085501
0.295929 0.555812 0.087254
0.332943 0.557557 0.089007
0.369957 0.559301 0.090760
0.406971 0.561045 0.092513
0.443985 0.562789 0.094266
0.480999 0.564533 0.096018
0.518013 0.566277 0.097771
0.555026 0.568022 0.099524
0.592040 0.569766 0.101277
0.629054 0.571510 0.103030
0.666068 0.573254 0.104783
0.703082 0.574998 0.106536
0.740096 0.576743 0.108289
0.777109 0.578487 0.110042
0.814123 0.580231 0.111794
0.851137 0.581975 0.113547
0.888151 0.583719 0.115300
0.925165 0.585463 0.117053
0.962179 0.587207 0.118806
0.077219 0.584605 0.080178
0.114233 0.586349 0.081931
0.151247 0.588093 0.083684
0.188261 0.589838 0.085437
0.225275 0.591582 0.087190
0.262288 0.593326 0.088942
0.299302 0.595070 0.090695
0.336316 0.596814 0.092448
0.373330 0.598558 0.094201
0.410344 0.600303 0.095954
0.447358 0.602047 0.097707
0.484371 0.603791 0.099460
0.521385 0.605535 0.101213
0.558399 0.607279 0.102966
0.595413 0.609023 0.104718
0.632427 0.610768 0.106471
0.669441 0.612512 0.108224
0.706454 0.614256 0.109977
0.743468 0.616000 0.111730
0.780482 0.617744 0.113483
0.817496 0.619488 0.115236
0.854510 0.621233 0.116989
0.891524 0.622977 0.118742
0.928538 0.624721 0.120494
0.965551 0.626465 0.122247
0.080592 0.623862 0.083619
0.117606 0.625607 0.085372
0.154620 0.627351 0.087125
0.191634 0.629095 0.088878
0.228647 0.630839 0.090631
0.265661 0.632583 0.092384
0.302675 0.634328 0.094137
0.339689 0.636072 0.095890
0.376703 0.637816 0.097642
0.413717 0.639560 0.099395
0.450730 0.641304 0.101148
0.487744 0.643048 0.102901
0.524758 0.644792 0.104654
0.561772 0.646537 0.106407
0.598786 0.648281 0.108160
0.635800 0.650025 0.109913
0.672813 0.651769 0.111666
0.709827 0.653513 0.113418
0.746841 0.655258 0.115171
0.783855 0.657002 0.116924
0.820869 0.658746 0.118677
0.857883 0.660490 0.120430
0.894896 0.662234 0.122183
0.931910 0.663978 0.123936
0.968924 0.665722 0.125689
0.083965 0.663120 0.087061
0.120979 0.664864 0.088813
0.157993 0.666608 0.090566
0.195006 0.668353 0.092319
0.232020 0.670097 0.094072
0.269034 0.671841 0.095825
0.306048 0.673585 0.097578
0.343062 0.675329 0.099331
0.380076 0.677073 0.101084
0.417089 0.678817 0.102837
0.454103 0.680562 0.104589
0.491117 0.682306 0.106342
0.528131 0.684050 0.108095
0.565145 0.685794 0.109848
0.602159 0.687538 0.111601
0.639172 0.689283 0.113354
0.676186 0.691027 0.115107
0.713200 0.692771 0.116860
0.750214 0.694515 0.118613
0.787228 0.696259 0.120365
0.824242 0.698003 0.122118
0.861255 0.699747 0.123871
0.898269 0.701492 0.125624
0.935283 0.703236 0.127377
0.972297 0.704980 0.129130
0.087338 0.702377 0.090502
0.124352 0.704122 0.092255
0.161365 0.705866 0.094008
0.198379 0.707610 0.095761
0.235393 0.709354 0.097513
0.272407 0.711098 0.099266
0.309421 0.712843 0.101019
0.346435 0.714587 0.102772
0.383448 0.716331 0.104525
0.420462 0.718075 0.106278
0.457476 0.719819 0.108031
0.494490 0.721563 0.109784
0.531504 0.723308 0.111537
0.568518 0.725052 0.113289
0.605531 0.726796 0.115042
0.642545 0.728540 0.116795
0.679559 0.730284 0.118548
0.716573 0.732028 0.120301
0.753587 0.733773 0.122054
0.790601 0.735517 0.123807
0.827614 0.737261 0.125560
0.864628 0.739005 0.127313
0.901642 0.740749 0.129065
0.938656 0.742493 0.130818
0.975670 0.744238 0.132571
0.090710 0.741635 0.093943
0.127724 0.743379 0.095696
0.164738 0.745123 0.097449
0.201752 0.746868 0.099202
0.238766 0.748612 0.100955
0.275780 0.750356 0.102708
0.312794 0.752100 0.104460
0.349807 0.753844 0.106213
0.386821 0.755588 0.107966
0.423835 0.757333 0.109719
0.460849 0.759077 0.111472
0.497863 0.760821 0.113225
0.534877 0.762565 0.114978
0.571890 0.764309 0.116731
0.608904 0.766053 0.118484
0.645918 0.767798 0.120236
0.682932 0.769542 0.121989
0.719946 0.771286 0.123742
0.756960 0.773030 0.125495
0.793973 0.774774 0.127248
0.830987 0.776518 0.129001
0.868001 0.778263 0.130754
0.905015 0.780007 0.132507
0.942029 0.781751 0.134260
0.979043 0.783495 0.136012
0.094083 0.780892 0.097384
0.131097 0.782637 0.099137
0.168111 0.784381 0.100890
0.205125 0.786125 0.102643
0.242139 0.787869 0.104396
0.279152 0.789613 0.106149
0.316166 0.791358 0.107902
0.353180 0.793102 0.109655
0.390194 0.794846 0.111408
0.427208 0.796590 0.113160
0.464222 0.798334 0.114913
0.501235 0.800078 0.116666
0.538249 0.801822 0.118419
0.575263 0.803567 0.120172
0.612277 0.805311 0.121925
0.649291 0.807055 0.123678
0.686305 0.808799 0.125431
0.723319 0.810543 0.127184
0.760332 0.812287 0.128936
0.797346 0.814032 0.130689
0.834360 0.815776 0.132442
0.871374 0.817520 0.134195
0.908388 0.819264 0.135948
0.945402 0.821008 0.137701
0.982415 0.822752 0.139454
0.097456 0.820150 0.100826
0.134470 0.821894 0.102579
0.171484 0.823638 0.104332
0.208498 0.825383 0.106084
0.245511 0.827127 0.107837
0.282525 0.828871 0.109590
0.319539 0.830615 0.111343
0.356553 0.832359 0.113096
0.393567 0.834103 0.114849
0.430581 0.835848 0.116602
0.467594 0.837592 0.118355
0.504608 0.839336 0.120108
0.541622 0.841080 0.121860
0.578636 0.842824 0.123613
0.615650 0.844568 0.125366
0.652664 0.846313 0.127119
0.689677 0.848057 0.128872
0.726691 0.849801 0.130625
0.763705 0.851545 0.132378
0.800719 0.853289 0.134131
0.837733 0.855033 0.135884
0.874747 0.856778 0.137636
0.911761 0.858522 0.139389
0.948774 0.860266 0.141142
0.985788 0.862010 0.142895
0.100829 0.859407 0.104267
0.137843 0.861152 0.106020
0.174857 0.862896 0.107773
0.211870 0.864640 0.109526
0.248884 0.866384 0.111279
0.285898 0.868128 0.113031
0.322912 0.869873 0.114784
0.359926 0.871617 0.116537
0.396940 0.873361 0.118290
0.433953 0.875105 0.120043
0.470967 0.876849 0.121796
0.507981 0.878593 0.123549
0.544995 0.880337 0.125302
0.582009 0.882082 0.127055
0.619023 0.883826 0.128807
0.656036 0.885570 0.130560
0.693050 0.887314 0.132313
0.730064 0.889058 0.134066
0.767078 0.890803 0.135819
0.804092 0.892547 0.137572
0.841106 0.894291 0.139325
0.878119 0.896035 0.141078
0.915133 0.897779 0.142831
0.952147 0.899523 0.144583
0.989161 0.901267 0.146336
0.104202 0.898665 0.107708
0.141216 0.900409 0.109461
0.178229 0.902153 0.111214
0.215243 0.903897 0.112967
0.252257 0.905642 0.114720
0.289271 0.907386 0.116473
0.326285 0.909130 0.118226
0.363299 0.910874 0.119979
0.400312 0.912618 0.121731
0.437326 0.914362 0.123484
0.474340 0.916107 0.125237
0.511354 0.917851 0.126990
0.548368 0.919595 0.128743
0.585382 0.921339 0.130496
0.622395 0.923083 0.132249
0.659409 0.924828 0.134002
0.696423 0.926572 0.135755
0.733437 0.928316 0.137507
0.770451 0.930060 0.139260
0.807465 0.931804 0.141013
0.844478 0.933548 0.142766
0.881492 0.935292 0.144519
0.918506 0.937037 0.146272
0.955520 0.938781 0.148025
0.992534 0.940525 0.149778
0.107574 0.937923 0.111150
0.144588 0.939667 0.112903
0.181602 0.941411 0.114655
0.218616 0.943155 0.116408
0.255630 0.944899 0.118161
0.292644 0.946643 0.119914
0.329658 0.948388 0.121667
0.366671 0.950132 0.123420
0.403685 0.951876 0.125173
0.440699 0.953620 0.126926
0.477713 0.955364 0.128678
0.514727 0.957108 0.130431
0.551741 0.958852 0.132184
0.588754 0.960597 0.133937
0.625768 0.962341 0.135690
0.662782 0.964085 0.137443
0.699796 0.965829 0.139196
0.736810 0.967573 0.140949
0.773824 0.969318 0.142702
0.810837 0.971062 0.144454
0.847851 0.972806 0.146207
0.884865 0.974550 0.147960
0.921879 0.976294 0.149713
0.958893 0.978038 0.151466
0.995907 0.979783 0.153219
0.110947 0.977180 0.114591
0.147961 0.978924 0.116344
0.184975 0.980668 0.118097
0.221989 0.982413 0.119850
0.259003 0.984157 0.121602
0.296016 0.985901 0.123355
0.333030 0.987645 0.125108
0.370044 0.989389 0.126861
0.407058 0.991133 0.128614
0.444072 0.992877 0.130367
0.481086 0.994622 0.132120
0.518100 0.996366 0.133873
0.555113 0.998110 0.135626
0.592127 0.999854 0.137378
0.629141 1.000000 0.139131
0.666155 1.000000 0.140884
0.703169 1.000000 0.142637
0.740183 1.000000 0.144390
0.777196 1.000000 0.146143
0.814210 1.000000 0.147896
0.851224 1.000000 0.149649
0.888238 1.000000 0.151402
0.925252 1.000000 0.153154
0.962266 1.000000 0.154907
0.999279 1.000000 0.156660
0.030655 0.035665 0.068681
0.067669 0.037409 0.070434
0.104683 0.039153 0.072187
0.141697 0.040898 0.073939
0.178710 0.042642 0.075692
0.215724 0.044386 0.077445
0.252738 0.046130 0.079198
0.289752 0.047874 0.080951
0.326766 0.049618 0.082704
0.363780 0.051363 0.084457
0.400793 0.053107 0.086210
0.437807 0.054851 0.087963
0.474821 0.056595 0.089715
0.511835 0.058339 0.091468
0.548849 0.060083 0.093221
0.585863 0.061828 0.094974
0.622876 0.063572 0.096727
0.659890 0.065316 0.098480
0.696904 0.067060 0.100233
0.733918 0.068804 0.101986
0.770932 0.070548 0.103739
0.807946 0.072293 0.105491
0.844959 0.074037 0.107244
0.881973 0.075781 0.108997
0.918987 0.077525 0.110750
0.034028 0.074923 0.072122
0.071042 0.076667 0.073875
0.108056 0.078411 0.075628
0.145069 0.080155 0.077381
0.182083 0.081899 0.079134
0.219097 0.083643 0.080887
0.256111 0.085388 0.082639
0.293125 0.087132 0.084392
0.330139 0.088876 0.086145
0.367152 0.090620 0.087898
0.404166 0.092364 0.089651
0.441180 0.094108 0.091404
0.478194 0.095852 0.093157
0.515208 0.097597 0.094910
0.552222 0.099341 0.096663
0.589235 0.101085 0.098415
0.626249 0.102829 0.100168
0.663263 0.104573 0.101921
0.700277 0.106318 0.103674
0.737291 0.108062 0.105427
0.774305 0.109806 0.107180
0.811318 0.111550 0.108933
0.848332 0.113294 0.110686
0.885346 0.115038 0.112439
0.922360 0.116783 0.114191
0.037401 0.114180 0.075563
0.074414 0.115924 0.077316
0.111428 0.117668 0.079069
0.148442 0.119413 0.080822
0.185456 0.121157 0.082575
0.222470 0.122901 0.084328
0.259484 0.124645 0.086081
0.296497 0.126389 0.087834
0.333511 0.128133 0.089586
0.370525 0.129878 0.091339
0.407539 0.131622 0.093092
0.444553 0.133366 0.094845
0.481567 0.135110 0.096598
0.518581 0.136854 0.098351
0.555594 0.138598 0.100104
0.592608 0.140342 0.101857
0.629622 0.142087 0.103610
0.666636 0.143831 0.105362
0.703650 0.145575 0.107115
0.740664 0.147319 0.108868
0.777677 0.149063 0.110621
0.814691 0.150807 0.112374
0.851705 0.152552 0.114127
0.888719 0.154296 0.115880
0.925733 0.156040 0.117633
0.040773 0.153438 0.079005
0.077787 0.155182 0.080758
0.114801 0.156926 0.082510
0.151815 0.158670 0.084263
0.188829 0.160414 0.086016
0.225843 0.162158 0.087769
0.262856 0.163903 0.089522
0.299870 0.165647 0.091275
0.336884 0.167391 0.093028
0.373898 0.169135 0.094781
0.410912 0.170879 0.096534
0.447926 0.172623 0.098286
0.484939 0.174368 0.100039
0.521953 0.176112 0.101792
0.558967 0.177856 0.103545
0.595981 0.179600 0.105298
0.632995 0.181344 0.107051
0.670009 0.183088 0.108804
0.707023 0.184833 0.110557
0.744036 0.186577 0.112310
0.781050 0.188321 0.114062
0.818064 0.190065 0.115815
0.855078 0.191809 0.117568
0.892092 0.193553 0.119321
0.929106 0.195298 0.121074
0.044146 0.192695 0.082446
0.081160 0.194439 0.084199
0.118174 0.196183 0.085952
0.155188 0.197928 0.087705
0.192202 0.199672 0.089458
0.229215 0.201416 0.091210
0.266229 0.203160 0.092963
0.303243 0.204904 0.094716
0.340257 0.206648 0.096469
0.377271 0.208393 0.098222
0.414285 0.210137 0.099975
0.451298 0.211881 0.101728
0.488312 0.213625 0.103481
0.525326 0.215369 0.105234
0.562340 0.217113 0.106986
0.599354 0.218858 0.108739
0.636368 0.220602 0.110492
0.673381 0.222346 0.112245
0.710395 0.224090 0.113998
0.747409 0.225834 0.115751
0.784423 0.227578 0.117504
0.821437 0.229322 0.119257
0.858451 0.231067 0.121010
0.895465 0.232811 0.122762
0.932478 0.234555 0.124515
0.047519 0.231953 0.085887
0.084533 0.233697 0.087640
0.121547 0.235441 0.089393
0.158561 0.237185 0.091146
0.195574 0.238929 0.092899
0.232588 0.240673 0.094652
0.269602 0.242418 0.096405
0.306616 0.244162 0.098157
0.343630 0.245906 0.099910
0.380644 0.247650 0.101663
0.417657 0.249394 0.103416
0.454671 0.251138 0.105169
0.491685 0.252883 0.106922
0.528699 0.254627 0.108675
0.565713 0.256371 0.110428
0.602727 0.258115 0.112181
0.639740 0.259859 0.113933
0.676754 0.261603 0.115686
0.713768 0.263348 0.117439
0.750782 0.265092 0.119192
0.787796 0.266836 0.120945
0.824810 0.268580 0.122698
0.861823 0.270324 0.124451
0.898837 0.272068 0.126204
0.935851 0.273813 0.127957
0.050892 0.271210 0.089329
0.087906 0.272954 0.091081
0.124920 0.274698 0.092834
0.161933 0.276443 0.094587
0.198947 0.278187 0.096340
0.235961 0.279931 0.098093
0.272975 0.281675 0.099846
0.309989 0.283419 0.101599
0.347003 0.285163 0.103352
0.384016 0.286907 0.105105
0.421030 0.288652 0.106857
0.458044 0.290396 0.108610
0.495058 0.292140 0.110363
0.532072 0.293884 0.112116
0.569086 0.295628 0.113869
0.606099 0.297373 0.115622
0.643113 0.299117 0.117375
0.680127 0.300861 0.119128
0.717141 0.302605 0.120881
0.754155 0.304349 0.122633
0.791169 0.306093 0.124386
0.828182 0.307837 0.126139
0.865196 0.309582 0.127892
0.902210 0.311326 0.129645
0.939224 0.313070 0.131398
0.054265 0.310468 0.092770
0.091278 0.312212 0.094523
0.128292 0.313956 0.096276
0.165306 0.315700 0.098028
0.202320 0.317444 0.099781
0.239334 0.319188 0.101534
0.276348 0.320933 0.103287
0.313362 0.322677 0.105040
0.350375 0.324421 0.106793
0.387389 0.326165 0.108546
0.424403 0.327909 0.110299
0.461417 0.329653 0.112052
0.498431 0.331398 0.113804
0.535445 0.333142 0.115557
0.572458 0.334886 0.117310
0.609472 0.336630 0.119063
0.646486 0.338374 0.120816
0.683500 0.340118 0.122569
0.720514 0.341863 0.124322
0.757528 0.343607 0.126075
0.794541 0.345351 0.127828
0.831555 0.347095 0.129580
0.868569 0.348839 0.131333
0.905583 0.350583 0.133086
0.942597 0.352328 0.134839
0.057637 0.349725 0.096211
0.094651 0.351469 0.097964
0.131665 0.353213 0.099717
0.168679 0.354958 0.101470
0.205693 0.356702 0.103223
0.242707 0.358446 0.104976
0.279720 0.360190 0.106728
0.316734 0.361934 0.108481
0.353748 0.363678 0.110234
0.390762 0.365422 0.111987
0.427776 0.367167 0.113740
0.464790 0.368911 0.115493
0.501804 0.370655 0.117246
0.538817 0.372399 0.118999
0.575831 0.374143 0.120752
0.612845 0.375888 0.122504
0.649859 0.377632 0.124257
0.686873 0.379376 0.126010
0.723887 0.381120 0.127763
0.760900 0.382864 0.129516
0.797914 0.384608 0.131269
0.834928 0.386352 0.133022
0.871942 0.388097 0.134775
0.908956 0.389841 0.136528
0.945970 0.391585 0.138280
0.061010 0.388983 0.099652
0.098024 0.390727 0.101405
0.135038 0.392471 0.103158
0.172052 0.394215 0.104911
0.209066 0.395959 0.106664
0.246079 0.397703 0.108417
0.283093 0.399447 0.110170
0.320107 0.401192 0.111923
0.357121 0.402936 0.113676
0.394135 0.404680 0.115428
0.431149 0.406424 0.117181
0.468162 0.408168 0.118934
0.505176 0.409913 0.120687
0.542190 0.411657 0.122440
0.579204 0.413401 0.124193
0.616218 0.415145 0.125946
0.653232 0.416889 0.127699
0.690246 0.418633 0.129452
0.727259 0.420377 0.131204
0.764273 0.422122 0.132957
0.801287 0.423866 0.134710
0.838301 0.425610 0.136463
0.875315 0.427354 0.138216
0.912329 0.429098 0.139969
0.949342 0.430843 0.141722
0.064383 0.428240 0.103094
0.101397 0.429984 0.104847
0.138411 0.431728 0.106599
0.175425 0.433473 0.108352
0.212438 0.435217 0.110105
0.249452 0.436961 0.111858
0.286466 0.438705 0.113611
0.323480 0.440449 0.115364
0.360494 0.442193 0.117117
0.397508 0.443937 0.118870
0.434521 0.445682 0.120623
