lut/noir-tuong-phan.cube
# noir-tuong-phan — LUT tự sinh của Xưởng Video
LUT_3D_SIZE 9
0.000000 0.000000 0.000000
0.000000 0.000000 0.000000
0.044015 0.000000 0.000000
0.128463 0.000000 0.000000
0.213392 0.000000 0.000000
0.298716 0.025941 0.025941
0.384328 0.055990 0.055990
0.470112 0.086108 0.086108
0.555940 0.116292 0.116292
0.000000 0.000000 0.000000
0.018863 0.018863 0.000000
0.103153 0.048895 0.000000
0.187946 0.078997 0.024837
0.273162 0.109165 0.054884
0.358701 0.139398 0.084999
0.444446 0.169690 0.115180
0.530274 0.200039 0.145425
0.616057 0.230441 0.175729
0.000000 0.102042 0.000000
0.077888 0.132260 0.023733
0.162539 0.162539 0.053777
0.247638 0.192875 0.083890
0.333091 0.223264 0.114069
0.418787 0.253703 0.144311
0.504604 0.284186 0.174613
0.590414 0.314708 0.204971
0.676090 0.345264 0.235381
0.052670 0.216090 0.052670
0.137171 0.246518 0.082781
0.222145 0.276990 0.112957
0.307504 0.307504 0.143198
0.393140 0.338053 0.173498
0.478934 0.368632 0.203853
0.564759 0.399235 0.234261
0.650488 0.429858 0.264716
0.735997 0.460494 0.295214
0.111846 0.330843 0.111846
0.196687 0.361415 0.142084
0.281941 0.392014 0.172382
0.367506 0.422632 0.202736
0.453266 0.453266 0.233142
0.539096 0.483909 0.263595
0.624867 0.514554 0.294091
0.710454 0.545197 0.324625
0.795740 0.575831 0.355191
0.171266 0.446038 0.171266
0.256407 0.476679 0.201618
0.341890 0.507324 0.232022
0.427605 0.537968 0.262474
0.513427 0.568605 0.292969
0.599229 0.599229 0.323501
0.684884 0.629834 0.354066
0.770271 0.660414 0.384659
0.855284 0.690964 0.415274
0.230903 0.561378 0.230903
0.316295 0.592006 0.261353
0.401953 0.622615 0.291846
0.487756 0.653202 0.322377
0.573577 0.683760 0.352941
0.659289 0.714284 0.383533
0.744769 0.744769 0.414147
0.829904 0.775210 0.444777
0.914598 0.805602 0.475418
0.290723 0.676554 0.290723
0.376314 0.707086 0.321253
0.462087 0.737581 0.351816
0.547916 0.768033 0.382407
0.633674 0.798437 0.413020
0.719236 0.828788 0.443650
0.804485 0.859084 0.474290
0.889319 0.889319 0.504935
0.973657 0.919491 0.535580
0.350692 0.791268 0.350692
0.436423 0.821633 0.381281
0.522249 0.851942 0.411894
0.608041 0.882192 0.442523
0.693674 0.912379 0.473163
0.779028 0.942500 0.503808
0.863997 0.972553 0.534452
0.948490 1.000000 0.565090
1.000000 1.000000 0.595716
0.000000 0.000000 0.000000
0.000000 0.000000 0.000000
0.055479 0.000000 0.001419
0.139997 0.000000 0.031409
0.224986 0.007385 0.061471
0.310355 0.037390 0.091601
0.395998 0.067465 0.121797
0.481796 0.097609 0.152055
0.567620 0.127817 0.182371
0.000000 0.000317 0.000317
0.030305 0.030305 0.030305
0.114667 0.060364 0.060364
0.199524 0.090491 0.090491
0.284790 0.120685 0.120685
0.370363 0.150940 0.150940
0.456127 0.181255 0.181255
0.541957 0.211625 0.211625
0.627724 0.242045 0.242045
0.005180 0.113556 0.059257
0.089382 0.143797 0.089382
0.174098 0.174098 0.119573
0.259252 0.204455 0.149826
0.344745 0.234864 0.180139
0.430465 0.265320 0.210506
0.516289 0.295818 0.240925
0.602088 0.326354 0.271390
0.687736 0.356922 0.301896
0.064143 0.227686 0.118461
0.148712 0.258131 0.148712
0.233744 0.288620 0.179023
0.319147 0.319147 0.209388
0.404812 0.349708 0.239805
0.490618 0.380297 0.270268
0.576438 0.410909 0.300773
0.662144 0.441538 0.331315
0.747614 0.472177 0.361887
0.123368 0.342496 0.177907
0.208270 0.373079 0.208270
0.293573 0.403686 0.238685
0.379172 0.434311 0.269147
0.464948 0.464948 0.299650
0.550778 0.495593 0.330190
0.636531 0.526238 0.360762
0.722084 0.556878 0.391360
0.807321 0.587507 0.421978
0.182832 0.457720 0.237565
0.268025 0.488363 0.268025
0.353547 0.519009 0.298527
0.439284 0.549650 0.329066
0.525111 0.580283 0.359637
0.610900 0.610900 0.390234
0.696525 0.641496 0.420852
0.781868 0.672066 0.451485
0.866822 0.702603 0.482127
0.242507 0.573057 0.297404
0.327942 0.603679 0.327942
0.413627 0.634280 0.358512
0.499440 0.664857 0.389108
0.585254 0.695402 0.419725
0.670942 0.725912 0.450357
0.756381 0.756381 0.480999
0.841461 0.786803 0.511645
0.926088 0.817176 0.542288
0.302359 0.688199 0.357387
0.387982 0.718718 0.387982
0.473770 0.749197 0.418598
0.559597 0.779631 0.449230
0.645336 0.810015 0.479872
0.730861 0.840346 0.510517
0.816059 0.870619 0.541161
0.900831 0.900831 0.571797
0.985096 0.930978 0.602419
0.362352 0.802852 0.417472
0.448103 0.833196 0.448103
0.533932 0.863483 0.478745
0.619710 0.893709 0.509390
0.705312 0.923872 0.540034
0.790619 0.953967 0.570670
0.875528 0.983992 0.601292
0.959951 1.000000 0.631896
1.000000 1.000000 0.662474
0.000000 0.000000 0.006876
0.000000 0.000000 0.036880
0.066954 0.000000 0.066954
0.151540 0.000000 0.097096
0.236587 0.018816 0.127304
0.322000 0.048849 0.157572
0.407671 0.078950 0.187900
0.493480 0.109119 0.218281
0.579298 0.139351 0.248711
0.000000 0.011742 0.065846
0.041757 0.041757 0.095986
0.126191 0.071843 0.126191
0.211109 0.101996 0.156458
0.296423 0.132213 0.186783
0.382029 0.162492 0.217162
0.467810 0.192828 0.247591
0.553639 0.223217 0.278065
0.639387 0.253656 0.308580
0.016610 0.125079 0.125079
0.100885 0.155343 0.155343
0.185666 0.185666 0.185666
0.270872 0.216043 0.216043
0.356403 0.246471 0.246471
0.442145 0.276943 0.276943
0.527972 0.307457 0.307457
0.613758 0.338005 0.338005
0.699376 0.368584 0.368584
0.075625 0.239288 0.184550
0.160262 0.269751 0.214925
0.245350 0.300255 0.245350
0.330796 0.330796 0.275822
0.416487 0.361368 0.306333
0.502302 0.391966 0.336881
0.588114 0.422585 0.367459
0.673795 0.453219 0.398062
0.759224 0.483861 0.428684
0.134898 0.354153 0.244230
0.219861 0.384746 0.274700
0.305210 0.415360 0.305210
0.390840 0.445991 0.335757
0.476632 0.476632 0.366334
0.562458 0.507277 0.396936
0.648191 0.537921 0.427557
0.733708 0.568558 0.458193
0.818893 0.599181 0.488836
0.194406 0.469402 0.304087
0.279650 0.500047 0.334632
0.365208 0.530692 0.365208
0.450964 0.561331 0.395809
0.536794 0.591958 0.426430
0.622568 0.622568 0.457065
0.708162 0.653155 0.487709
0.793457 0.683713 0.518354
0.878351 0.714237 0.548996
0.254118 0.584734 0.364083
0.339594 0.615349 0.394683
0.425304 0.645941 0.425304
0.511125 0.676507 0.455938
0.596929 0.707039 0.486581
0.682589 0.737534 0.517227
0.767986 0.767986 0.547869
0.853009 0.798390 0.578502
0.937569 0.828742 0.609120
0.314001 0.699839 0.424177
0.399653 0.730344 0.454811
0.485454 0.760806 0.485454
0.571276 0.791222 0.516099
0.656993 0.821586 0.546742
0.742480 0.851895 0.577375
0.827626 0.882145 0.607994
0.912333 0.912333 0.638593
0.996524 0.942454 0.669165
0.374015 0.814428 0.484326
0.459785 0.844750 0.514972
0.545615 0.875015 0.545615
0.631376 0.905217 0.576249
0.716944 0.935354 0.606868
0.802203 0.965423 0.637467
0.887050 0.995421 0.668041
0.971402 1.000000 0.698583
1.000000 1.000000 0.729089
0.000000 0.000000 0.072439
0.000000 0.000000 0.102594
0.078439 0.000000 0.132812
0.163092 0.000271 0.163092
0.248194 0.030258 0.193429
0.333649 0.060317 0.223820
0.419347 0.090445 0.254259
0.505164 0.120638 0.284743
0.590974 0.150894 0.315266
0.000000 0.023177 0.131700
0.053220 0.053220 0.161977
0.137724 0.083331 0.192312
0.222701 0.113509 0.222701
0.308062 0.143751 0.253138
0.393699 0.174052 0.283621
0.479494 0.204408 0.314142
0.565319 0.234817 0.344698
0.651047 0.265273 0.375283
0.028050 0.136611 0.191195
0.112398 0.166898 0.221582
0.197242 0.197242 0.252018
0.282498 0.227639 0.282498
0.368065 0.258084 0.313019
0.453826 0.288573 0.343573
0.539655 0.319100 0.374157
0.625426 0.349661 0.404765
0.711011 0.380250 0.435390
0.087116 0.250897 0.250897
0.171820 0.281376 0.281376
0.256963 0.311895 0.311895
0.342449 0.342449 0.342449
0.428164 0.373032 0.373032
0.513986 0.403638 0.403638
0.599788 0.434263 0.434263
0.685442 0.464901 0.464901
0.770827 0.495545 0.495545
0.146438 0.365814 0.310772
0.231459 0.396416 0.341324
0.316853 0.427037 0.371906
0.402512 0.457672 0.402512
0.488316 0.488316 0.433137
0.574137 0.518961 0.463774
0.659848 0.549603 0.494418
0.745325 0.580236 0.525063
0.830458 0.610853 0.555704
0.205987 0.481086 0.370780
0.291281 0.511732 0.401386
0.376873 0.542375 0.432010
0.462647 0.573010 0.462647
0.548476 0.603631 0.493291
0.634233 0.634233 0.523936
0.719793 0.664809 0.554577
0.805039 0.695355 0.585207
0.889871 0.725865 0.615821
0.265736 0.596409 0.430883
0.351250 0.627016 0.461519
0.436982 0.657599 0.492163
0.522809 0.688152 0.522809
0.608601 0.718671 0.553450
0.694232 0.749150 0.584080
0.779584 0.779584 0.614695
0.864549 0.809968 0.645288
0.949040 0.840299 0.675854
0.325647 0.711474 0.491036
0.411327 0.741963 0.521681
0.497138 0.772408 0.552322
0.582954 0.802805 0.582954
0.668646 0.833149 0.613569
0.754093 0.863436 0.644163
0.839185 0.893663 0.674730
0.923825 0.923825 0.705265
1.000000 0.953920 0.735762
0.385683 0.825995 0.551195
0.471468 0.856296 0.581827
0.557296 0.886537 0.612443
0.643038 0.916715 0.643038
0.728571 0.946827 0.673606
0.813779 0.976869 0.704142
0.898563 1.000000 0.734641
0.982843 1.000000 0.765097
1.000000 1.000000 0.795506
0.000000 0.000000 0.138323
0.005727 0.000000 0.168614
0.089933 0.000000 0.198961
0.174652 0.011696 0.229361
0.259808 0.041711 0.259808
0.345304 0.071796 0.290300
0.431025 0.101949 0.320829
0.516848 0.132166 0.351392
0.602647 0.162445 0.381982
0.000000 0.034623 0.197844
0.064692 0.064692 0.228241
0.149265 0.094830 0.258687
0.234300 0.125032 0.289177
0.319705 0.155297 0.319705
0.405371 0.185619 0.350267
0.491178 0.215996 0.380856
0.576997 0.246424 0.411468
0.662702 0.276896 0.442097
0.039500 0.148151 0.257567
0.123920 0.178461 0.288055
0.208825 0.208825 0.318582
0.294130 0.239241 0.349142
0.379731 0.269704 0.379731
0.465508 0.300208 0.410342
0.551337 0.330748 0.440970
0.637090 0.361321 0.471610
0.722641 0.391919 0.502255
0.098618 0.262513 0.317458
0.183386 0.293008 0.348017
0.268582 0.323540 0.378605
0.354106 0.354106 0.409215
0.439843 0.384698 0.439843
0.525670 0.415313 0.470482
0.611459 0.445944 0.501127
0.697083 0.476584 0.531772
0.782423 0.507230 0.562411
0.157986 0.377479 0.377479
0.243063 0.408089 0.408089
0.328500 0.438716 0.438716
0.414186 0.469355 0.469355
0.500000 0.500000 0.500000
0.585814 0.530645 0.530645
0.671500 0.561284 0.561284
0.756937 0.591911 0.591911
0.842014 0.622521 0.622521
0.217577 0.492770 0.437589
0.302917 0.523416 0.468228
0.388541 0.554056 0.498873
0.474330 0.584687 0.529518
0.560157 0.615302 0.560157
0.645894 0.645894 0.590785
0.731418 0.676460 0.621395
0.816614 0.706992 0.651983
0.901382 0.737487 0.682542
0.277359 0.608081 0.497745
0.362910 0.638679 0.528390
0.448663 0.669252 0.559030
0.534492 0.699792 0.589658
0.620269 0.730296 0.620269
0.705870 0.760759 0.650858
0.791175 0.791175 0.681418
0.876080 0.821539 0.711945
0.960500 0.851849 0.742433
0.337298 0.723104 0.557903
0.423003 0.753576 0.588532
0.508822 0.784004 0.619144
0.594629 0.814381 0.649733
0.680295 0.844703 0.680295
0.765700 0.874968 0.710823
0.850735 0.905170 0.741313
0.935308 0.935308 0.771759
1.000000 0.965377 0.802156
0.397353 0.837555 0.618018
0.483152 0.867834 0.648608
0.568975 0.898051 0.679171
0.654696 0.928204 0.709700
0.740192 0.958289 0.740192
0.825348 0.988304 0.770639
0.910067 1.000000 0.801039
0.994273 1.000000 0.831386
1.000000 1.000000 0.861677
0.000000 0.000000 0.204494
0.017157 0.000000 0.234903
0.101437 0.000000 0.265359
0.186221 0.023131 0.295858
0.271429 0.053173 0.326394
0.356962 0.083285 0.356962
0.442704 0.113463 0.387557
0.528532 0.143704 0.418173
0.614317 0.174005 0.448805
0.000000 0.046080 0.264238
0.076175 0.076175 0.294735
0.160815 0.106337 0.325270
0.245907 0.136564 0.355837
0.331354 0.166851 0.386431
0.417046 0.197195 0.417046
0.502862 0.227592 0.447678
0.588673 0.258037 0.478319
0.674353 0.288526 0.508964
0.050960 0.159701 0.324146
0.135451 0.190032 0.354712
0.220416 0.220416 0.385305
0.305768 0.250850 0.415920
0.391399 0.281329 0.446550
0.477191 0.311848 0.477191
0.563018 0.342401 0.507837
0.648750 0.372984 0.538481
0.734264 0.403591 0.569117
0.110129 0.274135 0.384179
0.194961 0.304645 0.414793
0.280207 0.335191 0.445423
0.365767 0.365767 0.476064
0.451524 0.396369 0.506709
0.537353 0.426990 0.537353
0.623127 0.457625 0.567990
0.708719 0.488268 0.598614
0.794013 0.518914 0.629220
0.169542 0.389147 0.444296
0.254675 0.419764 0.474937
0.340152 0.450397 0.505582
0.425863 0.481039 0.536226
0.511684 0.511684 0.566863
0.597488 0.542328 0.597488
0.683147 0.572963 0.628094
0.768541 0.603584 0.658676
0.853562 0.634186 0.689228
0.229173 0.504455 0.504455
0.314558 0.535099 0.535099
0.400212 0.565737 0.565737
0.486014 0.596362 0.596362
0.571836 0.626968 0.626968
0.657551 0.657551 0.657551
0.743037 0.688105 0.688105
0.828180 0.718624 0.718624
0.912884 0.749103 0.749103
0.288989 0.619750 0.564610
0.374574 0.650339 0.595235
0.460345 0.680900 0.625843
0.546174 0.711427 0.656427
0.631935 0.741916 0.686981
0.717502 0.772361 0.717502
0.802758 0.802758 0.747982
0.887602 0.833102 0.778418
0.971950 0.863389 0.808805
0.348953 0.734727 0.624717
0.434681 0.765183 0.655302
0.520506 0.795592 0.685858
0.606301 0.825948 0.716379
0.691938 0.856249 0.746862
0.777299 0.886491 0.777299
0.862276 0.916669 0.807688
0.946780 0.946780 0.838023
1.000000 0.976823 0.868300
0.409026 0.849106 0.684734
0.494836 0.879362 0.715257
0.580653 0.909555 0.745741
0.666351 0.939683 0.776180
0.751806 0.969742 0.806571
0.836908 0.999729 0.836908
0.921561 1.000000 0.867188
1.000000 1.000000 0.897406
1.000000 1.000000 0.927561
0.000000 0.000000 0.270911
0.028598 0.000000 0.301417
0.112950 0.004579 0.331959
0.197797 0.034577 0.362533
0.283056 0.064646 0.393132
0.368624 0.094783 0.423751
0.454385 0.124985 0.454385
0.540215 0.155250 0.485028
0.625985 0.185572 0.515674
0.003476 0.057546 0.330835
0.087667 0.087667 0.361407
0.172374 0.117855 0.392006
0.257520 0.148105 0.422625
0.343007 0.178414 0.453258
0.428724 0.208778 0.483901
0.514546 0.239194 0.514546
0.600347 0.269656 0.545189
0.685999 0.300161 0.575823
0.062431 0.171258 0.390880
0.146991 0.201610 0.421498
0.232014 0.232014 0.452131
0.317411 0.262466 0.482773
0.403071 0.292961 0.513419
0.488875 0.323493 0.544062
0.574696 0.354059 0.574696
0.660406 0.384651 0.605317
0.745882 0.415266 0.635917
0.121649 0.285763 0.451004
0.206543 0.316287 0.481646
0.291838 0.346845 0.512291
0.377432 0.377432 0.542935
0.463206 0.408042 0.573570
0.549036 0.438669 0.604191
0.634792 0.469308 0.634792
0.720350 0.499953 0.665368
0.805594 0.530598 0.695913
0.181107 0.400819 0.511164
0.266292 0.431442 0.541807
0.351809 0.462079 0.572443
0.437542 0.492723 0.603064
0.523368 0.523368 0.633666
0.609160 0.554009 0.664243
0.694790 0.584640 0.694790
0.780139 0.615254 0.725300
0.865102 0.645847 0.755770
0.240776 0.516139 0.571316
0.326205 0.546781 0.601938
0.411886 0.577415 0.632541
0.497698 0.608034 0.663119
0.583513 0.638632 0.693667
0.669204 0.669204 0.724178
0.754650 0.699745 0.754650
0.839738 0.730249 0.785075
0.924375 0.760712 0.815450
0.300624 0.631416 0.631416
0.386242 0.661995 0.661995
0.472028 0.692543 0.692543
0.557855 0.723057 0.723057
0.643597 0.753529 0.753529
0.729128 0.783957 0.783957
0.814334 0.814334 0.814334
0.899115 0.844657 0.844657
0.983390 0.874921 0.874921
0.360613 0.746344 0.691420
0.446361 0.776783 0.721935
0.532190 0.807172 0.752409
0.617971 0.837508 0.782838
0.703577 0.867787 0.813217
0.788891 0.898004 0.843542
0.873809 0.928157 0.873809
0.958243 0.958243 0.904014
1.000000 0.988258 0.934154
0.420702 0.860649 0.751289
0.506520 0.890881 0.781719
0.592329 0.921050 0.812100
0.678000 0.951151 0.842428
0.763413 0.981184 0.872696
0.848460 1.000000 0.902904
0.933046 1.000000 0.933046
1.000000 1.000000 0.963120
1.000000 1.000000 0.993124
0.000000 0.000000 0.337526
0.040049 0.000000 0.368104
0.124472 0.016008 0.398708
0.209381 0.046033 0.429330
0.294688 0.076128 0.459966
0.380290 0.106291 0.490610
0.466068 0.136517 0.521255
0.551897 0.166804 0.551897
0.637648 0.197148 0.582528
0.014904 0.069022 0.397581
0.099169 0.099169 0.428203
0.183941 0.129381 0.458839
0.269139 0.159654 0.489483
0.354664 0.189985 0.520128
0.440403 0.220369 0.550770
0.526230 0.250803 0.581402
0.612018 0.281282 0.612018
0.697641 0.311801 0.642613
0.073912 0.182824 0.457712
0.158539 0.213197 0.488355
0.243619 0.243619 0.519001
0.329058 0.274088 0.549643
0.414746 0.304598 0.580275
0.500560 0.335143 0.610892
0.586373 0.365720 0.641488
0.672058 0.396321 0.672058
0.757493 0.426943 0.702596
0.133178 0.297397 0.517873
0.218132 0.327934 0.548515
0.303475 0.358504 0.579148
0.389100 0.389100 0.609766
0.474889 0.419717 0.640363
0.560716 0.450350 0.670934
0.646453 0.480991 0.701473
0.731975 0.511637 0.731975
0.817168 0.542280 0.762435
0.192679 0.412493 0.578022
0.277916 0.443122 0.608640
0.363469 0.473762 0.639238
0.449222 0.504407 0.669810
0.535052 0.535052 0.700350
0.620828 0.565689 0.730853
0.706427 0.596314 0.761315
0.791730 0.626921 0.791730
0.876632 0.657504 0.822093
0.252386 0.527823 0.638113
0.337856 0.558462 0.668685
0.423562 0.589091 0.699227
0.509382 0.619703 0.729732
0.595188 0.650292 0.760195
0.680853 0.680853 0.790612
0.766256 0.711380 0.820977
0.851288 0.741869 0.851288
0.935857 0.772314 0.881539
0.312264 0.643078 0.698104
0.397912 0.673646 0.728610
0.483711 0.704182 0.759075
0.569535 0.734680 0.789494
0.655255 0.765136 0.819861
0.740748 0.795545 0.850174
0.825902 0.825902 0.880427
0.910618 0.856203 0.910618
0.994820 0.886444 0.940743
0.372276 0.757955 0.757955
0.458043 0.788375 0.788375
0.543873 0.818745 0.818745
0.629637 0.849060 0.849060
0.715210 0.879315 0.879315
0.800476 0.909509 0.909509
0.885333 0.939636 0.939636
0.969695 0.969695 0.969695
1.000000 0.999683 0.999683
0.432380 0.872183 0.817629
0.518204 0.902391 0.847945
0.604002 0.932535 0.878203
0.689645 0.962610 0.908399
0.775014 0.992615 0.938529
0.860003 1.000000 0.968591
0.944521 1.000000 0.998581
1.000000 1.000000 1.000000
1.000000 1.000000 1.000000
0.000000 0.000000 0.404284
0.051510 0.000000 0.434910
0.136003 0.027447 0.465548
0.220972 0.057500 0.496192
0.306326 0.087621 0.526837
0.391959 0.117808 0.557477
0.477751 0.148058 0.588106
0.563577 0.178367 0.618719
0.649308 0.208732 0.649308
0.026343 0.080509 0.464420
0.110681 0.110681 0.495065
0.195515 0.140916 0.525710
0.280764 0.171212 0.556350
0.366326 0.201563 0.586980
0.452084 0.231967 0.617593
0.537913 0.262419 0.648184
0.623686 0.292914 0.678747
0.709277 0.323446 0.709277
0.085402 0.194398 0.524582
0.170096 0.224790 0.555223
0.255231 0.255231 0.585853
0.340711 0.285716 0.616467
0.426423 0.316240 0.647059
0.512244 0.346798 0.677623
0.598047 0.377385 0.708154
0.683705 0.407994 0.738647
0.769097 0.438622 0.769097
0.144716 0.309036 0.584726
0.229729 0.339586 0.615341
0.315116 0.370166 0.645934
0.400771 0.400771 0.676499
0.486573 0.431395 0.707031
0.572395 0.462032 0.737526
0.658110 0.492676 0.767978
0.743593 0.523321 0.798382
0.828734 0.553962 0.828734
0.204260 0.424169 0.644809
0.289546 0.454803 0.675375
0.375133 0.485446 0.705909
0.460904 0.516091 0.736405
0.546734 0.546734 0.766858
0.632494 0.577368 0.797264
0.718059 0.607986 0.827618
0.803313 0.638585 0.857916
0.888154 0.669157 0.888154
0.264003 0.539506 0.704786
0.349512 0.570142 0.735284
0.435241 0.600765 0.765739
0.521066 0.631368 0.796147
0.606860 0.661947 0.826502
0.692496 0.692496 0.856802
0.777855 0.723010 0.887043
0.862829 0.753482 0.917219
0.947330 0.783910 0.947330
0.323910 0.654736 0.764619
0.409586 0.685292 0.795029
0.495396 0.715814 0.825387
0.581213 0.746297 0.855689
0.666909 0.776736 0.885931
0.752362 0.807125 0.916110
0.837461 0.837461 0.946223
0.922112 0.867740 0.976267
1.000000 0.897958 1.000000
0.383943 0.769559 0.824271
0.469726 0.799961 0.854575
0.555554 0.830310 0.884820
0.641299 0.860602 0.915001
0.726838 0.890835 0.945116
0.812054 0.921003 0.975163
0.896847 0.951105 1.000000
0.981137 0.981137 1.000000
1.000000 1.000000 1.000000
0.444060 0.883708 0.883708
0.529888 0.913892 0.913892
0.615672 0.944010 0.944010
0.701284 0.974059 0.974059
0.786608 1.000000 1.000000
0.871537 1.000000 1.000000
0.955985 1.000000 1.000000
1.000000 1.000000 1.000000
1.000000 1.000000 1.000000
