lut/noir-tuong-phan.cube
# noir-tuong-phan — LUT tự sinh của Xưởng Video
LUT_3D_SIZE 25
0.000000 0.000000 0.000000
0.000000 0.000000 0.000000
0.000000 0.000000 0.000000
0.000000 0.000000 0.000000
0.000000 0.000000 0.000000
0.015985 0.000000 0.000000
0.044015 0.000000 0.000000
0.072106 0.000000 0.000000
0.100256 0.000000 0.000000
0.128463 0.000000 0.000000
0.156723 0.000000 0.000000
0.185034 0.000000 0.000000
0.213392 0.000000 0.000000
0.241794 0.005948 0.005948
0.270237 0.015941 0.015941
0.298716 0.025941 0.025941
0.327227 0.035950 0.035950
0.355766 0.045966 0.045966
0.384328 0.055990 0.055990
0.412910 0.066022 0.066022
0.441506 0.076061 0.076061
0.470112 0.086108 0.086108
0.498723 0.096162 0.096162
0.527334 0.106223 0.106223
0.555940 0.116292 0.116292
0.000000 0.000000 0.000000
0.000000 0.000000 0.000000
0.000000 0.000000 0.000000
0.000000 0.000000 0.000000
0.007614 0.000000 0.000000
0.035625 0.000000 0.000000
0.063699 0.000000 0.000000
0.091831 0.000000 0.000000
0.120021 0.000000 0.000000
0.148266 0.003592 0.000000
0.176562 0.013583 0.000000
0.204906 0.023581 0.005581
0.233296 0.033588 0.015573
0.261726 0.043602 0.025573
0.290195 0.053625 0.035582
0.318697 0.063655 0.045598
0.347228 0.073692 0.055621
0.375784 0.083737 0.065653
0.404360 0.093790 0.075692
0.432953 0.103849 0.085738
0.461556 0.113916 0.095792
0.490166 0.123990 0.105853
0.518777 0.134071 0.115921
0.547386 0.144158 0.125997
0.575986 0.154252 0.136079
0.000000 0.000000 0.000000
0.000000 0.000000 0.000000
0.000000 0.000000 0.000000
0.000000 0.000000 0.000000
0.027241 0.000000 0.000000
0.055296 0.001236 0.000000
0.083411 0.011225 0.000000
0.111585 0.021222 0.000000
0.139813 0.031227 0.000000
0.168094 0.041239 0.005213
0.196424 0.051260 0.015205
0.224801 0.061288 0.025205
0.253219 0.071323 0.035213
0.281677 0.081367 0.045229
0.310169 0.091417 0.055252
0.338692 0.101475 0.065284
0.367241 0.111540 0.075322
0.395812 0.121613 0.085369
0.424400 0.131692 0.095422
0.453001 0.141778 0.105483
0.481609 0.151870 0.115551
0.510220 0.161969 0.125626
0.538830 0.172075 0.135708
0.567434 0.182187 0.145796
0.596026 0.192305 0.155891
0.000000 0.000000 0.000000
0.000000 0.000000 0.000000
0.000000 0.008868 0.000000
0.018863 0.018863 0.000000
0.046899 0.028866 0.000000
0.074997 0.038876 0.000000
0.103153 0.048895 0.000000
0.131365 0.058921 0.004846
0.159630 0.068955 0.014838
0.187946 0.078997 0.024837
0.216309 0.089046 0.034845
0.244716 0.099102 0.044860
0.273162 0.109165 0.054884
0.301645 0.119236 0.064914
0.330159 0.129313 0.074953
0.358701 0.139398 0.084999
0.387265 0.149489 0.095052
0.415849 0.159586 0.105113
0.444446 0.169690 0.115180
0.473053 0.179801 0.125255
0.501664 0.189917 0.135337
0.530274 0.200039 0.145425
0.558880 0.210168 0.155520
0.587476 0.220302 0.165621
0.616057 0.230441 0.175729
0.000000 0.026505 0.000000
0.000000 0.036514 0.000000
0.010490 0.046531 0.000000
0.038508 0.056555 0.000000
0.066587 0.066587 0.000000
0.094726 0.076627 0.004479
0.122922 0.086674 0.014470
0.151172 0.096729 0.024469
0.179473 0.106791 0.034477
0.207822 0.116859 0.044492
0.236216 0.126935 0.054515
0.264651 0.137018 0.064545
0.293123 0.147107 0.074583
0.321628 0.157204 0.084629
0.350162 0.167306 0.094682
0.378720 0.177415 0.104742
0.407299 0.187530 0.114810
0.435892 0.197651 0.124884
0.464496 0.207778 0.134966
0.493107 0.217910 0.145054
0.521718 0.228048 0.155148
0.550326 0.238192 0.165250
0.578925 0.248340 0.175357
0.607511 0.258494 0.185471
0.636080 0.268653 0.195591
0.000000 0.064220 0.000000
0.002123 0.074258 0.000000
0.030122 0.084303 0.000000
0.058183 0.094356 0.004111
0.086305 0.104416 0.014102
0.114483 0.114483 0.024101
0.142717 0.124558 0.034108
0.171003 0.134639 0.044123
0.199339 0.144727 0.054146
0.227720 0.154821 0.064176
0.256143 0.164922 0.074214
0.284604 0.175029 0.084259
0.313100 0.185143 0.094312
0.341625 0.195263 0.104372
0.370177 0.205388 0.114439
0.398750 0.215519 0.124514
0.427339 0.225656 0.134595
0.455941 0.235798 0.144682
0.484550 0.245946 0.154777
0.513161 0.256098 0.164878
0.541771 0.266256 0.174985
0.570373 0.276418 0.185099
0.598964 0.286584 0.195218
0.627538 0.296755 0.205344
0.656091 0.306930 0.215475
0.000000 0.102042 0.000000
0.021742 0.112108 0.003744
0.049785 0.122180 0.013734
0.077888 0.132260 0.023733
0.106050 0.142346 0.033740
0.134268 0.152439 0.043755
0.162539 0.162539 0.053777
0.190859 0.172644 0.063807
0.219227 0.182757 0.073845
0.247638 0.192875 0.083890
0.276088 0.202999 0.093942
0.304574 0.213129 0.104002
0.333091 0.223264 0.114069
0.361636 0.233405 0.124143
0.390202 0.243551 0.134224
0.418787 0.253703 0.144311
0.447386 0.263859 0.154405
0.475993 0.274020 0.164506
0.504604 0.284186 0.174613
0.533215 0.294355 0.184727
0.561820 0.304530 0.194846
0.590414 0.314708 0.204971
0.618994 0.324890 0.215102
0.647554 0.335075 0.225239
0.676090 0.345264 0.235381
0.013367 0.139966 0.013367
0.041391 0.150057 0.023365
0.069477 0.160155 0.033372
0.097622 0.170260 0.043386
0.125823 0.180370 0.053408
0.154078 0.190487 0.063438
0.182384 0.200610 0.073475
0.210738 0.210738 0.083520
0.239137 0.220873 0.093572
0.267576 0.231012 0.103632
0.296051 0.241157 0.113698
0.324560 0.251307 0.123772
0.353096 0.261463 0.133853
0.381657 0.271622 0.143940
0.410237 0.281787 0.154034
0.438832 0.291956 0.164135
0.467437 0.302129 0.174241
0.496047 0.312306 0.184354
0.524659 0.322487 0.194474
0.553266 0.332672 0.204599
0.581864 0.342860 0.214729
0.610449 0.353052 0.224866
0.639015 0.363246 0.235008
0.667559 0.373443 0.245155
0.696075 0.383643 0.255307
0.033003 0.177985 0.033003
0.061071 0.188100 0.043017
0.089198 0.198221 0.053039
0.117383 0.208348 0.063069
0.145622 0.218481 0.073106
0.173914 0.228620 0.083150
0.202254 0.238763 0.093202
0.230639 0.248912 0.103262
0.259066 0.259066 0.113328
0.287531 0.269225 0.123401
0.316030 0.279389 0.133482
0.344559 0.289556 0.143569
0.373113 0.299729 0.153663
0.401688 0.309905 0.163763
0.430279 0.320085 0.173869
0.458881 0.330269 0.183982
0.487490 0.340456 0.194101
0.516102 0.350647 0.204226
0.544711 0.360841 0.214357
0.573312 0.371037 0.224493
0.601901 0.381237 0.234634
0.630474 0.391439 0.244781
0.659025 0.401643 0.254933
0.687550 0.411849 0.265090
0.716045 0.422057 0.275252
0.052670 0.216090 0.052670
0.080780 0.226227 0.062700
0.108948 0.236370 0.072736
0.137171 0.246518 0.082781
0.165447 0.256670 0.092832
0.193773 0.266828 0.102891
0.222145 0.276990 0.112957
0.250560 0.287157 0.123031
0.279015 0.297328 0.133111
0.307504 0.307504 0.143198
0.336024 0.317683 0.153291
0.364571 0.327866 0.163391
0.393140 0.338053 0.173498
0.421726 0.348243 0.183610
0.450326 0.358436 0.193729
0.478934 0.368632 0.203853
0.507545 0.378830 0.213984
0.536155 0.389032 0.224120
0.564759 0.399235 0.234261
0.593353 0.409441 0.244408
0.621931 0.419649 0.254560
0.650488 0.429858 0.264716
0.679022 0.440069 0.274878
0.707526 0.450281 0.285044
0.735997 0.460494 0.295214
0.072367 0.254275 0.072367
0.100518 0.264431 0.082411
0.128725 0.274593 0.092462
0.156985 0.284758 0.102521
0.185297 0.294929 0.112587
0.213655 0.305103 0.122660
0.242058 0.315281 0.132740
0.270501 0.325463 0.142826
0.298980 0.335649 0.152920
0.327491 0.345838 0.163019
0.356031 0.356031 0.173126
0.384594 0.366226 0.183238
0.413175 0.376424 0.193356
0.441772 0.386625 0.203481
0.470377 0.396828 0.213611
0.498988 0.407033 0.223747
0.527599 0.417241 0.233888
0.556206 0.427450 0.244034
0.584803 0.437660 0.254186
0.613386 0.447872 0.264342
0.641950 0.458085 0.274504
0.670491 0.468299 0.284669
0.699004 0.478513 0.294840
0.727486 0.488728 0.305014
0.755932 0.498944 0.315192
0.092093 0.292529 0.092093
0.120283 0.302702 0.102151
0.148528 0.312880 0.112217
0.176824 0.323061 0.122289
0.205169 0.333246 0.132369
0.233559 0.343434 0.142455
0.261990 0.353626 0.152548
0.290459 0.363821 0.162648
0.318961 0.374018 0.172754
0.347493 0.384218 0.182866
0.376049 0.394421 0.192984
0.404626 0.404626 0.203108
0.433218 0.414832 0.213238
0.461821 0.425041 0.223374
0.490431 0.435251 0.233515
0.519043 0.445463 0.243661
0.547651 0.455675 0.253812
0.576251 0.465889 0.263969
0.604839 0.476104 0.274130
0.633409 0.486318 0.284295
0.661958 0.496534 0.294465
0.690480 0.506749 0.304640
0.718972 0.516964 0.314818
0.747428 0.527179 0.325000
0.775846 0.537393 0.335185
0.111846 0.330843 0.111846
0.140075 0.341030 0.121919
0.168356 0.351221 0.131998
0.196687 0.361415 0.142084
0.225064 0.371612 0.152177
0.253483 0.381812 0.162276
0.281941 0.392014 0.172382
0.310434 0.402218 0.182494
0.338957 0.412424 0.192612
0.367506 0.422632 0.202736
0.396077 0.432842 0.212865
0.424665 0.443054 0.223001
0.453266 0.453266 0.233142
0.481874 0.463479 0.243288
0.510486 0.473694 0.253439
0.539096 0.483909 0.263595
0.567699 0.494124 0.273756
0.596291 0.504339 0.283921
0.624867 0.514554 0.294091
0.653422 0.524769 0.304265
0.681953 0.534983 0.314443
0.710454 0.545197 0.324625
0.738922 0.555410 0.334811
0.767352 0.565621 0.344999
0.795740 0.575831 0.355191
0.131627 0.369206 0.131627
0.159893 0.379405 0.141713
0.188209 0.389607 0.151805
0.216573 0.399810 0.161904
0.244980 0.410016 0.172010
0.273426 0.420224 0.182122
0.301909 0.430434 0.192239
0.330424 0.440644 0.202363
0.358965 0.450857 0.212493
0.387530 0.461070 0.222628
0.416114 0.471284 0.232768
0.444711 0.481499 0.242914
0.473318 0.491714 0.253065
0.501929 0.501929 0.263221
0.530540 0.512144 0.273382
0.559145 0.522359 0.283547
0.587741 0.532574 0.293717
0.616322 0.542787 0.303891
0.644885 0.553000 0.314069
0.673423 0.563212 0.324250
0.701933 0.573422 0.334436
0.730411 0.583631 0.344624
0.758853 0.593838 0.354816
0.787254 0.604044 0.365011
0.815612 0.614246 0.375209
0.151434 0.407608 0.151434
0.179736 0.417816 0.161533
0.208085 0.428025 0.171638
0.236480 0.438235 0.181749
0.264915 0.448447 0.191867
0.293387 0.458660 0.201991
0.321893 0.468874 0.212120
0.350427 0.479089 0.222255
0.378985 0.489304 0.232395
0.407564 0.499519 0.242541
0.436157 0.509734 0.252692
0.464762 0.519949 0.262848
0.493372 0.530164 0.273008
0.521983 0.540378 0.283173
0.550591 0.550591 0.293343
0.579190 0.560803 0.303516
0.607776 0.571014 0.313694
0.636345 0.581223 0.323876
0.664891 0.591431 0.334061
0.693410 0.601636 0.344250
0.721898 0.611840 0.354441
0.750351 0.622041 0.364636
0.778765 0.632239 0.374834
0.807136 0.642435 0.385034
0.835460 0.652628 0.395237
0.171266 0.446038 0.171266
0.199602 0.456251 0.181377
0.227983 0.466465 0.191495
0.256407 0.476679 0.201618
0.284868 0.486894 0.211747
0.313364 0.497109 0.221882
0.341890 0.507324 0.232022
0.370442 0.517539 0.242168
0.399015 0.527754 0.252318
0.427605 0.537968 0.262474
0.456206 0.548182 0.272634
0.484815 0.558394 0.282799
0.513427 0.568605 0.292969
0.542036 0.578815 0.303142
0.570638 0.589023 0.313320
0.599229 0.599229 0.323501
0.627803 0.609433 0.333686
0.656356 0.619634 0.343875
0.684884 0.629834 0.354066
0.713382 0.640030 0.364261
0.741846 0.650224 0.374459
0.770271 0.660414 0.384659
0.798655 0.670601 0.394862
0.826994 0.680785 0.405067
0.855284 0.690964 0.415274
0.191122 0.484484 0.191122
0.219490 0.494699 0.201246
0.247902 0.504914 0.211374
0.276352 0.515130 0.221509
0.304839 0.525344 0.231649
0.333356 0.535559 0.241794
0.361900 0.545772 0.251945
0.390468 0.555985 0.262100
0.419053 0.566196 0.272260
0.447651 0.576406 0.282425
0.476259 0.586615 0.292594
0.504870 0.596821 0.302768
0.533480 0.607026 0.312945
0.562085 0.617228 0.323126
0.590680 0.627428 0.333311
0.619259 0.637625 0.343500
0.647819 0.647819 0.353691
0.676355 0.658010 0.363886
0.704862 0.668198 0.374084
0.733337 0.678382 0.384284
0.761774 0.688563 0.394486
0.790171 0.698740 0.404691
0.818524 0.708913 0.414898
0.846828 0.719081 0.425107
0.875082 0.729246 0.435317
0.211002 0.522935 0.211002
0.239400 0.533149 0.221136
0.267840 0.543363 0.231276
0.296316 0.553576 0.241421
0.324824 0.563787 0.251571
0.353361 0.573998 0.261726
0.381922 0.584206 0.271886
0.410502 0.594413 0.282051
0.439097 0.604618 0.292220
0.467702 0.614821 0.302393
0.496313 0.625022 0.312571
0.524924 0.635219 0.322752
0.553531 0.645414 0.332937
0.582129 0.655606 0.343125
0.610714 0.665795 0.353316
0.639280 0.675980 0.363511
0.667823 0.686162 0.373708
0.696340 0.696340 0.383909
0.724824 0.706513 0.394111
0.753273 0.716683 0.404316
0.781683 0.726848 0.414522
0.810049 0.737009 0.424731
0.838368 0.747165 0.434941
0.866638 0.757315 0.445153
0.894854 0.767461 0.455365
0.230903 0.561378 0.230903
0.259330 0.571589 0.241048
0.287796 0.581798 0.251198
0.316295 0.592006 0.261353
0.344824 0.602211 0.271513
0.373378 0.612414 0.281677
0.401953 0.622615 0.291846
0.430544 0.632814 0.302019
0.459146 0.643009 0.312196
0.487756 0.653202 0.322377
0.516367 0.663392 0.332562
0.544976 0.673578 0.342750
0.573577 0.683760 0.352941
0.602166 0.693939 0.363136
0.630739 0.704114 0.373333
0.659289 0.714284 0.383533
0.687814 0.724450 0.393736
0.716309 0.734612 0.403940
0.744769 0.744769 0.414147
0.773191 0.754921 0.424355
0.801570 0.765068 0.434566
0.829904 0.775210 0.444777
0.858189 0.785346 0.454990
0.886421 0.795477 0.465203
0.914598 0.805602 0.475418
0.250824 0.599804 0.250824
0.279279 0.610008 0.260979
0.307768 0.620209 0.271139
0.336289 0.630408 0.281303
0.364836 0.640604 0.291472
0.393405 0.650798 0.301645
0.421992 0.660988 0.311822
0.450591 0.671175 0.322003
0.479199 0.681358 0.332187
0.507811 0.691538 0.342375
0.536421 0.701714 0.352566
0.565025 0.711885 0.362761
0.593618 0.722052 0.372958
0.622196 0.732215 0.383158
0.650753 0.742373 0.393360
0.679286 0.752527 0.403565
0.707790 0.762675 0.413771
0.736261 0.772818 0.423980
0.764695 0.782955 0.434190
0.793087 0.793087 0.444401
0.821435 0.803214 0.454614
0.849735 0.813334 0.464828
0.877983 0.823449 0.475042
0.906177 0.833557 0.485257
0.934314 0.843659 0.495472
0.270765 0.638199 0.270765
0.299244 0.648393 0.280929
0.327756 0.658584 0.291098
0.356296 0.668772 0.301270
0.384859 0.678956 0.311447
0.413441 0.689137 0.321628
0.442037 0.699313 0.331812
0.470643 0.709486 0.342000
0.499254 0.719654 0.352191
0.527865 0.729818 0.362386
0.556471 0.739977 0.372583
0.585068 0.750132 0.382783
0.613651 0.760281 0.392985
0.642215 0.770425 0.403189
0.670756 0.780564 0.413396
0.699269 0.790698 0.423604
0.727750 0.800825 0.433814
0.756195 0.810947 0.444026
0.784601 0.821063 0.454238
0.812962 0.831173 0.464452
0.841276 0.841276 0.474666
0.869540 0.851373 0.484881
0.897751 0.861464 0.495096
0.925905 0.871548 0.505311
0.954000 0.881625 0.515526
0.290723 0.676554 0.290723
0.319226 0.686735 0.300896
0.347758 0.696913 0.311073
0.376314 0.707086 0.321253
0.404891 0.717256 0.331438
0.433483 0.727421 0.341625
0.462087 0.737581 0.351816
0.490697 0.747737 0.362011
0.519308 0.757887 0.372208
0.547916 0.768033 0.382407
0.576517 0.778173 0.392610
0.605104 0.788308 0.402814
0.633674 0.798437 0.413020
0.662223 0.808560 0.423229
0.690744 0.818677 0.433439
0.719236 0.828788 0.443650
0.747692 0.838893 0.453862
0.776110 0.848992 0.464076
0.804485 0.859084 0.474290
0.832814 0.869169 0.484505
0.861093 0.879248 0.494720
0.889319 0.889319 0.504935
0.917491 0.899384 0.515151
0.945604 0.909441 0.525365
0.973657 0.919491 0.535580
0.310698 0.714857 0.310698
0.339222 0.725023 0.320879
0.367771 0.735184 0.331063
0.396342 0.745341 0.341251
0.424931 0.755493 0.351442
0.453531 0.765640 0.361636
0.482140 0.775781 0.371832
0.510751 0.785917 0.382032
0.539361 0.796048 0.392234
0.567964 0.806172 0.402438
0.596556 0.816291 0.412645
0.625132 0.826404 0.422853
0.653687 0.836510 0.433063
0.682217 0.846610 0.443274
0.710718 0.856704 0.453487
0.739186 0.866791 0.463700
0.767615 0.876871 0.473914
0.796003 0.886944 0.484129
0.824346 0.897010 0.494344
0.852641 0.907069 0.504560
0.880883 0.917121 0.514775
0.909071 0.927165 0.524990
0.937202 0.937202 0.535204
0.965274 0.947232 0.545418
0.993283 0.957253 0.555630
0.330688 0.753098 0.330688
0.359230 0.763246 0.340876
0.387796 0.773389 0.351067
0.416379 0.783526 0.361260
0.444977 0.793658 0.371457
0.473583 0.803784 0.381657
0.502194 0.813904 0.391859
0.530805 0.824018 0.402063
0.559411 0.834126 0.412269
0.588006 0.844228 0.422478
0.616588 0.854323 0.432687
0.645149 0.864412 0.442899
0.673688 0.874493 0.453111
0.702198 0.884568 0.463324
0.730676 0.894636 0.473539
0.759117 0.904697 0.483753
0.787518 0.914750 0.493969
0.815875 0.924797 0.504184
0.844184 0.934835 0.514399
0.872442 0.944866 0.524614
0.900647 0.954890 0.534828
0.928795 0.964905 0.545042
0.956885 0.974913 0.555254
0.984913 0.984913 0.565466
1.000000 0.994905 0.575676
0.350692 0.791268 0.350692
0.379250 0.801396 0.360885
0.407829 0.811517 0.371082
0.436423 0.821633 0.381281
0.465027 0.831742 0.391483
0.493637 0.841845 0.401688
0.522249 0.851942 0.411894
0.550856 0.862032 0.422102
0.579456 0.872116 0.432312
0.608041 0.882192 0.442523
0.636610 0.892262 0.452735
0.665155 0.902324 0.462949
0.693674 0.912379 0.473163
0.722162 0.922427 0.483378
0.750615 0.932468 0.493593
0.779028 0.942500 0.503808
0.807399 0.952526 0.514023
0.835723 0.962543 0.524238
0.863997 0.972553 0.534452
0.892218 0.982555 0.544666
0.920383 0.992548 0.554879
0.948490 1.000000 0.565090
0.976537 1.000000 0.575300
1.000000 1.000000 0.585509
1.000000 1.000000 0.595716
0.000000 0.000000 0.000000
0.000000 0.000000 0.000000
0.000000 0.000000 0.000000
0.000000 0.000000 0.000000
0.000000 0.000000 0.000000
0.019797 0.000000 0.000000
0.047835 0.000000 0.000000
0.075935 0.000000 0.000000
0.104093 0.000000 0.000000
0.132307 0.000000 0.000000
0.160574 0.000000 0.000000
0.188891 0.000000 0.007768
0.217256 0.000000 0.017762
0.245664 0.009757 0.027764
0.274111 0.019753 0.037774
0.302595 0.029756 0.047791
0.331110 0.039768 0.057817
0.359653 0.049787 0.067850
0.388218 0.059814 0.077891
0.416802 0.069849 0.087939
0.445400 0.079891 0.097994
0.474006 0.089940 0.108057
0.502618 0.099997 0.118127
0.531228 0.110061 0.128203
0.559834 0.120133 0.138287
0.000000 0.000000 0.000000
0.000000 0.000000 0.000000
0.000000 0.000000 0.000000
0.000000 0.000000 0.000000
0.011423 0.000000 0.000000
0.039443 0.000000 0.000000
0.067525 0.000000 0.000000
0.095665 0.000000 0.000000
0.123863 0.000000 0.000000
0.152114 0.007400 0.007400
0.180417 0.017394 0.017394
0.208768 0.027396 0.027396
0.237163 0.037405 0.037405
0.265600 0.047423 0.047423
0.294073 0.057448 0.057448
0.322579 0.067481 0.067481
0.351114 0.077521 0.077521
0.379673 0.087569 0.087569
0.408252 0.097624 0.097624
0.436846 0.107687 0.107687
0.465450 0.117756 0.117756
0.494061 0.127833 0.127833
0.522672 0.137916 0.137916
0.551279 0.148006 0.148006
0.579878 0.158103 0.158103
0.000000 0.000000 0.000000
0.000000 0.000000 0.000000
0.000000 0.000000 0.000000
0.003055 0.000000 0.000000
0.031057 0.000000 0.000000
0.059120 0.005044 0.000000
0.087243 0.015036 0.000000
0.115424 0.025035 0.007033
0.143660 0.035043 0.017026
0.171947 0.045059 0.027028
0.200284 0.055082 0.037037
0.228667 0.065113 0.047054
0.257091 0.075152 0.057079
0.285554 0.085198 0.067112
0.314050 0.095251 0.077152
0.342577 0.105312 0.087199
0.371129 0.115380 0.097254
0.399703 0.125455 0.107316
0.428293 0.135536 0.117385
0.456895 0.145625 0.127462
0.485504 0.155720 0.137545
0.514115 0.165822 0.147635
0.542724 0.175929 0.157731
0.571326 0.186044 0.167834
0.599917 0.196164 0.177943
0.000000 0.000000 0.000000
0.000000 0.002688 0.000000
0.000000 0.012678 0.000000
0.022676 0.022676 0.000000
0.050721 0.032681 0.000000
0.078826 0.042695 0.006665
0.106990 0.052717 0.016658
0.135210 0.062746 0.026659
0.163482 0.072783 0.036669
0.191805 0.082827 0.046685
0.220174 0.092879 0.056710
0.248586 0.102938 0.066742
0.277038 0.113004 0.076782
0.305524 0.123077 0.086829
0.334043 0.133157 0.096884
0.362588 0.143244 0.106946
0.391155 0.153338 0.117015
0.419741 0.163438 0.127091
0.448340 0.173544 0.137174
0.476947 0.183657 0.147263
0.505558 0.193776 0.157359
0.534169 0.203900 0.167462
0.562773 0.214031 0.177571
0.591368 0.224167 0.187686
0.619947 0.234308 0.197807
0.000000 0.030320 0.000000
0.000000 0.040332 0.000000
0.014300 0.050352 0.000000
0.042327 0.060379 0.006298
0.070414 0.070414 0.016291
0.098561 0.080457 0.026291
0.126764 0.090507 0.036300
0.155021 0.100564 0.046317
0.183329 0.110629 0.056341
0.211685 0.120700 0.066373
0.240084 0.130779 0.076413
0.268525 0.140864 0.086460
0.297001 0.150956 0.096514
0.325511 0.161055 0.106576
0.354048 0.171160 0.116644
0.382609 0.181271 0.126720
0.411190 0.191388 0.136803
0.439785 0.201511 0.146892
0.468391 0.211640 0.156988
0.497001 0.221775 0.167090
0.525613 0.231915 0.177199
0.554219 0.242061 0.187314
0.582817 0.252211 0.197435
0.611401 0.262367 0.207561
0.639967 0.272527 0.217694
0.000000 0.068046 0.000000
0.005930 0.078087 0.005930
0.033938 0.088135 0.015923
0.062008 0.098191 0.025923
0.090137 0.108254 0.035932
0.118324 0.118324 0.045948
0.146565 0.128400 0.055972
0.174858 0.138484 0.066004
0.203199 0.148575 0.076043
0.231586 0.158672 0.086090
0.260015 0.168775 0.096144
0.288481 0.178885 0.106205
0.316981 0.189001 0.116274
0.345511 0.199123 0.126349
0.374065 0.209250 0.136432
0.402641 0.219384 0.146521
0.431232 0.229522 0.156616
0.459835 0.239667 0.166718
0.488444 0.249816 0.176827
0.517056 0.259970 0.186942
0.545665 0.270130 0.197062
0.574266 0.280293 0.207189
0.602854 0.290462 0.217321
0.631426 0.300634 0.227459
0.659976 0.310811 0.237602
0.000000 0.105879 0.015555
0.025555 0.115947 0.025555
0.053607 0.126023 0.035563
0.081718 0.136105 0.045579
0.109888 0.146194 0.055603
0.138113 0.156289 0.065635
0.166391 0.166391 0.075674
0.194718 0.176499 0.085720
0.223092 0.186614 0.095774
0.251509 0.196734 0.105835
0.279964 0.206860 0.115903
0.308454 0.216992 0.125978
0.336975 0.227130 0.136061
0.365523 0.237273 0.146149
0.394093 0.247421 0.156245
0.422680 0.257574 0.166347
0.451280 0.267733 0.176455
0.479888 0.277895 0.186569
0.508499 0.288063 0.196690
0.537109 0.298234 0.206816
0.565713 0.308410 0.216948
0.594306 0.318589 0.227086
0.622883 0.328773 0.237229
0.651440 0.338960 0.247377
0.679973 0.349150 0.257530
0.017178 0.143813 0.035195
0.045211 0.153907 0.045211
0.073305 0.164007 0.055234
0.101457 0.174114 0.065266
0.129666 0.184227 0.075304
0.157928 0.194346 0.085350
0.186241 0.204471 0.095404
0.214602 0.214602 0.105465
0.243006 0.224738 0.115533
0.271450 0.234880 0.125608
0.299930 0.245027 0.135690
0.328443 0.255179 0.145778
0.356983 0.265336 0.155873
0.385546 0.275497 0.165975
0.414129 0.285664 0.176083
0.442725 0.295834 0.186197
0.471331 0.306009 0.196317
0.499942 0.316188 0.206443
0.528553 0.326370 0.216575
0.557159 0.336556 0.226713
0.585756 0.346745 0.236855
0.614338 0.356938 0.247003
0.642902 0.367134 0.257156
0.671442 0.377332 0.267314
0.699955 0.387533 0.277477
0.036821 0.181841 0.054865
0.064896 0.191958 0.064896
0.093032 0.202082 0.074935
0.121224 0.212211 0.084981
0.149471 0.222346 0.095034
0.177769 0.232487 0.105095
0.206115 0.242632 0.115162
0.234506 0.252783 0.125237
0.262939 0.262939 0.135318
0.291409 0.273100 0.145407
0.319912 0.283265 0.155502
0.348444 0.293434 0.165603
0.377001 0.303608 0.175711
0.405579 0.313786 0.185825
0.434172 0.323967 0.195945
0.462775 0.334153 0.206071
0.491385 0.344341 0.216202
0.519997 0.354533 0.226340
0.548605 0.364728 0.236482
0.577205 0.374926 0.246630
0.605792 0.385126 0.256783
0.634362 0.395329 0.266941
0.662909 0.405534 0.277103
0.691431 0.415741 0.287270
0.719921 0.425950 0.297441
0.056493 0.219955 0.074565
0.084611 0.230094 0.084611
0.112786 0.240238 0.094664
0.141017 0.250388 0.104724
0.169300 0.260543 0.114792
0.197633 0.270702 0.124866
0.226011 0.280866 0.134947
0.254432 0.291035 0.145036
0.282891 0.301208 0.155130
0.311384 0.311384 0.165231
0.339908 0.321565 0.175339
0.368459 0.331750 0.185453
0.397030 0.341937 0.195573
0.425619 0.352129 0.205698
0.454220 0.362323 0.215830
0.482828 0.372520 0.225967
0.511440 0.382720 0.236109
0.540049 0.392922 0.246257
0.568652 0.403126 0.256409
0.597244 0.413333 0.266567
0.625819 0.423541 0.276729
0.654374 0.433751 0.286896
0.682904 0.443963 0.297067
0.711404 0.454175 0.307242
0.739870 0.464389 0.317421
0.076196 0.258147 0.094294
0.104354 0.268305 0.104354
0.132569 0.278468 0.114421
0.160836 0.288635 0.124495
0.189154 0.298807 0.134576
0.217519 0.308983 0.144664
0.245928 0.319163 0.154759
0.274376 0.329347 0.164860
0.302859 0.339534 0.174967
0.331375 0.349724 0.185081
0.359918 0.359918 0.195200
