lut/noir-tuong-phan.cube
# noir-tuong-phan — LUT tự sinh của Xưởng Video
LUT_3D_SIZE 5
0.000000 0.000000 0.000000
0.044015 0.000000 0.000000
0.213392 0.000000 0.000000
0.384328 0.055990 0.055990
0.555940 0.116292 0.116292
0.000000 0.102042 0.000000
0.162539 0.162539 0.053777
0.333091 0.223264 0.114069
0.504604 0.284186 0.174613
0.676090 0.345264 0.235381
0.111846 0.330843 0.111846
0.281941 0.392014 0.172382
0.453266 0.453266 0.233142
0.624867 0.514554 0.294091
0.795740 0.575831 0.355191
0.230903 0.561378 0.230903
0.401953 0.622615 0.291846
0.573577 0.683760 0.352941
0.744769 0.744769 0.414147
0.914598 0.805602 0.475418
0.350692 0.791268 0.350692
0.522249 0.851942 0.411894
0.693674 0.912379 0.473163
0.863997 0.972553 0.534452
1.000000 1.000000 0.595716
0.000000 0.000000 0.006876
0.066954 0.000000 0.066954
0.236587 0.018816 0.127304
0.407671 0.078950 0.187900
0.579298 0.139351 0.248711
0.016610 0.125079 0.125079
0.185666 0.185666 0.185666
0.356403 0.246471 0.246471
0.527972 0.307457 0.307457
0.699376 0.368584 0.368584
0.134898 0.354153 0.244230
0.305210 0.415360 0.305210
0.476632 0.476632 0.366334
0.648191 0.537921 0.427557
0.818893 0.599181 0.488836
0.254118 0.584734 0.364083
0.425304 0.645941 0.425304
0.596929 0.707039 0.486581
0.767986 0.767986 0.547869
0.937569 0.828742 0.609120
0.374015 0.814428 0.484326
0.545615 0.875015 0.545615
0.716944 0.935354 0.606868
0.887050 0.995421 0.668041
1.000000 1.000000 0.729089
0.000000 0.000000 0.138323
0.089933 0.000000 0.198961
0.259808 0.041711 0.259808
0.431025 0.101949 0.320829
0.602647 0.162445 0.381982
0.039500 0.148151 0.257567
0.208825 0.208825 0.318582
0.379731 0.269704 0.379731
0.551337 0.330748 0.440970
0.722641 0.391919 0.502255
0.157986 0.377479 0.377479
0.328500 0.438716 0.438716
0.500000 0.500000 0.500000
0.671500 0.561284 0.561284
0.842014 0.622521 0.622521
0.277359 0.608081 0.497745
0.448663 0.669252 0.559030
0.620269 0.730296 0.620269
0.791175 0.791175 0.681418
0.960500 0.851849 0.742433
0.397353 0.837555 0.618018
0.568975 0.898051 0.679171
0.740192 0.958289 0.740192
0.910067 1.000000 0.801039
1.000000 1.000000 0.861677
0.000000 0.000000 0.270911
0.112950 0.004579 0.331959
0.283056 0.064646 0.393132
0.454385 0.124985 0.454385
0.625985 0.185572 0.515674
0.062431 0.171258 0.390880
0.232014 0.232014 0.452131
0.403071 0.292961 0.513419
0.574696 0.354059 0.574696
0.745882 0.415266 0.635917
0.181107 0.400819 0.511164
0.351809 0.462079 0.572443
0.523368 0.523368 0.633666
0.694790 0.584640 0.694790
0.865102 0.645847 0.755770
0.300624 0.631416 0.631416
0.472028 0.692543 0.692543
0.643597 0.753529 0.753529
0.814334 0.814334 0.814334
0.983390 0.874921 0.874921
0.420702 0.860649 0.751289
0.592329 0.921050 0.812100
0.763413 0.981184 0.872696
0.933046 1.000000 0.933046
1.000000 1.000000 0.993124
0.000000 0.000000 0.404284
0.136003 0.027447 0.465548
0.306326 0.087621 0.526837
0.477751 0.148058 0.588106
0.649308 0.208732 0.649308
0.085402 0.194398 0.524582
0.255231 0.255231 0.585853
0.426423 0.316240 0.647059
0.598047 0.377385 0.708154
0.769097 0.438622 0.769097
0.204260 0.424169 0.644809
0.375133 0.485446 0.705909
0.546734 0.546734 0.766858
0.718059 0.607986 0.827618
0.888154 0.669157 0.888154
0.323910 0.654736 0.764619
0.495396 0.715814 0.825387
0.666909 0.776736 0.885931
0.837461 0.837461 0.946223
1.000000 0.897958 1.000000
0.444060 0.883708 0.883708
0.615672 0.944010 0.944010
0.786608 1.000000 1.000000
0.955985 1.000000 1.000000
1.000000 1.000000 1.000000
