lut/phim-xanh-cam.cube
# phim-xanh-cam — LUT tự sinh của Xưởng Video
LUT_3D_SIZE 9
0.000000 0.000000 0.010106
0.051245 0.000000 0.005158
0.192365 0.000000 0.000210
0.334205 0.000000 0.000000
0.476471 0.000000 0.000000
0.618799 0.000000 0.000000
0.760817 0.000000 0.000000
0.902202 0.000000 0.000000
1.000000 0.000000 0.000000
0.000000 0.096132 0.000392
0.056113 0.094890 0.000000
0.197262 0.093648 0.000000
0.339123 0.092406 0.000000
0.481396 0.091164 0.000000
0.623720 0.089922 0.000000
0.765721 0.088680 0.000000
0.907079 0.087438 0.000000
1.000000 0.086196 0.000000
0.000000 0.232558 0.000000
0.060982 0.231309 0.000000
0.202160 0.230061 0.000000
0.344040 0.228812 0.000000
0.486322 0.227563 0.000000
0.628640 0.226315 0.000000
0.770624 0.225066 0.000000
0.911956 0.223818 0.000000
1.000000 0.222569 0.000000
0.000000 0.369587 0.000000
0.065853 0.368334 0.000000
0.207058 0.367081 0.000000
0.348958 0.365828 0.000000
0.491248 0.364575 0.000000
0.633561 0.363322 0.000000
0.775527 0.362069 0.000000
0.916831 0.360816 0.000000
1.000000 0.360631 0.000000
0.000000 0.506931 0.000000
0.070724 0.505677 0.000000
0.211958 0.504422 0.000000
0.353877 0.503168 0.000000
0.496174 0.501913 0.000000
0.638480 0.500659 0.000000
0.781614 0.500397 0.000000
0.925366 0.501234 0.000000
1.000000 0.502070 0.000000
0.000000 0.644259 0.000000
0.075597 0.643006 0.000000
0.216858 0.641753 0.000000
0.358796 0.640500 0.000000
0.502199 0.640162 0.000000
0.647003 0.640997 0.000000
0.791414 0.641833 0.000000
0.935110 0.642668 0.000000
1.000000 0.643503 0.000000
0.000000 0.781238 0.000000
0.080470 0.779990 0.000000
0.222761 0.779577 0.000000
0.367227 0.780409 0.000000
0.512050 0.781241 0.000000
0.656840 0.782073 0.000000
0.801211 0.782905 0.000000
0.944849 0.783737 0.000000
1.000000 0.784569 0.000000
0.000000 0.918345 0.000000
0.088734 0.919173 0.000000
0.232567 0.920000 0.000000
0.377068 0.920828 0.000000
0.521901 0.921655 0.000000
0.666674 0.922483 0.000000
0.811005 0.923310 0.000000
0.954584 0.924138 0.000000
1.000000 0.924965 0.000000
0.000000 1.000000 0.000000
0.098488 1.000000 0.000000
0.242375 1.000000 0.000000
0.386911 1.000000 0.000000
0.531752 1.000000 0.000000
0.676507 1.000000 0.000000
0.820795 1.000000 0.000000
0.964315 1.000000 0.000000
1.000000 1.000000 0.000000
0.000000 0.000000 0.146587
0.052190 0.000000 0.141607
0.193316 0.000000 0.136629
0.335160 0.000000 0.131652
0.477427 0.000000 0.126676
0.619755 0.000000 0.121702
0.761769 0.000000 0.116728
0.903149 0.000000 0.111755
1.000000 0.000000 0.106783
0.000000 0.095659 0.136813
0.057058 0.094416 0.131836
0.198213 0.093174 0.126860
0.340078 0.091932 0.121885
0.482353 0.090690 0.116911
0.624675 0.089448 0.111938
0.766673 0.088206 0.106966
0.908026 0.086965 0.101995
1.000000 0.085723 0.097025
0.000000 0.232082 0.127043
0.061928 0.230833 0.122068
0.203111 0.229585 0.117094
0.344995 0.228336 0.112121
0.487279 0.227087 0.107149
0.629596 0.225839 0.102178
0.771576 0.224590 0.097208
0.912902 0.223342 0.092240
1.000000 0.222093 0.087272
0.000000 0.369109 0.117277
0.066799 0.367856 0.112304
0.208010 0.366603 0.107332
0.349913 0.365350 0.102361
0.492204 0.364097 0.097391
0.634516 0.362844 0.092422
0.776479 0.361591 0.087455
0.917778 0.360338 0.082488
1.000000 0.360950 0.078262
0.000000 0.506453 0.107515
0.071670 0.505198 0.102544
0.212909 0.503944 0.097574
0.354832 0.502689 0.092605
0.497130 0.501435 0.087637
0.639436 0.500180 0.082671
0.783518 0.500716 0.078414
0.927259 0.501552 0.074277
1.000000 0.502389 0.070140
0.000000 0.643781 0.097757
0.076543 0.642528 0.092788
0.217810 0.641275 0.087820
0.359751 0.640022 0.082854
0.504112 0.640481 0.078566
0.648913 0.641316 0.074429
0.793317 0.642151 0.070293
0.937002 0.642986 0.066157
1.000000 0.643821 0.062022
0.000000 0.780762 0.088003
0.081417 0.779514 0.083036
0.224665 0.779894 0.078718
0.369138 0.780726 0.074581
0.513963 0.781558 0.070445
0.658750 0.782390 0.066309
0.803114 0.783223 0.062174
0.946740 0.784055 0.058040
1.000000 0.784887 0.053907
0.000000 0.918661 0.078871
0.090628 0.919488 0.074733
0.234471 0.920316 0.070597
0.378980 0.921143 0.066461
0.523814 0.921971 0.062326
0.668584 0.922798 0.058192
0.812907 0.923626 0.054059
0.956474 0.924453 0.049926
1.000000 0.925281 0.045794
0.000000 1.000000 0.070749
0.100383 1.000000 0.066613
0.244280 1.000000 0.062478
0.388822 1.000000 0.058344
0.533665 1.000000 0.054211
0.678416 1.000000 0.050078
0.822696 1.000000 0.045946
0.966204 1.000000 0.041815
1.000000 1.000000 0.037685
0.000000 0.000000 0.283812
0.053135 0.000000 0.278810
0.194267 0.000000 0.273808
0.336115 0.000000 0.268807
0.478384 0.000000 0.263806
0.620710 0.000000 0.258807
0.762722 0.000000 0.253808
0.904096 0.000000 0.248809
1.000000 0.000000 0.243812
0.000000 0.095185 0.273992
0.058004 0.093943 0.268991
0.199164 0.092701 0.263990
0.341033 0.091459 0.258991
0.483310 0.090217 0.253992
0.625631 0.088975 0.248993
0.767626 0.087733 0.243996
0.908973 0.086491 0.238999
1.000000 0.085250 0.234003
0.000000 0.231606 0.264174
0.062874 0.230357 0.259174
0.204062 0.229108 0.254175
0.345950 0.227860 0.249177
0.488235 0.226611 0.244180
0.630552 0.225363 0.239183
0.772529 0.224114 0.234187
0.913849 0.222866 0.229192
1.000000 0.221617 0.224198
0.000000 0.368631 0.254359
0.067745 0.367378 0.249361
0.208961 0.366125 0.244364
0.350869 0.364872 0.239367
0.493161 0.363619 0.234371
0.635472 0.362366 0.229376
0.777431 0.361113 0.224381
0.919405 0.360433 0.219616
1.000000 0.361268 0.215456
0.000000 0.505975 0.244547
0.072617 0.504720 0.239551
0.213861 0.503466 0.234555
0.355787 0.502211 0.229560
0.498087 0.500957 0.224565
0.640986 0.500199 0.219769
0.785421 0.501035 0.215609
0.929151 0.501871 0.211449
1.000000 0.502708 0.207289
0.000000 0.643303 0.234738
0.077490 0.642050 0.229743
0.218762 0.640798 0.224749
0.361210 0.639964 0.219922
0.506025 0.640799 0.215762
0.650824 0.641634 0.211602
0.795220 0.642469 0.207442
0.938893 0.643305 0.203283
1.000000 0.644140 0.199125
0.000000 0.780286 0.224933
0.082771 0.779379 0.220075
0.226570 0.780211 0.215915
0.371049 0.781043 0.211755
0.515876 0.781876 0.207595
0.660660 0.782708 0.203436
0.805016 0.783540 0.199278
0.948631 0.784372 0.195120
1.000000 0.785204 0.190963
0.000000 0.918976 0.216068
0.092522 0.919804 0.211908
0.236376 0.920631 0.207748
0.380891 0.921459 0.203589
0.525728 0.922286 0.199431
0.670494 0.923114 0.195273
0.814808 0.923941 0.191116
0.958364 0.924769 0.186960
1.000000 0.925596 0.182804
0.000000 1.000000 0.207901
0.102278 1.000000 0.203742
0.246185 1.000000 0.199584
0.390734 1.000000 0.195426
0.535578 1.000000 0.191269
0.680325 1.000000 0.187113
0.824597 1.000000 0.182957
0.968093 1.000000 0.178802
1.000000 1.000000 0.174647
0.000000 0.000000 0.421546
0.054081 0.000000 0.416530
0.195218 0.000000 0.411514
0.337070 0.000000 0.406499
0.479341 0.000000 0.401484
0.621666 0.000000 0.396469
0.763674 0.000000 0.391455
0.905044 0.000000 0.386441
1.000000 0.000000 0.381427
0.000000 0.094711 0.411699
0.058950 0.093469 0.406684
0.200115 0.092227 0.401669
0.341988 0.090985 0.396654
0.484266 0.089743 0.391640
0.626587 0.088501 0.386626
0.768578 0.087260 0.381612
0.909920 0.086018 0.376599
1.000000 0.084776 0.371586
0.000000 0.231130 0.401853
0.063820 0.229881 0.396838
0.205014 0.228632 0.391824
0.346906 0.227384 0.386810
0.489192 0.226135 0.381796
0.631507 0.224887 0.376783
0.773481 0.223638 0.371770
0.914796 0.222390 0.366758
1.000000 0.221141 0.361746
0.000000 0.368153 0.392008
0.068691 0.366900 0.386994
0.209913 0.365647 0.381981
0.351824 0.364394 0.376968
0.494118 0.363141 0.371955
0.636427 0.361888 0.366942
0.778383 0.360636 0.361930
0.921298 0.360751 0.357466
1.000000 0.361587 0.353290
0.000000 0.505496 0.382165
0.073563 0.504242 0.377152
0.214813 0.502987 0.372139
0.356743 0.501733 0.367127
0.499043 0.500478 0.362115
0.642897 0.500517 0.357620
0.787324 0.501354 0.353444
0.931044 0.502190 0.349268
1.000000 0.503026 0.345093
0.000000 0.642826 0.372324
0.078436 0.641573 0.367311
0.219714 0.640320 0.362299
0.363120 0.640282 0.357774
0.507938 0.641117 0.353598
0.652734 0.641953 0.349422
0.797123 0.642788 0.345247
0.940785 0.643623 0.341072
1.000000 0.644458 0.336897
0.000000 0.779810 0.362483
0.084664 0.779696 0.357927
0.228474 0.780529 0.353751
0.372961 0.781361 0.349576
0.517790 0.782193 0.345400
0.662570 0.783025 0.341225
0.806918 0.783857 0.337051
0.950522 0.784689 0.332876
1.000000 0.785521 0.328702
0.000000 0.919292 0.353905
0.094416 0.920119 0.349729
0.238281 0.920947 0.345554
0.382802 0.921774 0.341379
0.527641 0.922602 0.337204
0.672403 0.923429 0.333030
0.816709 0.924257 0.328856
0.960254 0.925084 0.324682
1.000000 0.925911 0.320509
0.000000 1.000000 0.345707
0.104173 1.000000 0.341532
0.248091 1.000000 0.337358
0.392646 1.000000 0.333183
0.537491 1.000000 0.329010
0.682234 1.000000 0.324836
0.826497 1.000000 0.320663
0.969982 1.000000 0.316490
1.000000 1.000000 0.312318
0.000000 0.000000 0.559473
0.055026 0.000000 0.554456
0.196169 0.000000 0.549439
0.338025 0.000000 0.544422
0.480297 0.000000 0.539405
0.622622 0.000000 0.534387
0.764627 0.000000 0.529369
0.905991 0.000000 0.524351
1.000000 0.000000 0.519334
0.000000 0.094238 0.549624
0.059895 0.092996 0.544607
0.201066 0.091754 0.539589
0.342943 0.090512 0.534572
0.485223 0.089270 0.529554
0.627542 0.088028 0.524536
0.769530 0.086786 0.519518
0.910867 0.085544 0.514500
1.000000 0.084303 0.509482
0.000000 0.230654 0.539774
0.064766 0.229405 0.534756
0.205965 0.228156 0.529738
0.347861 0.226908 0.524721
0.490149 0.225659 0.519703
0.632463 0.224411 0.514685
0.774433 0.223162 0.509667
0.915743 0.221914 0.504649
1.000000 0.220819 0.499692
0.000000 0.367676 0.529923
0.069637 0.366423 0.524905
0.210864 0.365170 0.519887
0.352779 0.363917 0.514869
0.495074 0.362664 0.509851
0.637382 0.361411 0.504833
0.779426 0.360235 0.499846
0.923191 0.361070 0.495664
1.000000 0.361905 0.491483
0.000000 0.505018 0.520072
0.074509 0.503764 0.515054
0.215765 0.502509 0.510036
0.357698 0.501255 0.505018
0.500000 0.500000 0.500000
0.644807 0.500836 0.495818
0.789227 0.501673 0.491637
0.932936 0.502509 0.487455
1.000000 0.503345 0.483273
0.000000 0.642348 0.510221
0.079383 0.641095 0.505203
0.220666 0.639842 0.500185
0.365031 0.640601 0.495972
0.509851 0.641436 0.491790
0.654644 0.642271 0.487609
0.799025 0.643106 0.483427
0.942676 0.643942 0.479246
1.000000 0.644777 0.475064
0.000000 0.779334 0.500369
0.086558 0.780014 0.496126
0.230378 0.780846 0.491944
0.374872 0.781678 0.487763
0.519703 0.782510 0.483581
0.664480 0.783342 0.479399
0.808820 0.784174 0.475218
0.952412 0.785006 0.471036
1.000000 0.785838 0.466855
0.000000 0.919607 0.492098
0.096311 0.920435 0.487916
0.240186 0.921262 0.483735
0.384714 0.922090 0.479553
0.529554 0.922917 0.475372
0.674313 0.923745 0.471190
0.818611 0.924572 0.467009
0.962144 0.925399 0.462827
1.000000 0.926227 0.458646
0.000000 1.000000 0.483889
0.106068 1.000000 0.479707
0.249996 1.000000 0.475525
0.394558 1.000000 0.471344
0.539405 1.000000 0.467163
0.684143 1.000000 0.462981
0.828398 1.000000 0.458800
0.971871 1.000000 0.454619
1.000000 1.000000 0.450438
0.000000 0.000000 0.697253
0.055972 0.000000 0.692248
0.197120 0.000000 0.687241
0.338980 0.000000 0.682234
0.481254 0.000000 0.677227
0.623577 0.000000 0.672219
0.765579 0.000000 0.667210
0.906938 0.000000 0.662201
1.000000 0.000000 0.657191
0.000000 0.093764 0.687425
0.060841 0.092522 0.682419
0.202018 0.091280 0.677411
0.343898 0.090038 0.672403
0.486179 0.088796 0.667394
0.628498 0.087554 0.662385
0.770482 0.086313 0.657376
0.911814 0.085071 0.652366
1.000000 0.083829 0.647355
0.000000 0.230178 0.677595
0.065712 0.228929 0.672587
0.206916 0.227680 0.667579
0.348816 0.226432 0.662570
0.491105 0.225183 0.657560
0.633418 0.223935 0.652550
0.775385 0.222686 0.647539
0.916690 0.221438 0.642528
1.000000 0.221136 0.637896
0.000000 0.367198 0.667763
0.070583 0.365945 0.662754
0.211816 0.364692 0.657744
0.353734 0.363439 0.652734
0.496031 0.362186 0.647724
0.638338 0.360933 0.642712
0.781330 0.360553 0.638050
0.925084 0.361388 0.633873
1.000000 0.362224 0.629697
0.000000 0.504540 0.657929
0.075456 0.503285 0.652919
0.216716 0.502031 0.647908
0.358654 0.500776 0.642897
0.501913 0.500319 0.638204
0.646718 0.501155 0.634027
0.791131 0.501992 0.629850
0.934828 0.502828 0.625673
1.000000 0.503664 0.621496
0.000000 0.641870 0.648092
0.080329 0.640617 0.643081
0.222478 0.640084 0.638357
0.366942 0.640919 0.634181
0.511765 0.641754 0.630004
0.656555 0.642590 0.625827
0.800928 0.643425 0.621649
0.944567 0.644260 0.617471
1.000000 0.645095 0.613293
0.000000 0.779499 0.638511
0.088451 0.780331 0.634334
0.232283 0.781163 0.630158
0.376783 0.781995 0.625980
0.521616 0.782827 0.621803
0.666389 0.783659 0.617625
0.810721 0.784492 0.613447
0.954302 0.785324 0.609269
1.000000 0.786156 0.605090
0.000000 0.919923 0.630311
0.098205 0.920750 0.626134
0.242091 0.921578 0.621957
0.386626 0.922405 0.617779
0.531467 0.923233 0.613601
0.676222 0.924060 0.609423
0.820512 0.924888 0.605244
0.964033 0.925715 0.601065
1.000000 0.926542 0.596886
0.000000 1.000000 0.622110
0.107963 1.000000 0.617933
0.251902 1.000000 0.613755
0.396469 1.000000 0.609576
0.541318 1.000000 0.605398
0.686052 1.000000 0.601219
0.830298 1.000000 0.597040
0.973759 1.000000 0.592861
1.000000 1.000000 0.588681
0.000000 0.000000 0.834565
0.056917 0.000000 0.829581
0.198071 0.000000 0.824597
0.339935 0.000000 0.819611
0.482210 0.000000 0.814625
0.624533 0.000000 0.809637
0.766531 0.000000 0.804649
0.907885 0.000000 0.799659
1.000000 0.000000 0.794669
0.000000 0.093291 0.824780
0.061787 0.092048 0.819795
0.202969 0.090806 0.814808
0.344853 0.089565 0.809821
0.487136 0.088323 0.804832
0.629453 0.087081 0.799843
0.771434 0.085839 0.794853
0.912761 0.084598 0.789862
1.000000 0.083356 0.784870
0.000000 0.229702 0.814992
0.066658 0.228453 0.810004
0.207868 0.227204 0.805016
0.349771 0.225956 0.800027
0.492062 0.224707 0.795036
0.634374 0.223459 0.790046
0.776337 0.222210 0.785054
0.917636 0.220962 0.780061
1.000000 0.221453 0.775763
0.000000 0.366720 0.805199
0.071529 0.365467 0.800210
0.212768 0.364214 0.795220
0.354690 0.362961 0.790229
0.496987 0.361708 0.785237
0.639293 0.360455 0.780245
0.783234 0.360872 0.775916
0.926977 0.361707 0.771755
1.000000 0.362542 0.767592
0.000000 0.504061 0.795404
0.076402 0.502807 0.790413
0.217668 0.501552 0.785421
0.359609 0.500298 0.780428
0.503826 0.500638 0.776069
0.648629 0.501474 0.771908
0.793034 0.502310 0.767745
0.936720 0.503147 0.763582
1.000000 0.503983 0.759419
0.000000 0.641393 0.785605
0.081276 0.640140 0.780612
0.224381 0.640402 0.776223
0.368853 0.641238 0.772061
0.513678 0.642073 0.767898
0.658465 0.642908 0.763736
0.802830 0.643743 0.759572
0.946458 0.644578 0.755408
1.000000 0.645414 0.751243
0.000000 0.779816 0.776376
0.090345 0.780648 0.772214
0.234187 0.781480 0.768052
0.378694 0.782312 0.763889
0.523529 0.783145 0.759725
0.668299 0.783977 0.755561
0.812623 0.784809 0.751397
0.956193 0.785641 0.747232
1.000000 0.786473 0.743066
0.000000 0.920238 0.768205
0.100100 0.921066 0.764042
0.243996 0.921893 0.759878
0.388537 0.922721 0.755714
0.533380 0.923548 0.751550
0.678131 0.924376 0.747385
0.822413 0.925203 0.743219
0.965922 0.926030 0.739053
1.000000 0.926858 0.734886
0.000000 1.000000 0.760032
0.109859 1.000000 0.755868
0.253808 1.000000 0.751703
0.398381 1.000000 0.747538
0.543231 1.000000 0.743373
0.687961 1.000000 0.739206
0.832198 1.000000 0.735040
0.975648 1.000000 0.730873
1.000000 1.000000 0.726705
0.000000 0.000000 0.971158
0.057863 0.000000 0.966204
0.199022 0.000000 0.961249
0.340890 0.000000 0.956292
0.483167 0.000000 0.951334
0.625489 0.000000 0.946375
0.767484 0.000000 0.941415
0.908832 0.000000 0.936454
1.000000 0.000000 0.931492
0.000000 0.092817 0.961431
0.062733 0.091575 0.956474
0.203920 0.090333 0.951517
0.345808 0.089091 0.946558
0.488093 0.087849 0.941598
0.630409 0.086608 0.936637
0.772387 0.085366 0.931674
0.913708 0.084124 0.926711
1.000000 0.082883 0.921747
0.000000 0.229225 0.951699
0.067604 0.227977 0.946740
0.208819 0.226728 0.941780
0.350726 0.225480 0.936819
0.493018 0.224231 0.931857
0.635329 0.222983 0.926894
0.777289 0.221734 0.921929
0.919123 0.220938 0.917144
1.000000 0.221771 0.913005
0.000000 0.366242 0.941963
0.072475 0.364989 0.937002
0.213719 0.363736 0.932040
0.355645 0.362483 0.927076
0.497944 0.361231 0.922112
0.640701 0.360355 0.917296
0.785137 0.361190 0.913157
0.928869 0.362025 0.909018
1.000000 0.362861 0.904877
0.000000 0.503583 0.932222
0.077348 0.502329 0.927259
0.218620 0.501074 0.922295
0.360925 0.500120 0.917448
0.505740 0.500957 0.913309
0.650539 0.501793 0.909170
0.794936 0.502629 0.905030
0.938611 0.503466 0.900889
1.000000 0.504302 0.896747
0.000000 0.640915 0.922477
0.082488 0.639885 0.917600
0.226286 0.640721 0.913462
0.370764 0.641556 0.909322
0.515591 0.642391 0.905182
0.660375 0.643226 0.901041
0.804732 0.644062 0.896899
0.948349 0.644897 0.892757
1.000000 0.645732 0.888614
0.000000 0.780133 0.913614
0.092240 0.780965 0.909475
0.236092 0.781798 0.905334
0.380606 0.782630 0.901194
0.525442 0.783462 0.897052
0.670209 0.784294 0.892909
0.814525 0.785126 0.888766
0.958083 0.785958 0.884622
1.000000 0.786790 0.880478
0.000000 0.920554 0.905487
0.101995 0.921381 0.901346
0.245901 0.922209 0.897204
0.390449 0.923036 0.893062
0.535293 0.923864 0.888919
0.680041 0.924691 0.884775
0.824313 0.925518 0.880630
0.967811 0.926346 0.876485
1.000000 0.927173 0.872339
0.000000 1.000000 0.897357
0.111755 1.000000 0.893214
0.255714 1.000000 0.889071
0.400293 1.000000 0.884927
0.545144 1.000000 0.880783
0.689870 1.000000 0.876637
0.834099 1.000000 0.872491
0.977536 1.000000 0.868345
1.000000 1.000000 0.864197
0.000000 0.000000 1.000000
0.058809 0.000000 1.000000
0.199973 0.000000 1.000000
0.341845 0.000000 1.000000
0.484124 0.000000 1.000000
0.626444 0.000000 1.000000
0.768436 0.000000 1.000000
0.909779 0.000000 1.000000
1.000000 0.000000 1.000000
0.000000 0.092343 1.000000
0.063679 0.091101 1.000000
0.204872 0.089859 1.000000
0.346763 0.088618 1.000000
0.489049 0.087376 1.000000
0.631365 0.086134 1.000000
0.773339 0.084892 1.000000
0.914655 0.083651 1.000000
1.000000 0.082409 1.000000
0.000000 0.228749 1.000000
0.068550 0.227501 1.000000
0.209771 0.226252 1.000000
0.351681 0.225004 1.000000
0.493975 0.223755 1.000000
0.636285 0.222507 1.000000
0.778241 0.221258 1.000000
0.921016 0.221256 1.000000
1.000000 0.222088 1.000000
0.000000 0.365765 1.000000
0.073422 0.364512 1.000000
0.214671 0.363259 1.000000
0.356600 0.362006 1.000000
0.498901 0.360753 1.000000
0.642612 0.360673 1.000000
0.787040 0.361508 1.000000
0.930762 0.362344 1.000000
1.000000 0.363179 1.000000
0.000000 0.503105 1.000000
0.078295 0.501850 1.000000
0.219572 0.500596 1.000000
0.362835 0.500439 1.000000
0.507653 0.501275 1.000000
0.652449 0.502112 1.000000
0.796839 0.502948 1.000000
0.940503 0.503785 1.000000
1.000000 0.504621 1.000000
0.000000 0.640437 1.000000
0.084382 0.640204 1.000000
0.228190 0.641039 1.000000
0.372676 0.641874 1.000000
0.517504 0.642710 1.000000
0.662285 0.643545 1.000000
0.806634 0.644380 1.000000
0.950240 0.645215 1.000000
1.000000 0.646050 1.000000
0.000000 0.780451 1.000000
0.094134 0.781283 1.000000
0.237997 0.782115 1.000000
0.382517 0.782947 1.000000
0.527355 0.783779 1.000000
0.672118 0.784611 1.000000
0.816426 0.785443 1.000000
0.959972 0.786275 1.000000
1.000000 0.787107 1.000000
0.000000 0.920869 1.000000
0.103890 0.921697 1.000000
0.247807 0.922524 1.000000
0.392361 0.923352 1.000000
0.537206 0.924179 1.000000
0.681950 0.925007 1.000000
0.826214 0.925834 1.000000
0.969700 0.926661 1.000000
1.000000 0.927489 1.000000
0.000000 1.000000 1.000000
0.113651 1.000000 1.000000
0.257620 1.000000 1.000000
0.402205 1.000000 1.000000
0.547057 1.000000 1.000000
0.691779 1.000000 1.000000
0.835998 1.000000 1.000000
0.979424 1.000000 1.000000
1.000000 1.000000 1.000000
