lut/phim-xanh-cam.cube
# phim-xanh-cam — LUT tự sinh của Xưởng Video
LUT_3D_SIZE 5
0.000000 0.000000 0.010106
0.192365 0.000000 0.000210
0.476471 0.000000 0.000000
0.760817 0.000000 0.000000
1.000000 0.000000 0.000000
0.000000 0.232558 0.000000
0.202160 0.230061 0.000000
0.486322 0.227563 0.000000
0.770624 0.225066 0.000000
1.000000 0.222569 0.000000
0.000000 0.506931 0.000000
0.211958 0.504422 0.000000
0.496174 0.501913 0.000000
0.781614 0.500397 0.000000
1.000000 0.502070 0.000000
0.000000 0.781238 0.000000
0.222761 0.779577 0.000000
0.512050 0.781241 0.000000
0.801211 0.782905 0.000000
1.000000 0.784569 0.000000
0.000000 1.000000 0.000000
0.242375 1.000000 0.000000
0.531752 1.000000 0.000000
0.820795 1.000000 0.000000
1.000000 1.000000 0.000000
0.000000 0.000000 0.283812
0.194267 0.000000 0.273808
0.478384 0.000000 0.263806
0.762722 0.000000 0.253808
1.000000 0.000000 0.243812
0.000000 0.231606 0.264174
0.204062 0.229108 0.254175
0.488235 0.226611 0.244180
0.772529 0.224114 0.234187
1.000000 0.221617 0.224198
0.000000 0.505975 0.244547
0.213861 0.503466 0.234555
0.498087 0.500957 0.224565
0.785421 0.501035 0.215609
1.000000 0.502708 0.207289
0.000000 0.780286 0.224933
0.226570 0.780211 0.215915
0.515876 0.781876 0.207595
0.805016 0.783540 0.199278
1.000000 0.785204 0.190963
0.000000 1.000000 0.207901
0.246185 1.000000 0.199584
0.535578 1.000000 0.191269
0.824597 1.000000 0.182957
1.000000 1.000000 0.174647
0.000000 0.000000 0.559473
0.196169 0.000000 0.549439
0.480297 0.000000 0.539405
0.764627 0.000000 0.529369
1.000000 0.000000 0.519334
0.000000 0.230654 0.539774
0.205965 0.228156 0.529738
0.490149 0.225659 0.519703
0.774433 0.223162 0.509667
1.000000 0.220819 0.499692
0.000000 0.505018 0.520072
0.215765 0.502509 0.510036
0.500000 0.500000 0.500000
0.789227 0.501673 0.491637
1.000000 0.503345 0.483273
0.000000 0.779334 0.500369
0.230378 0.780846 0.491944
0.519703 0.782510 0.483581
0.808820 0.784174 0.475218
1.000000 0.785838 0.466855
0.000000 1.000000 0.483889
0.249996 1.000000 0.475525
0.539405 1.000000 0.467163
0.828398 1.000000 0.458800
1.000000 1.000000 0.450438
0.000000 0.000000 0.834565
0.198071 0.000000 0.824597
0.482210 0.000000 0.814625
0.766531 0.000000 0.804649
1.000000 0.000000 0.794669
0.000000 0.229702 0.814992
0.207868 0.227204 0.805016
0.492062 0.224707 0.795036
0.776337 0.222210 0.785054
1.000000 0.221453 0.775763
0.000000 0.504061 0.795404
0.217668 0.501552 0.785421
0.503826 0.500638 0.776069
0.793034 0.502310 0.767745
1.000000 0.503983 0.759419
0.000000 0.779816 0.776376
0.234187 0.781480 0.768052
0.523529 0.783145 0.759725
0.812623 0.784809 0.751397
1.000000 0.786473 0.743066
0.000000 1.000000 0.760032
0.253808 1.000000 0.751703
0.543231 1.000000 0.743373
0.832198 1.000000 0.735040
1.000000 1.000000 0.726705
0.000000 0.000000 1.000000
0.199973 0.000000 1.000000
0.484124 0.000000 1.000000
0.768436 0.000000 1.000000
1.000000 0.000000 1.000000
0.000000 0.228749 1.000000
0.209771 0.226252 1.000000
0.493975 0.223755 1.000000
0.778241 0.221258 1.000000
1.000000 0.222088 1.000000
0.000000 0.503105 1.000000
0.219572 0.500596 1.000000
0.507653 0.501275 1.000000
0.796839 0.502948 1.000000
1.000000 0.504621 1.000000
0.000000 0.780451 1.000000
0.237997 0.782115 1.000000
0.527355 0.783779 1.000000
0.816426 0.785443 1.000000
1.000000 0.787107 1.000000
0.000000 1.000000 1.000000
0.257620 1.000000 1.000000
0.547057 1.000000 1.000000
0.835998 1.000000 1.000000
1.000000 1.000000 1.000000
