lut/phim-xanh-cam.cube
# phim-xanh-cam — LUT tự sinh của Xưởng Video
LUT_3D_SIZE 25
0.000000 0.000000 0.010106
0.000000 0.000000 0.008457
0.004400 0.000000 0.006807
0.051245 0.000000 0.005158
0.098191 0.000000 0.003508
0.145233 0.000000 0.001859
0.192365 0.000000 0.000210
0.239578 0.000000 0.000000
0.286861 0.000000 0.000000
0.334205 0.000000 0.000000
0.381597 0.000000 0.000000
0.429023 0.000000 0.000000
0.476471 0.000000 0.000000
0.523925 0.000000 0.000000
0.571373 0.000000 0.000000
0.618799 0.000000 0.000000
0.666190 0.000000 0.000000
0.713534 0.000000 0.000000
0.760817 0.000000 0.000000
0.808029 0.000000 0.000000
0.855160 0.000000 0.000000
0.902202 0.000000 0.000000
0.949147 0.000000 0.000000
0.995991 0.000000 0.000000
1.000000 0.000000 0.000000
0.000000 0.005619 0.006868
0.000000 0.005206 0.005218
0.006019 0.004794 0.003569
0.052867 0.004382 0.001920
0.099817 0.003969 0.000271
0.146862 0.003557 0.000000
0.193997 0.003145 0.000000
0.241212 0.002732 0.000000
0.288499 0.002320 0.000000
0.335844 0.001908 0.000000
0.383237 0.001495 0.000000
0.430665 0.001083 0.000000
0.478113 0.000671 0.000000
0.525567 0.000259 0.000000
0.573014 0.000000 0.000000
0.620439 0.000000 0.000000
0.667829 0.000000 0.000000
0.715171 0.000000 0.000000
0.762452 0.000000 0.000000
0.809661 0.000000 0.000000
0.856789 0.000000 0.000000
0.903828 0.000000 0.000000
0.950770 0.000000 0.000000
0.997610 0.000000 0.000000
1.000000 0.000000 0.000000
0.000000 0.050828 0.003630
0.000000 0.050415 0.001980
0.007638 0.050002 0.000331
0.054490 0.049588 0.000000
0.101443 0.049175 0.000000
0.148492 0.048762 0.000000
0.195629 0.048349 0.000000
0.242847 0.047936 0.000000
0.290136 0.047522 0.000000
0.337483 0.047109 0.000000
0.384878 0.046696 0.000000
0.432306 0.046283 0.000000
0.479755 0.045870 0.000000
0.527209 0.045457 0.000000
0.574655 0.045044 0.000000
0.622080 0.044630 0.000000
0.669468 0.044217 0.000000
0.716808 0.043804 0.000000
0.764086 0.043391 0.000000
0.811293 0.042978 0.000000
0.858418 0.042565 0.000000
0.905454 0.042152 0.000000
0.952392 0.041739 0.000000
0.999228 0.041326 0.000000
1.000000 0.040913 0.000000
0.000000 0.096132 0.000392
0.000000 0.095718 0.000000
0.009257 0.095304 0.000000
0.056113 0.094890 0.000000
0.103069 0.094476 0.000000
0.150121 0.094062 0.000000
0.197262 0.093648 0.000000
0.244482 0.093234 0.000000
0.291773 0.092820 0.000000
0.339123 0.092406 0.000000
0.386518 0.091992 0.000000
0.433948 0.091578 0.000000
0.481396 0.091164 0.000000
0.528851 0.090750 0.000000
0.576297 0.090336 0.000000
0.623720 0.089922 0.000000
0.671107 0.089508 0.000000
0.718445 0.089094 0.000000
0.765721 0.088680 0.000000
0.812925 0.088266 0.000000
0.860047 0.087852 0.000000
0.907079 0.087438 0.000000
0.954014 0.087024 0.000000
1.000000 0.086610 0.000000
1.000000 0.086196 0.000000
0.000000 0.141526 0.000000
0.000000 0.141111 0.000000
0.010877 0.140696 0.000000
0.057736 0.140281 0.000000
0.104696 0.139867 0.000000
0.151751 0.139452 0.000000
0.198894 0.139037 0.000000
0.246118 0.138622 0.000000
0.293410 0.138207 0.000000
0.340762 0.137792 0.000000
0.388159 0.137378 0.000000
0.435589 0.136963 0.000000
0.483038 0.136548 0.000000
0.530493 0.136133 0.000000
0.577938 0.135719 0.000000
0.625360 0.135304 0.000000
0.672746 0.134889 0.000000
0.720081 0.134474 0.000000
0.767355 0.134059 0.000000
0.814557 0.133645 0.000000
0.861676 0.133230 0.000000
0.908705 0.132815 0.000000
0.955636 0.132401 0.000000
1.000000 0.131986 0.000000
1.000000 0.131571 0.000000
0.000000 0.187004 0.000000
0.000000 0.186588 0.000000
0.012496 0.186173 0.000000
0.059359 0.185757 0.000000
0.106322 0.185342 0.000000
0.153380 0.184926 0.000000
0.200527 0.184510 0.000000
0.247753 0.184095 0.000000
0.295048 0.183679 0.000000
0.342401 0.183264 0.000000
0.389800 0.182848 0.000000
0.437231 0.182433 0.000000
0.484680 0.182017 0.000000
0.532134 0.181602 0.000000
0.579579 0.181186 0.000000
0.627000 0.180771 0.000000
0.674384 0.180355 0.000000
0.721718 0.179939 0.000000
0.768990 0.179524 0.000000
0.816189 0.179109 0.000000
0.863305 0.178693 0.000000
0.910330 0.178278 0.000000
0.957258 0.177862 0.000000
1.000000 0.177447 0.000000
1.000000 0.177031 0.000000
0.000000 0.232558 0.000000
0.000000 0.232142 0.000000
0.014116 0.231726 0.000000
0.060982 0.231309 0.000000
0.107949 0.230893 0.000000
0.155010 0.230477 0.000000
0.202160 0.230061 0.000000
0.249388 0.229644 0.000000
0.296685 0.229228 0.000000
0.344040 0.228812 0.000000
0.391440 0.228396 0.000000
0.438872 0.227980 0.000000
0.486322 0.227563 0.000000
0.533776 0.227147 0.000000
0.581220 0.226731 0.000000
0.628640 0.226315 0.000000
0.676023 0.225899 0.000000
0.723355 0.225482 0.000000
0.770624 0.225066 0.000000
0.817820 0.224650 0.000000
0.864933 0.224234 0.000000
0.911956 0.223818 0.000000
0.958880 0.223402 0.000000
1.000000 0.222985 0.000000
1.000000 0.222569 0.000000
0.000000 0.278180 0.000000
0.000000 0.277763 0.000000
0.015736 0.277346 0.000000
0.062606 0.276930 0.000000
0.109575 0.276513 0.000000
0.156640 0.276096 0.000000
0.203792 0.275679 0.000000
0.251023 0.275262 0.000000
0.298323 0.274846 0.000000
0.345679 0.274429 0.000000
0.393081 0.274012 0.000000
0.440514 0.273595 0.000000
0.487964 0.273178 0.000000
0.535418 0.272762 0.000000
0.582862 0.272345 0.000000
0.630281 0.271928 0.000000
0.677661 0.271511 0.000000
0.724991 0.271094 0.000000
0.772258 0.270678 0.000000
0.819452 0.270261 0.000000
0.866562 0.269844 0.000000
0.913581 0.269427 0.000000
0.960502 0.269011 0.000000
1.000000 0.268594 0.000000
1.000000 0.268177 0.000000
0.000000 0.323860 0.000000
0.000000 0.323443 0.000000
0.017356 0.323025 0.000000
0.064229 0.322608 0.000000
0.111202 0.322191 0.000000
0.158270 0.321773 0.000000
0.205425 0.321356 0.000000
0.252659 0.320939 0.000000
0.299960 0.320521 0.000000
0.347319 0.320104 0.000000
0.394721 0.319687 0.000000
0.442155 0.319270 0.000000
0.489606 0.318852 0.000000
0.537060 0.318435 0.000000
0.584503 0.318018 0.000000
0.631921 0.317600 0.000000
0.679300 0.317183 0.000000
0.726628 0.316766 0.000000
0.773893 0.316349 0.000000
0.821083 0.315931 0.000000
0.868190 0.315514 0.000000
0.915206 0.315097 0.000000
0.962123 0.314680 0.000000
1.000000 0.314263 0.000000
1.000000 0.313845 0.000000
0.000000 0.369587 0.000000
0.000000 0.369169 0.000000
0.018976 0.368751 0.000000
0.065853 0.368334 0.000000
0.112829 0.367916 0.000000
0.159900 0.367498 0.000000
0.207058 0.367081 0.000000
0.254294 0.366663 0.000000
0.301598 0.366245 0.000000
0.348958 0.365828 0.000000
0.396362 0.365410 0.000000
0.443797 0.364992 0.000000
0.491248 0.364575 0.000000
0.538702 0.364157 0.000000
0.586144 0.363739 0.000000
0.633561 0.363322 0.000000
0.680938 0.362904 0.000000
0.728264 0.362486 0.000000
0.775527 0.362069 0.000000
0.822715 0.361651 0.000000
0.869819 0.361233 0.000000
0.916831 0.360816 0.000000
0.963745 0.360398 0.000000
1.000000 0.360353 0.000000
1.000000 0.360631 0.000000
0.000000 0.415349 0.000000
0.000000 0.414931 0.000000
0.020596 0.414513 0.000000
0.067476 0.414095 0.000000
0.114456 0.413677 0.000000
0.161531 0.413259 0.000000
0.208691 0.412841 0.000000
0.255930 0.412423 0.000000
0.303236 0.412005 0.000000
0.350598 0.411587 0.000000
0.398003 0.411169 0.000000
0.445438 0.410752 0.000000
0.492890 0.410334 0.000000
0.540343 0.409916 0.000000
0.587785 0.409498 0.000000
0.635201 0.409080 0.000000
0.682577 0.408662 0.000000
0.729901 0.408244 0.000000
0.777161 0.407826 0.000000
0.824346 0.407408 0.000000
0.871447 0.406990 0.000000
0.918868 0.406919 0.000000
0.966604 0.407198 0.000000
1.000000 0.407477 0.000000
1.000000 0.407755 0.000000
0.000000 0.461135 0.000000
0.000000 0.460717 0.000000
0.022216 0.460299 0.000000
0.069100 0.459880 0.000000
0.116084 0.459462 0.000000
0.163161 0.459044 0.000000
0.210325 0.458626 0.000000
0.257566 0.458208 0.000000
0.304874 0.457790 0.000000
0.352237 0.457372 0.000000
0.399644 0.456954 0.000000
0.447080 0.456535 0.000000
0.494532 0.456117 0.000000
0.541985 0.455699 0.000000
0.589426 0.455281 0.000000
0.636840 0.454863 0.000000
0.684215 0.454445 0.000000
0.731537 0.454027 0.000000
0.778795 0.453609 0.000000
0.826360 0.453512 0.000000
0.874287 0.453791 0.000000
0.922117 0.454070 0.000000
0.969846 0.454348 0.000000
1.000000 0.454627 0.000000
1.000000 0.454906 0.000000
0.000000 0.506931 0.000000
0.000000 0.506513 0.000000
0.023837 0.506095 0.000000
0.070724 0.505677 0.000000
0.117711 0.505259 0.000000
0.164791 0.504840 0.000000
0.211958 0.504422 0.000000
0.259201 0.504004 0.000000
0.306512 0.503586 0.000000
0.353877 0.503168 0.000000
0.401285 0.502750 0.000000
0.448721 0.502331 0.000000
0.496174 0.501913 0.000000
0.543627 0.501495 0.000000
0.591067 0.501077 0.000000
0.638480 0.500659 0.000000
0.685853 0.500241 0.000000
0.733527 0.500118 0.000000
0.781614 0.500397 0.000000
0.829622 0.500676 0.000000
0.877542 0.500955 0.000000
0.925366 0.501234 0.000000
0.973088 0.501512 0.000000
1.000000 0.501791 0.000000
1.000000 0.502070 0.000000
0.000000 0.552726 0.000000
0.000000 0.552308 0.000000
0.025457 0.551890 0.000000
0.072348 0.551472 0.000000
0.119338 0.551053 0.000000
0.166422 0.550635 0.000000
0.213591 0.550217 0.000000
0.260837 0.549799 0.000000
0.308150 0.549381 0.000000
0.355517 0.548963 0.000000
0.402925 0.548545 0.000000
0.450363 0.548127 0.000000
0.497815 0.547709 0.000000
0.545268 0.547290 0.000000
0.592708 0.546872 0.000000
0.640444 0.546725 0.000000
0.688650 0.547003 0.000000
0.736799 0.547282 0.000000
0.784881 0.547561 0.000000
0.832884 0.547840 0.000000
0.880798 0.548118 0.000000
0.928615 0.548397 0.000000
0.976329 0.548676 0.000000
1.000000 0.548955 0.000000
1.000000 0.549233 0.000000
0.000000 0.598506 0.000000
0.000000 0.598088 0.000000
0.027078 0.597670 0.000000
0.073972 0.597252 0.000000
0.120966 0.596834 0.000000
0.168052 0.596416 0.000000
0.215225 0.595998 0.000000
0.262473 0.595580 0.000000
0.309788 0.595162 0.000000
0.357156 0.594745 0.000000
0.404566 0.594327 0.000000
0.452005 0.593909 0.000000
0.499457 0.593491 0.000000
0.547204 0.593317 0.000000
0.595478 0.593596 0.000000
0.643724 0.593875 0.000000
0.691926 0.594153 0.000000
0.740071 0.594432 0.000000
0.788148 0.594711 0.000000
0.836145 0.594989 0.000000
0.884052 0.595268 0.000000
0.931863 0.595546 0.000000
0.979569 0.595825 0.000000
1.000000 0.596104 0.000000
1.000000 0.596382 0.000000
0.000000 0.644259 0.000000
0.000000 0.643841 0.000000
0.028699 0.643423 0.000000
0.075597 0.643006 0.000000
0.122593 0.642588 0.000000
0.169683 0.642171 0.000000
0.216858 0.641753 0.000000
0.264109 0.641335 0.000000
0.311426 0.640918 0.000000
0.358796 0.640500 0.000000
0.406207 0.640082 0.000000
0.453909 0.639884 0.000000
0.502199 0.640162 0.000000
0.550487 0.640440 0.000000
0.598760 0.640719 0.000000
0.647003 0.640997 0.000000
0.695202 0.641276 0.000000
0.743343 0.641554 0.000000
0.791414 0.641833 0.000000
0.839405 0.642111 0.000000
0.887307 0.642389 0.000000
0.935110 0.642668 0.000000
0.982810 0.642946 0.000000
1.000000 0.643225 0.000000
1.000000 0.643503 0.000000
0.000000 0.689972 0.000000
0.000000 0.689555 0.000000
0.030320 0.689138 0.000000
0.077221 0.688721 0.000000
0.124221 0.688304 0.000000
0.171314 0.687886 0.000000
0.218492 0.687469 0.000000
0.265745 0.687052 0.000000
0.313064 0.686635 0.000000
0.360668 0.686411 0.000000
0.408916 0.686689 0.000000
0.457193 0.686967 0.000000
0.505482 0.687245 0.000000
0.553770 0.687523 0.000000
0.602042 0.687801 0.000000
0.650282 0.688079 0.000000
0.698477 0.688358 0.000000
0.746614 0.688636 0.000000
0.794680 0.688914 0.000000
0.842666 0.689192 0.000000
0.890560 0.689470 0.000000
0.938357 0.689748 0.000000
0.986049 0.690026 0.000000
1.000000 0.690304 0.000000
1.000000 0.690583 0.000000
0.000000 0.735636 0.000000
0.000000 0.735219 0.000000
0.031941 0.734802 0.000000
0.078846 0.734386 0.000000
0.125849 0.733969 0.000000
0.172945 0.733552 0.000000
0.220126 0.733136 0.000000
0.267582 0.732886 0.000000
0.315737 0.733164 0.000000
0.363947 0.733442 0.000000
0.412198 0.733720 0.000000
0.460476 0.733997 0.000000
0.508766 0.734275 0.000000
0.557053 0.734553 0.000000
0.605323 0.734831 0.000000
0.653561 0.735109 0.000000
0.701752 0.735386 0.000000
0.749885 0.735664 0.000000
0.797946 0.735942 0.000000
0.845925 0.736220 0.000000
0.893814 0.736497 0.000000
0.941603 0.736775 0.000000
0.989289 0.737053 0.000000
1.000000 0.737331 0.000000
1.000000 0.737609 0.000000
0.000000 0.781238 0.000000
0.000000 0.780822 0.000000
0.033562 0.780406 0.000000
0.080470 0.779990 0.000000
0.127477 0.779574 0.000000
0.174746 0.779299 0.000000
0.222761 0.779577 0.000000
0.270855 0.779854 0.000000
0.319014 0.780131 0.000000
0.367227 0.780409 0.000000
0.415481 0.780686 0.000000
0.463760 0.780964 0.000000
0.512050 0.781241 0.000000
0.560337 0.781518 0.000000
0.608605 0.781796 0.000000
0.656840 0.782073 0.000000
0.705027 0.782351 0.000000
0.753155 0.782628 0.000000
0.801211 0.782905 0.000000
0.849185 0.783183 0.000000
0.897067 0.783460 0.000000
0.944849 0.783737 0.000000
0.992527 0.784015 0.000000
1.000000 0.784292 0.000000
1.000000 0.784569 0.000000
0.000000 0.826770 0.000000
0.000000 0.826355 0.000000
0.035183 0.825939 0.000000
0.082234 0.825640 0.000000
0.130073 0.825917 0.000000
0.178008 0.826194 0.000000
0.226029 0.826471 0.000000
0.274128 0.826748 0.000000
0.322291 0.827024 0.000000
0.370507 0.827301 0.000000
0.418763 0.827578 0.000000
0.467043 0.827855 0.000000
0.515334 0.828132 0.000000
0.563620 0.828409 0.000000
0.611886 0.828686 0.000000
0.660118 0.828963 0.000000
0.708302 0.829240 0.000000
0.756426 0.829517 0.000000
0.804476 0.829794 0.000000
0.852444 0.830070 0.000000
0.900319 0.830347 0.000000
0.948095 0.830624 0.000000
0.995766 0.830901 0.000000
1.000000 0.831178 0.000000
1.000000 0.831455 0.000000
0.000000 0.872223 0.000000
0.000000 0.871899 0.000000
0.037738 0.872175 0.000000
0.085483 0.872452 0.000000
0.133330 0.872728 0.000000
0.181271 0.873005 0.000000
0.229298 0.873281 0.000000
0.277401 0.873557 0.000000
0.325568 0.873834 0.000000
0.373788 0.874110 0.000000
0.422045 0.874387 0.000000
0.470327 0.874663 0.000000
0.518618 0.874939 0.000000
0.566902 0.875216 0.000000
0.615167 0.875492 0.000000
0.663396 0.875769 0.000000
0.711577 0.876045 0.000000
0.759696 0.876321 0.000000
0.807741 0.876598 0.000000
0.855702 0.876874 0.000000
0.903571 0.877150 0.000000
0.951340 0.877427 0.000000
0.999003 0.877703 0.000000
1.000000 0.877980 0.000000
1.000000 0.878256 0.000000
0.000000 0.918345 0.000000
0.000000 0.918621 0.000000
0.040982 0.918897 0.000000
0.088734 0.919173 0.000000
0.136587 0.919448 0.000000
0.184534 0.919724 0.000000
0.232567 0.920000 0.000000
0.280674 0.920276 0.000000
0.328846 0.920552 0.000000
0.377068 0.920828 0.000000
0.425328 0.921104 0.000000
0.473610 0.921379 0.000000
0.521901 0.921655 0.000000
0.570185 0.921931 0.000000
0.618448 0.922207 0.000000
0.666674 0.922483 0.000000
0.714851 0.922759 0.000000
0.762965 0.923034 0.000000
0.811005 0.923310 0.000000
0.858960 0.923586 0.000000
0.906823 0.923862 0.000000
0.954584 0.924138 0.000000
1.000000 0.924413 0.000000
1.000000 0.924689 0.000000
1.000000 0.924965 0.000000
0.000000 0.964970 0.000000
0.000000 0.965246 0.000000
0.044226 0.965521 0.000000
0.091985 0.965796 0.000000
0.139844 0.966072 0.000000
0.187798 0.966347 0.000000
0.235836 0.966622 0.000000
0.283948 0.966897 0.000000
0.332123 0.967173 0.000000
0.380349 0.967448 0.000000
0.428611 0.967723 0.000000
0.476894 0.967998 0.000000
0.525185 0.968274 0.000000
0.573468 0.968549 0.000000
0.621728 0.968824 0.000000
0.669952 0.969099 0.000000
0.718125 0.969375 0.000000
0.766234 0.969650 0.000000
0.814269 0.969925 0.000000
0.862218 0.970200 0.000000
0.910074 0.970475 0.000000
0.957828 0.970751 0.000000
1.000000 0.971026 0.000000
1.000000 0.971301 0.000000
1.000000 0.971576 0.000000
0.000000 1.000000 0.000000
0.000000 1.000000 0.000000
0.047470 1.000000 0.000000
0.095236 1.000000 0.000000
0.143102 1.000000 0.000000
0.191062 1.000000 0.000000
0.239105 1.000000 0.000000
0.287222 1.000000 0.000000
0.335401 1.000000 0.000000
0.383630 1.000000 0.000000
0.431893 1.000000 0.000000
0.480178 1.000000 0.000000
0.528469 1.000000 0.000000
0.576751 1.000000 0.000000
0.625009 1.000000 0.000000
0.673229 1.000000 0.000000
0.721398 1.000000 0.000000
0.769503 1.000000 0.000000
0.817532 1.000000 0.000000
0.865475 1.000000 0.000000
0.913324 1.000000 0.000000
0.961072 1.000000 0.000000
1.000000 1.000000 0.000000
1.000000 1.000000 0.000000
1.000000 1.000000 0.000000
0.000000 1.000000 0.000000
0.003047 1.000000 0.000000
0.050715 1.000000 0.000000
0.098488 1.000000 0.000000
0.146361 1.000000 0.000000
0.194326 1.000000 0.000000
0.242375 1.000000 0.000000
0.290497 1.000000 0.000000
0.338679 1.000000 0.000000
0.386911 1.000000 0.000000
0.435176 1.000000 0.000000
0.483462 1.000000 0.000000
0.531752 1.000000 0.000000
0.580033 1.000000 0.000000
0.628289 1.000000 0.000000
0.676507 1.000000 0.000000
0.724672 1.000000 0.000000
0.772772 1.000000 0.000000
0.820795 1.000000 0.000000
0.868732 1.000000 0.000000
0.916574 1.000000 0.000000
0.964315 1.000000 0.000000
1.000000 1.000000 0.000000
1.000000 1.000000 0.000000
1.000000 1.000000 0.000000
0.000000 0.000000 0.055506
0.000000 0.000000 0.053853
0.004714 0.000000 0.052200
0.051560 0.000000 0.050547
0.098506 0.000000 0.048894
0.145549 0.000000 0.047241
0.192682 0.000000 0.045589
0.239895 0.000000 0.043936
0.287179 0.000000 0.042284
0.334524 0.000000 0.040632
0.381916 0.000000 0.038980
0.429342 0.000000 0.037328
0.476790 0.000000 0.035676
0.524244 0.000000 0.034024
0.571691 0.000000 0.032373
0.619117 0.000000 0.030721
0.666508 0.000000 0.029070
0.713852 0.000000 0.027419
0.761134 0.000000 0.025768
0.808346 0.000000 0.024117
0.855477 0.000000 0.022466
0.902518 0.000000 0.020815
0.949462 0.000000 0.019165
0.996305 0.000000 0.017514
1.000000 0.000000 0.015864
0.000000 0.005461 0.052261
0.000000 0.005049 0.050608
0.006333 0.004637 0.048955
0.053182 0.004224 0.047302
0.100132 0.003812 0.045650
0.147179 0.003400 0.043997
0.194314 0.002987 0.042345
0.241530 0.002575 0.040693
0.288817 0.002163 0.039041
0.336163 0.001751 0.037389
0.383556 0.001338 0.035737
0.430984 0.000926 0.034085
0.478432 0.000514 0.032433
0.525886 0.000101 0.030782
0.573333 0.000000 0.029131
0.620758 0.000000 0.027479
0.668147 0.000000 0.025828
0.715489 0.000000 0.024177
0.762769 0.000000 0.022527
0.809978 0.000000 0.020876
0.857106 0.000000 0.019225
0.904143 0.000000 0.017575
0.951085 0.000000 0.015925
0.997924 0.000000 0.014274
1.000000 0.000000 0.012624
0.000000 0.050671 0.049016
0.000000 0.050257 0.047363
0.007953 0.049844 0.045710
0.054805 0.049431 0.044058
0.101759 0.049018 0.042406
0.148808 0.048604 0.040753
0.195946 0.048191 0.039101
0.243165 0.047778 0.037449
0.290454 0.047365 0.035797
0.337802 0.046952 0.034146
0.385196 0.046539 0.032494
0.432625 0.046125 0.030843
0.480073 0.045712 0.029191
0.527528 0.045299 0.027540
0.574974 0.044886 0.025889
0.622398 0.044473 0.024238
0.669786 0.044060 0.022587
0.717126 0.043647 0.020937
0.764404 0.043234 0.019286
0.811610 0.042821 0.017636
0.858735 0.042407 0.015985
0.905769 0.041994 0.014335
0.952707 0.041581 0.012685
0.999543 0.041168 0.011035
1.000000 0.040755 0.009385
0.000000 0.095974 0.045771
0.000000 0.095560 0.044119
0.009572 0.095146 0.042466
0.056428 0.094732 0.040814
0.103385 0.094318 0.039162
0.150438 0.093904 0.037510
0.197579 0.093490 0.035858
0.244800 0.093076 0.034206
0.292091 0.092662 0.032555
0.339441 0.092248 0.030903
0.386837 0.091834 0.029252
0.434266 0.091420 0.027601
0.481715 0.091006 0.025950
0.529170 0.090592 0.024299
0.576615 0.090178 0.022648
0.624038 0.089764 0.020997
0.671425 0.089350 0.019347
0.718762 0.088936 0.017696
0.766038 0.088522 0.016046
0.813242 0.088108 0.014396
0.860364 0.087694 0.012746
0.907395 0.087280 0.011096
0.954329 0.086866 0.009446
1.000000 0.086452 0.007796
1.000000 0.086039 0.006147
0.000000 0.141368 0.042527
0.000000 0.140953 0.040875
0.011191 0.140538 0.039223
0.058051 0.140123 0.037571
0.105011 0.139708 0.035919
0.152067 0.139294 0.034267
0.199211 0.138879 0.032616
0.246435 0.138464 0.030964
0.293728 0.138049 0.029313
0.341080 0.137634 0.027662
0.388478 0.137220 0.026011
0.435908 0.136805 0.024360
0.483357 0.136390 0.022709
0.530812 0.135975 0.021058
0.578257 0.135560 0.019407
0.625679 0.135146 0.017757
0.673064 0.134731 0.016107
0.720399 0.134316 0.014456
0.767673 0.133901 0.012806
0.814874 0.133487 0.011156
0.861992 0.133072 0.009507
0.909020 0.132657 0.007857
0.955951 0.132242 0.006207
1.000000 0.131828 0.004558
1.000000 0.131413 0.002909
0.000000 0.186845 0.039284
0.000000 0.186430 0.037632
0.012811 0.186014 0.035980
0.059674 0.185599 0.034328
0.106638 0.185183 0.032676
0.153697 0.184768 0.031025
0.200844 0.184352 0.029374
0.248070 0.183936 0.027722
0.295366 0.183521 0.026071
0.342719 0.183105 0.024420
0.390118 0.182690 0.022769
0.437549 0.182274 0.021119
0.484999 0.181859 0.019468
0.532453 0.181443 0.017818
0.579898 0.181028 0.016167
0.627319 0.180612 0.014517
0.674702 0.180197 0.012867
0.722036 0.179781 0.011217
0.769307 0.179366 0.009567
0.816506 0.178950 0.007918
0.863621 0.178535 0.006268
0.910646 0.178119 0.004619
0.957573 0.177704 0.002969
1.000000 0.177288 0.001320
1.000000 0.176873 0.000000
0.000000 0.232399 0.036041
0.000000 0.231983 0.034389
0.014431 0.231567 0.032737
0.061297 0.231151 0.031086
0.108265 0.230734 0.029434
0.155327 0.230318 0.027783
0.202477 0.229902 0.026132
0.249706 0.229486 0.024481
0.297003 0.229070 0.022830
0.344359 0.228653 0.021179
0.391759 0.228237 0.019529
0.439191 0.227821 0.017878
0.486641 0.227405 0.016228
0.534095 0.226988 0.014578
0.581539 0.226572 0.012928
0.628959 0.226156 0.011278
0.676341 0.225740 0.009628
0.723673 0.225324 0.007978
0.770942 0.224908 0.006329
0.818137 0.224491 0.004679
0.865250 0.224075 0.003030
0.912271 0.223659 0.001381
0.959195 0.223243 0.000000
1.000000 0.222827 0.000000
1.000000 0.222411 0.000000
0.000000 0.278021 0.032798
0.000000 0.277604 0.031146
0.016051 0.277188 0.029495
0.062921 0.276771 0.027844
0.109891 0.276354 0.026193
0.156957 0.275937 0.024542
0.204110 0.275520 0.022891
0.251341 0.275103 0.021240
0.298641 0.274687 0.019590
0.345998 0.274270 0.017939
0.393399 0.273853 0.016289
0.440832 0.273436 0.014639
0.488283 0.273019 0.012989
0.535737 0.272603 0.011339
0.583180 0.272186 0.009689
0.630599 0.271769 0.008039
0.677980 0.271352 0.006390
0.725309 0.270936 0.004740
0.772576 0.270519 0.003091
0.819769 0.270102 0.001442
0.866878 0.269685 0.000000
0.913896 0.269269 0.000000
0.960817 0.268852 0.000000
1.000000 0.268435 0.000000
1.000000 0.268018 0.000000
0.000000 0.323701 0.029556
0.000000 0.323283 0.027905
0.017671 0.322866 0.026253
0.064544 0.322449 0.024602
0.111518 0.322032 0.022952
0.158587 0.321614 0.021301
0.205742 0.321197 0.019650
0.252976 0.320780 0.018000
0.300279 0.320362 0.016350
0.347637 0.319945 0.014699
0.395040 0.319528 0.013049
0.442474 0.319110 0.011399
0.489925 0.318693 0.009749
0.537379 0.318276 0.008100
0.584821 0.317859 0.006450
0.632239 0.317441 0.004801
0.679618 0.317024 0.003152
0.726946 0.316607 0.001502
0.774210 0.316190 0.000000
0.821400 0.315772 0.000000
0.868507 0.315355 0.000000
0.915521 0.314938 0.000000
0.962438 0.314521 0.000000
1.000000 0.314103 0.000000
1.000000 0.313686 0.000000
0.000000 0.369428 0.026314
0.000000 0.369010 0.024663
0.019291 0.368592 0.023012
0.066168 0.368174 0.021362
0.113145 0.367757 0.019711
0.160217 0.367339 0.018061
0.207375 0.366921 0.016410
0.254612 0.366504 0.014760
0.301916 0.366086 0.013110
0.349277 0.365668 0.011460
0.396681 0.365251 0.009810
0.444115 0.364833 0.008160
0.491567 0.364415 0.006511
0.539020 0.363998 0.004861
0.586463 0.363580 0.003212
0.633879 0.363162 0.001563
0.681257 0.362745 0.000000
0.728582 0.362327 0.000000
0.775844 0.361909 0.000000
0.823031 0.361492 0.000000
0.870135 0.361074 0.000000
0.917146 0.360656 0.000000
0.964060 0.360239 0.000000
1.000000 0.360459 0.000000
1.000000 0.360737 0.000000
0.000000 0.415190 0.023073
0.000000 0.414772 0.021422
0.020911 0.414354 0.019772
0.067792 0.413936 0.018121
0.114772 0.413518 0.016471
0.161847 0.413100 0.014821
0.209009 0.412682 0.013171
0.256248 0.412264 0.011521
0.303554 0.411846 0.009871
0.350916 0.411428 0.008221
0.398322 0.411010 0.006572
